; generated by PrusaSlicer 2.9.2 on 2025-09-04 at 12:52:49 UTC

; 

; external perimeters extrusion width = 0.42mm
; perimeters extrusion width = 0.44mm
; infill extrusion width = 0.44mm
; solid infill extrusion width = 0.44mm
; top infill extrusion width = 0.40mm
; first layer extrusion width = 0.42mm

; external perimeters extrusion width = 0.42mm
; perimeters extrusion width = 0.44mm
; infill extrusion width = 0.44mm
; solid infill extrusion width = 0.44mm
; top infill extrusion width = 0.40mm
; first layer extrusion width = 0.42mm

M201 X500 Y500 Z100 E5000 ; sets maximum accelerations, mm/sec^2
M203 X500 Y500 Z10 E60 ; sets maximum feedrates, mm / sec
M204 S500 T1000 ; sets acceleration (S) and retract acceleration (R), mm/sec^2
M205 X8.00 Y8.00 Z0.40 E5.00 ; sets the jerk limits, mm/sec
M205 S0 T0 ; sets the minimum extruding and travel feed rate, mm/sec

; printing object Golf1-clips+No+frame_27 id:1 copy 0
; stop printing object Golf1-clips+No+frame_27 id:1 copy 0
; printing object Golf1-clips+No+frame_25 id:0 copy 0
; stop printing object Golf1-clips+No+frame_25 id:0 copy 0

;TYPE:Custom
G90 ; use absolute coordinates
M83 ; extruder relative mode
M104 S150 ; set temporary nozzle temp to prevent oozing during homing
M140 S80 ; set final bed temp
G4 S30 ; allow partial nozzle warmup
G28 ; home all axis
G1 Z50 F240
G1 X2.0 Y10 F3000
M104 S240 ; set final nozzle temp
M190 S80 ; wait for bed temp to stabilize
M109 S240 ; wait for nozzle temp to stabilize
G1 Z0.28 F240
G92 E0
G1 X2.0 Y140 E10 F1500 ; prime the nozzle
G1 X2.3 Y140 F5000
G92 E0
G1 X2.3 Y10 E10 F1200 ; prime the nozzle
G92 E0
G21 ; set units to millimeters
G90 ; use absolute coordinates
M83 ; use relative distances for extrusion
; Filament gcode
M107
;LAYER_CHANGE
;Z:0.2
;HEIGHT:0.2
G1 E-5 F3600
G1 Z.2 F9000
; printing object Golf1-clips+No+frame_25 id:0 copy 0
G1 X67.746 Y172.857
G1 Z.2
G1 E5 F2400
M204 S500
;TYPE:Perimeter
;WIDTH:0.419999
G1 F1200
G1 X67.856 Y172.973 E.00501
G1 X64.331 Y172.972 E.11052
G1 X64.331 Y170.679 E.0719
G1 X65.327 Y168.793 E.06687
G1 X65.603 Y169.584 E.02627
G1 X65.963 Y170.377 E.02731
G1 X66.238 Y170.886 E.01814
G1 X66.577 Y171.429 E.02007
G1 X66.942 Y171.939 E.01966
G1 X67.354 Y172.441 E.02036
G1 X67.705 Y172.813 E.01604
G1 X68.873 Y173.353 F9000
G1 F1200
G1 X63.954 Y173.349 E.15423
G1 X63.954 Y170.585 E.08666
G1 X65.453 Y167.742 E.10077
G1 X65.55 Y168.187 E.01428
G1 X65.729 Y168.827 E.02084
G1 X65.947 Y169.429 E.02007
G1 X66.295 Y170.199 E.02649
G1 X66.558 Y170.688 E.01741
G1 X66.884 Y171.211 E.01932
G1 X67.234 Y171.701 E.01888
G1 X67.629 Y172.183 E.01954
G1 X68.133 Y172.716 E.023
G1 X68.827 Y173.314 E.02872
G1 X69.419 Y173.296 F9000
;TYPE:External perimeter
G1 F1200
G1 X69.431 Y173.305 E.00047
G1 X69.789 Y173.509 E.01292
G1 X69.788 Y173.595 E.0027
G1 X69.787 Y173.741 E.00458
G1 X63.577 Y173.726 E.19471
G1 X63.577 Y170.492 E.1014
G1 X65.105 Y167.597 E.10264
G1 X65.469 Y166.722 E.02971
G1 X65.743 Y166.205 E.01835
G1 X65.8 Y166.985 E.02452
G1 X65.809 Y167.486 E.01571
G1 X65.913 Y168.086 E.01909
G1 X66.084 Y168.699 E.01995
G1 X66.291 Y169.275 E.01919
G1 X66.628 Y170.021 E.02567
G1 X66.879 Y170.489 E.01665
G1 X67.191 Y170.992 E.01856
G1 X67.527 Y171.463 E.01814
G1 X67.903 Y171.925 E.01868
G1 X68.386 Y172.438 E.02209
G1 X68.875 Y172.881 E.02069
G1 X69.372 Y173.26 E.0196
G1 E-3.5 F3600
;WIPE_START
G1 F7200
G1 X69.419 Y173.296 E-.02812
G1 X69.431 Y173.305 E-.00713
G1 X69.789 Y173.509 E-.19572
G1 X69.788 Y173.595 E-.04085
G1 X69.787 Y173.741 E-.06935
G1 X67.347 Y173.735 E-1.15883
;WIPE_END
G1 X65.014 Y169.645 F9000
G1 E5 F2400
;TYPE:Solid infill
;WIDTH:0.456889
G1 F1200
G1 X65.563 Y170.195 E.02675
G1 X65.705 Y170.511 E.01193
G1 X65.989 Y171.036 E.02055
G1 X66.266 Y171.483 E.0181
G1 X64.937 Y170.154 E.0647
G1 X64.734 Y170.537 E.01492
G1 X66.88 Y172.682 E.10444
G1 X66.294 Y172.682 E.02017
G1 X64.622 Y171.01 E.08139
G1 X64.622 Y171.595 E.02014
G1 X65.709 Y172.682 E.05291
G1 X65.123 Y172.682 E.02017
G1 X64.452 Y172.011 E.03266
G1 E-3.5 F3600
;WIPE_START
G1 F7200
G1 X65.123 Y172.682 E-.45075
G1 X65.709 Y172.682 E-.27835
G1 X64.622 Y171.595 E-.73019
G1 X64.622 Y171.509 E-.04071
;WIPE_END
G1 X95.706 Y179.014 F9000
G1 E5 F2400
;TYPE:Perimeter
;WIDTH:0.419999
G1 F1200
G1 X95.806 Y178.685 E.01078
G1 X96.018 Y178.383 E.01157
G1 X96.088 Y178.322 E.00291
G1 X96.447 Y178.109 E.01309
G1 X96.866 Y178.022 E.01342
G1 X111.775 Y178.022 E.46746
G1 X112.789 Y178.056 E.03181
G1 X113.364 Y178.13 E.01818
G1 X113.444 Y178.147 E.00256
G1 X113.57 Y178.292 E.00602
G1 X113.694 Y178.147 E.00598
G1 X114.798 Y178.03 E.03481
G1 X119.884 Y178.031 E.15947
G1 X120.285 Y178.137 E.013
G1 X120.632 Y178.369 E.01309
G1 X120.893 Y178.716 E.01361
G1 X121.013 Y179.096 E.01249
G1 X121.021 Y179.328 E.00728
;WIDTH:0.461895
G1 X120.895 Y179.894 E.0202
G1 X120.698 Y180.152 E.01131
;WIDTH:0.437304
G1 X113.949 Y187.335 E.32322
;WIDTH:0.437498
G1 X113.936 Y187.348 E.0006
;WIDTH:0.454334
G1 X113.192 Y188.103 E.03626
;WIDTH:0.497112
G1 X113.042 Y188.204 E.00683
;WIDTH:0.539889
G1 X112.892 Y188.306 E.0075
G1 X112.694 Y188.26 E.0084
G1 X112.689 Y188.522 E.01083
G1 X112.588 Y188.689 E.00806
;WIDTH:0.496488
G1 X112.487 Y188.855 E.00733
;WIDTH:0.458031
G1 X112.204 Y189.138 E.01381
G1 X111.678 Y189.418 E.02057
;WIDTH:0.419999
G1 X111.388 Y189.495 E.00941
G1 X110.896 Y189.547 E.01551
;WIDTH:0.374428
G1 X110.677 Y189.539 E.00604
;WIDTH:0.35701
G1 X105.483 Y189.539 E.13565
;WIDTH:0.388529
G1 X105.186 Y189.554 E.00855
;WIDTH:0.419999
G1 X104.89 Y189.57 E.00929
G1 X98.123 Y189.57 E.21217
G1 X97.9 Y189.554 E.00701
;WIDTH:0.388496
G1 X97.677 Y189.539 E.00642
;WIDTH:0.356992
G1 X95.653 Y189.538 E.05286
;WIDTH:0.381678
G1 X95.433 Y189.502 E.00628
;WIDTH:0.408112
G1 X95.213 Y189.467 E.00676
;WIDTH:0.419999
G1 X94.964 Y189.333 E.00887
G1 X94.738 Y189.116 E.00982
G1 X94.526 Y188.722 E.01403
G1 X94.478 Y188.331 E.01235
G1 X94.482 Y188.234 E.00304
G1 X95.692 Y179.072 E.28976
G1 X96.069 Y179.097 F9000
;TYPE:External perimeter
G1 F1200
G1 X96.157 Y178.83 E.00881
G1 X96.313 Y178.624 E.0081
G1 X96.538 Y178.475 E.00846
G1 X96.866 Y178.399 E.01056
G1 X111.775 Y178.399 E.46746
G1 X112.776 Y178.432 E.0314
G1 X113.314 Y178.504 E.01702
;WIDTH:0.463074
G1 X113.38 Y178.541 E.00264
;WIDTH:0.506149
G1 X113.447 Y178.579 E.00297
;WIDTH:0.549224
G1 X113.513 Y178.617 E.00321
;WIDTH:0.592299
G1 X113.579 Y178.654 E.00346
G1 X113.642 Y178.616 E.00336
;WIDTH:0.549224
G1 X113.706 Y178.578 E.00313
;WIDTH:0.506149
G1 X113.769 Y178.54 E.00283
;WIDTH:0.463074
G1 X113.833 Y178.502 E.0026
;WIDTH:0.419999
G1 X114.834 Y178.405 E.03153
G1 X119.883 Y178.408 E.15831
G1 X120.217 Y178.523 E.01108
G1 X120.441 Y178.712 E.00919
G1 X120.591 Y178.963 E.00917
G1 X120.649 Y179.264 E.00961
G1 X120.561 Y179.676 E.01321
G1 X120.417 Y179.888 E.00804
G1 X113.668 Y187.07 E.30901
G1 X112.914 Y187.824 E.03343
G1 X112.793 Y187.878 E.00415
;WIDTH:0.43832
G1 X112.62 Y187.805 E.00617
;WIDTH:0.479796
G1 X112.565 Y187.745 E.00296
;WIDTH:0.521272
G1 X112.51 Y187.684 E.00327
;WIDTH:0.562748
G1 X112.455 Y187.623 E.00355
;WIDTH:0.604224
G1 X112.4 Y187.563 E.0038
G1 X112.365 Y187.66 E.00481
;WIDTH:0.558311
G1 X112.329 Y187.758 E.00447
;WIDTH:0.512398
G1 X112.294 Y187.856 E.00406
;WIDTH:0.466485
G1 X112.258 Y187.953 E.00364
;WIDTH:0.420571
G1 X112.255 Y188.473 E.01633
;WIDTH:0.419999
G1 X112.204 Y188.582 E.00377
G1 X111.977 Y188.813 E.01015
G1 X111.524 Y189.074 E.01639
G1 X111.032 Y189.173 E.01574
G1 X110.677 Y189.193 E.01115
G1 X95.654 Y189.193 E.47103
G1 X95.226 Y189.062 E.01403
G1 X94.954 Y188.778 E.01233
G1 X94.863 Y188.52 E.00858
G1 X94.856 Y188.283 E.00743
G1 X96.062 Y179.157 E.28863
G1 E-3.5 F3600
;WIPE_START
G1 F7200
G1 X96.069 Y179.097 E-.02869
G1 X96.157 Y178.83 E-.13354
G1 X96.313 Y178.624 E-.12274
G1 X96.538 Y178.475 E-.12818
G1 X96.866 Y178.399 E-.15993
G1 X98.817 Y178.399 E-.92692
;WIPE_END
G1 X93.788 Y179.164 F9000
G1 E5 F2400
;TYPE:Perimeter
G1 F1200
G1 X93.81 Y179.358 E.00612
G1 X92.597 Y188.544 E.29052
G1 X92.452 Y188.958 E.01375
;WIDTH:0.461934
G1 X92.096 Y189.375 E.0191
;WIDTH:0.497064
G1 X91.883 Y189.513 E.00958
G1 X91.604 Y189.541 E.01059
;WIDTH:0.458532
G1 X91.325 Y189.57 E.00969
;WIDTH:0.419999
G1 X85.123 Y189.57 E.19446
G1 X84.9 Y189.554 E.00701
;WIDTH:0.388494
G1 X84.677 Y189.539 E.00642
;WIDTH:0.356989
G1 X82.006 Y189.537 E.06975
;WIDTH:0.39202
G1 X81.544 Y189.499 E.01346
;WIDTH:0.419999
G1 X81.012 Y189.321 E.01759
G1 X80.416 Y188.869 E.02345
G1 X74.874 Y182.333 E.26868
G1 X74.618 Y181.944 E.0146
G1 X74.424 Y181.425 E.01737
G1 X74.388 Y181.235 E.00606
G1 X74.379 Y180.682 E.01734
G1 X74.532 Y180.128 E.01802
G1 X74.679 Y179.797 E.01136
G1 X75.019 Y179.367 E.01719
G1 X75.926 Y178.548 E.03832
G1 X76.215 Y178.343 E.01111
G1 X76.783 Y178.099 E.01938
G1 X77.343 Y178.022 E.01772
G1 X92.639 Y178.022 E.47959
G1 X92.937 Y178.065 E.00944
G1 X93.301 Y178.232 E.01256
G1 X93.545 Y178.479 E.01089
G1 X93.747 Y178.801 E.01192
G1 X93.782 Y179.104 E.00956
G1 X93.422 Y179.178 F9000
;TYPE:External perimeter
G1 F1200
G1 X93.437 Y179.309 E.00413
G1 X92.223 Y188.495 E.29052
G1 X92.055 Y188.881 E.0132
G1 X91.755 Y189.117 E.01197
G1 X91.325 Y189.193 E.01369
G1 X82.006 Y189.193 E.29219
G1 X81.667 Y189.158 E.01069
G1 X81.14 Y188.967 E.01758
G1 X80.657 Y188.579 E.01943
G1 X75.162 Y182.089 E.26663
G1 X74.971 Y181.811 E.01058
G1 X74.777 Y181.293 E.01734
G1 X74.756 Y180.675 E.01939
G1 X74.944 Y180.087 E.01936
G1 X75.288 Y179.635 E.01781
G1 X75.784 Y179.179 E.02113
G1 X76.335 Y178.709 E.02271
G1 X76.801 Y178.485 E.01621
G1 X77.315 Y178.401 E.01633
G1 X92.639 Y178.399 E.48047
G1 X92.873 Y178.437 E.00743
G1 X93.176 Y178.614 E.011
G1 X93.397 Y178.955 E.01274
G1 X93.415 Y179.119 E.00517
G1 E-3.5 F3600
;WIPE_START
G1 F7200
G1 X93.422 Y179.178 E-.02822
G1 X93.437 Y179.309 E-.06263
G1 X93.048 Y182.25 E-1.40915
;WIPE_END
G1 X92.556 Y190.198 F9000
G1 E5 F2400
G1 F1200
G1 X97.677 Y190.198 E.16057
G1 X97.975 Y190.315 E.01004
G1 X98.15 Y190.489 E.00774
G1 X98.259 Y190.72 E.00801
G1 X98.278 Y190.968 E.0078
G1 X98.219 Y191.197 E.00741
;WIDTH:0.421493
G1 X98.075 Y191.416 E.00825
;WIDTH:0.428933
G1 X97.863 Y191.551 E.00807
G1 X97.392 Y191.586 E.01516
;WIDTH:0.421713
G1 X92.581 Y191.588 E.15153
;WIDTH:0.427192
G1 X92.237 Y191.52 E.0112
G1 X92.032 Y191.342 E.00867
;WIDTH:0.419999
G1 X91.899 Y191.03 E.01063
G1 X91.897 Y190.775 E.008
G1 X91.985 Y190.541 E.00784
G1 X92.163 Y190.342 E.00837
G1 X92.49 Y190.198 E.0112
G1 X92.496 Y190.198 E.00019
G1 E-3.5 F3600
;WIPE_START
G1 F7200
G1 X92.556 Y190.198 E-.0285
G1 X95.654 Y190.198 E-1.4715
;WIPE_END
G1 X104.898 Y190.811 F9000
G1 E5 F2400
G1 F1200
G1 X104.897 Y190.775 E.00113
G1 X104.985 Y190.541 E.00784
G1 X105.163 Y190.342 E.00837
G1 X105.49 Y190.198 E.0112
G1 X110.677 Y190.198 E.16263
G1 X110.975 Y190.315 E.01004
G1 X111.15 Y190.489 E.00774
G1 X111.259 Y190.72 E.00801
G1 X111.278 Y190.968 E.0078
G1 X111.203 Y191.226 E.00842
;WIDTH:0.422484
G1 X111.075 Y191.417 E.00726
;WIDTH:0.435835
G1 X110.868 Y191.553 E.00809
G1 X110.662 Y191.584 E.00681
;WIDTH:0.420082
G1 X105.842 Y191.589 E.15116
;WIDTH:0.428192
G1 X105.316 Y191.553 E.01689
G1 X105.094 Y191.417 E.00834
;WIDTH:0.420715
G1 X104.911 Y191.084 E.01194
;WIDTH:0.419999
G1 X104.901 Y190.871 E.00669
G1 E-3.5 F3600
;WIPE_START
G1 F7200
G1 X104.898 Y190.811 E-.02854
G1 X104.897 Y190.775 E-.01711
G1 X104.985 Y190.541 E-.11875
G1 X105.163 Y190.342 E-.12682
G1 X105.49 Y190.198 E-.16972
G1 X107.677 Y190.198 E-1.03906
;WIPE_END
G1 X112.4 Y187.563 F9000
G1 E5 F2400
;WIDTH:0.604224
G1 F1200
G1 X112.405 Y187.514 E.0023
;WIDTH:0.6
G1 X113.565 Y178.727 E.41056
;WIDTH:0.60422
G1 X113.569 Y178.679 E.00225
G1 E-3.5 F3600
;WIPE_START
G1 F7200
G1 X113.565 Y178.727 E-.02288
G1 X113.158 Y181.81 E-1.47712
;WIPE_END
G1 X117.948 Y176.796 F9000
G1 E5 F2400
;WIDTH:0.419999
G1 F1200
G1 X117.914 Y176.78 E.00118
G1 X117.875 Y176.662 E.0039
G1 X117.88 Y176.15 E.01605
G1 X117.979 Y175.328 E.02596
G1 X118.073 Y175.262 E.0036
;WIDTH:0.387395
G1 X118.166 Y175.195 E.00328
;WIDTH:0.354791
G1 X121.203 Y175.195 E.07876
;WIDTH:0.387395
G1 X121.288 Y175.232 E.00266
;WIDTH:0.419999
G1 X121.373 Y175.269 E.00291
G1 X121.741 Y176.032 E.02656
G1 X121.937 Y176.579 E.01822
G1 X121.943 Y176.733 E.00483
G1 X121.822 Y176.845 E.00517
G1 X121.771 Y176.853 E.00162
G1 X118.063 Y176.852 E.11626
G1 X118.002 Y176.823 E.00212
G1 E-3.5 F3600
;WIPE_START
G1 F7200
G1 X117.948 Y176.796 E-.02868
G1 X117.914 Y176.78 E-.01785
G1 X117.875 Y176.662 E-.05903
G1 X117.88 Y176.15 E-.24321
G1 X117.979 Y175.328 E-.39327
G1 X118.073 Y175.262 E-.05456
G1 X118.166 Y175.195 E-.05445
G1 X119.532 Y175.195 E-.64895
;WIPE_END
G1 X131.378 Y175.842 F9000
G1 E5 F2400
;WIDTH:0.63337
G1 F1200
G1 X131.689 Y175.821 E.0153
;WIDTH:0.592314
G1 X132.001 Y175.8 E.01429
;WIDTH:0.551257
G1 X132.312 Y175.779 E.01318
;WIDTH:0.514172
G1 X132.395 Y175.781 E.00325
G1 E-3.5 F3600
;WIPE_START
G1 F7200
G1 X132.312 Y175.779 E-.03944
G1 X132.001 Y175.8 E-.14806
G1 X131.689 Y175.821 E-.14854
G1 X131.378 Y175.842 E-.14806
;WIPE_END
G1 E-1.0159 F3600
G1 X150.075 Y175.386 F9000
G1 E5 F2400
;WIDTH:0.632404
G1 F1200
G1 X150.397 Y175.364 E.01582
;WIDTH:0.58782
G1 X150.719 Y175.341 E.01463
;WIDTH:0.543235
G1 X151.042 Y175.319 E.01347
G1 E-3.5 F3600
;WIPE_START
G1 F7200
G1 X150.719 Y175.341 E-.15378
G1 X150.397 Y175.364 E-.15334
G1 X150.075 Y175.386 E-.15331
;WIPE_END
G1 E-1.03957 F3600
G1 X85.244 Y190.688 F9000
G1 E5 F2400
;WIDTH:0.419999
G1 F1200
G1 X85.259 Y190.72 E.00111
G1 X85.278 Y190.968 E.0078
G1 X85.219 Y191.197 E.00741
G1 X85.151 Y191.318 E.00435
;WIDTH:0.4272
G1 X84.932 Y191.52 E.00952
G1 X84.662 Y191.583 E.00886
;WIDTH:0.421754
G1 X79.581 Y191.589 E.16005
;WIDTH:0.426506
G1 X79.237 Y191.52 E.01119
G1 X79.032 Y191.342 E.00866
;WIDTH:0.419999
G1 X78.899 Y191.03 E.01063
G1 X78.897 Y190.775 E.008
G1 X78.985 Y190.541 E.00784
G1 X79.162 Y190.342 E.00835
G1 X79.49 Y190.198 E.01123
G1 X80.039 Y190.19 E.01722
G1 X84.677 Y190.198 E.14542
G1 X84.975 Y190.315 E.01004
G1 X85.15 Y190.489 E.00774
G1 X85.219 Y190.634 E.00503
G1 E-3.5 F3600
;WIPE_START
G1 F7200
G1 X85.244 Y190.688 E-.02827
G1 X85.259 Y190.72 E-.01679
G1 X85.278 Y190.968 E-.11815
G1 X85.219 Y191.197 E-.11233
G1 X85.151 Y191.318 E-.06593
G1 X84.932 Y191.52 E-.14152
G1 X84.662 Y191.583 E-.13169
G1 X82.798 Y191.585 E-.88532
;WIPE_END
G1 X73.88 Y178.305 F9000
G1 E5 F2400
G1 F1200
G1 X73.858 Y178.33 E.00104
G1 X73.55 Y178.484 E.0108
G1 X73.268 Y178.519 E.00891
G1 X66.827 Y178.509 E.20195
G1 X66.489 Y178.379 E.01135
G1 X66.253 Y178.131 E.01073
G1 X66.146 Y177.912 E.00764
G1 X66.108 Y177.619 E.00926
G1 X66.174 Y177.317 E.00969
G1 X66.423 Y176.97 E.01339
G1 X66.682 Y176.826 E.00929
G1 X66.934 Y176.782 E.00802
G1 X73.455 Y176.791 E.20446
G1 X73.793 Y176.922 E.01137
G1 X74.004 Y177.126 E.0092
G1 X74.137 Y177.403 E.00963
G1 X74.157 Y177.828 E.01334
G1 X74.051 Y178.105 E.0093
G1 X73.919 Y178.259 E.00636
G1 E-3.5 F3600
;WIPE_START
G1 F7200
G1 X73.88 Y178.305 E-.02865
G1 X73.858 Y178.33 E-.01582
G1 X73.55 Y178.484 E-.16357
G1 X73.268 Y178.519 E-.13498
G1 X70.832 Y178.515 E-1.15698
;WIPE_END
G1 X66.248 Y178.787 F9000
G1 E5 F2400
;TYPE:Perimeter
;WIDTH:0.621584
G1 F1200
G1 X65.857 Y178.403 E.02637
G1 X65.382 Y177.915 F9000
;WIDTH:0.419999
G1 F1200
G1 X65.126 Y177.938 E.00806
G1 X65.003 Y178.015 E.00455
G1 X64.4 Y177.392 E.02719
G1 X64.331 Y177.116 E.00892
G1 X64.331 Y175.77 E.0422
G1 X66.517 Y175.755 E.06854
;WIDTH:0.390102
G1 X66.934 Y175.74 E.01205
;WIDTH:0.361697
G1 X69.061 Y175.741 E.05638
G1 X69.075 Y175.862 E.00323
G1 X69.327 Y176.06 E.00849
G1 X66.935 Y176.057 E.0634
;WIDTH:0.398918
G1 X66.543 Y176.095 E.01166
;WIDTH:0.419999
G1 X66.224 Y176.208 E.01061
G1 X66.029 Y176.328 E.00718
G1 X65.734 Y176.613 E.01286
G1 X65.59 Y176.832 E.00822
G1 X65.415 Y177.2 E.01278
G1 X65.364 Y177.496 E.00942
G1 X65.379 Y177.855 E.01127
G1 X65.757 Y177.858 F9000
;WIDTH:0.460316
G1 F1200
G1 X65.76 Y177.875 E.0006
;WIDTH:0.500633
G1 X65.784 Y178.007 E.00511
;WIDTH:0.54095
G1 X65.808 Y178.139 E.00556
;WIDTH:0.581267
G1 X65.833 Y178.271 E.00601
;WIDTH:0.621584
G1 X65.857 Y178.403 E.00646
G1 X65.788 Y178.375 E.00358
;WIDTH:0.581684
