; generated by PrusaSlicer 2.9.2 on 2025-08-31 at 09:16:41 UTC

; 

; external perimeters extrusion width = 0.42mm
; perimeters extrusion width = 0.44mm
; infill extrusion width = 0.44mm
; solid infill extrusion width = 0.44mm
; top infill extrusion width = 0.40mm
; first layer extrusion width = 0.42mm

; external perimeters extrusion width = 0.42mm
; perimeters extrusion width = 0.44mm
; infill extrusion width = 0.44mm
; solid infill extrusion width = 0.44mm
; top infill extrusion width = 0.40mm
; first layer extrusion width = 0.42mm

; external perimeters extrusion width = 0.42mm
; perimeters extrusion width = 0.44mm
; infill extrusion width = 0.44mm
; solid infill extrusion width = 0.44mm
; top infill extrusion width = 0.40mm
; first layer extrusion width = 0.42mm

; external perimeters extrusion width = 0.42mm
; perimeters extrusion width = 0.44mm
; infill extrusion width = 0.44mm
; solid infill extrusion width = 0.44mm
; top infill extrusion width = 0.40mm
; first layer extrusion width = 0.42mm

; external perimeters extrusion width = 0.42mm
; perimeters extrusion width = 0.44mm
; infill extrusion width = 0.44mm
; solid infill extrusion width = 0.44mm
; top infill extrusion width = 0.40mm
; first layer extrusion width = 0.42mm

; external perimeters extrusion width = 0.42mm
; perimeters extrusion width = 0.44mm
; infill extrusion width = 0.44mm
; solid infill extrusion width = 0.44mm
; top infill extrusion width = 0.40mm
; first layer extrusion width = 0.42mm

; external perimeters extrusion width = 0.42mm
; perimeters extrusion width = 0.44mm
; infill extrusion width = 0.44mm
; solid infill extrusion width = 0.44mm
; top infill extrusion width = 0.40mm
; first layer extrusion width = 0.42mm

; external perimeters extrusion width = 0.42mm
; perimeters extrusion width = 0.44mm
; infill extrusion width = 0.44mm
; solid infill extrusion width = 0.44mm
; top infill extrusion width = 0.40mm
; first layer extrusion width = 0.42mm

M201 X500 Y500 Z100 E5000 ; sets maximum accelerations, mm/sec^2
M203 X500 Y500 Z10 E60 ; sets maximum feedrates, mm / sec
M204 S500 T1000 ; sets acceleration (S) and retract acceleration (R), mm/sec^2
M205 X8.00 Y8.00 Z0.40 E5.00 ; sets the jerk limits, mm/sec
M205 S0 T0 ; sets the minimum extruding and travel feed rate, mm/sec

; printing object Golf1-clips+No+frame_5 id:0 copy 0
; stop printing object Golf1-clips+No+frame_5 id:0 copy 0
; printing object Golf1-clips+No+frame_27 id:7 copy 0
; stop printing object Golf1-clips+No+frame_27 id:7 copy 0
; printing object Golf1-clips+No+frame_12 id:1 copy 0
; stop printing object Golf1-clips+No+frame_12 id:1 copy 0
; printing object Golf1-clips+No+frame_17 id:3 copy 0
; stop printing object Golf1-clips+No+frame_17 id:3 copy 0
; printing object Golf1-clips+No+frame_25 id:6 copy 0
; stop printing object Golf1-clips+No+frame_25 id:6 copy 0
; printing object Golf1-clips+No+frame_24 id:5 copy 0
; stop printing object Golf1-clips+No+frame_24 id:5 copy 0
; printing object Golf1-clips+No+frame_15 id:2 copy 0
; stop printing object Golf1-clips+No+frame_15 id:2 copy 0
; printing object Golf1-clips+No+frame_18 id:4 copy 0
; stop printing object Golf1-clips+No+frame_18 id:4 copy 0

;TYPE:Custom
G90 ; use absolute coordinates
M83 ; extruder relative mode
M104 S150 ; set temporary nozzle temp to prevent oozing during homing
M140 S60 ; set final bed temp
G4 S30 ; allow partial nozzle warmup
G28 ; home all axis
G1 Z50 F240
G1 X2.0 Y10 F3000
M104 S220 ; set final nozzle temp
M190 S60 ; wait for bed temp to stabilize
M109 S220 ; wait for nozzle temp to stabilize
G1 Z0.28 F240
G92 E0
G1 X2.0 Y140 E10 F1500 ; prime the nozzle
G1 X2.3 Y140 F5000
G92 E0
G1 X2.3 Y10 E10 F1200 ; prime the nozzle
G92 E0
G21 ; set units to millimeters
G90 ; use absolute coordinates
M83 ; use relative distances for extrusion
; Filament gcode
M107
;LAYER_CHANGE
;Z:0.2
;HEIGHT:0.2
G1 E-5 F3600
G1 Z.2 F9000
; printing object Golf1-clips+No+frame_17 id:3 copy 0
G1 X57.219 Y148.087
G1 Z.2
G1 E5 F2400
M204 S500
;TYPE:Perimeter
;WIDTH:0.419999
G1 F1200
G1 X57.165 Y148.02 E.0027
G1 X56.864 Y147.85 E.01084
G1 X56.558 Y147.8 E.00972
G1 X55.904 Y147.801 E.02051
G1 X55.896 Y143.93 E.12137
G1 X56.549 Y143.928 E.02047
G1 X56.856 Y143.876 E.00976
G1 X57.048 Y143.784 E.00668
G1 X57.235 Y143.631 E.00758
G1 X57.434 Y143.306 E.01195
G1 X57.49 Y142.983 E.01028
G1 X57.485 Y140.538 E.07666
G1 X87.5 Y140.473 E.9411
G1 X87.505 Y142.918 E.07666
G1 X87.523 Y143.099 E.0057
G1 X87.611 Y143.351 E.00837
G1 X87.842 Y143.638 E.01155
G1 X88.143 Y143.808 E.01084
G1 X88.45 Y143.859 E.00976
G1 X89.103 Y143.858 E.02047
G1 X89.105 Y144.511 E.02047
G1 X89.112 Y147.729 E.1009
G1 X88.458 Y147.731 E.02051
G1 X88.152 Y147.783 E.00973
G1 X87.959 Y147.875 E.0067
G1 X87.773 Y148.028 E.00755
G1 X87.575 Y148.351 E.01188
G1 X87.518 Y148.675 E.01031
G1 X87.531 Y154.777 E.19132
G1 X57.516 Y154.842 E.9411
G1 X57.494 Y148.618 E.19515
G1 X57.396 Y148.308 E.01019
G1 X57.256 Y148.133 E.00703
G1 X56.947 Y148.354 F9000
G1 F1200
G1 X56.858 Y148.262 E.00401
G1 X56.558 Y148.177 E.00978
G1 X55.528 Y148.179 E.03229
G1 X55.518 Y143.553 E.14505
G1 X56.548 Y143.551 E.03229
G1 X56.848 Y143.465 E.00979
G1 X57.036 Y143.269 E.00852
G1 X57.113 Y142.984 E.00926
G1 X57.107 Y140.161 E.08851
G1 X87.876 Y140.095 E.96474
G1 X87.882 Y142.917 E.08848
G1 X87.96 Y143.202 E.00926
G1 X88.149 Y143.397 E.00851
G1 X88.449 Y143.482 E.00978
G1 X89.48 Y143.48 E.03233
G1 X89.482 Y144.51 E.03229
G1 X89.49 Y148.105 E.11272
G1 X88.459 Y148.108 E.03233
G1 X88.16 Y148.194 E.00976
G1 X87.971 Y148.39 E.00854
G1 X87.895 Y148.675 E.00925
G1 X87.909 Y155.153 E.20311
G1 X57.139 Y155.22 E.96477
G1 X57.125 Y148.741 E.20314
G1 X57.048 Y148.457 E.00923
G1 X56.989 Y148.397 E.00264
G1 X56.674 Y148.61 F9000
;TYPE:External perimeter
G1 F1200
G1 X56.559 Y148.554 E.00401
G1 X55.151 Y148.557 E.04415
G1 X55.14 Y143.177 E.16869
G1 X56.548 Y143.174 E.04415
G1 X56.669 Y143.129 E.00405
G1 X56.736 Y142.985 E.00498
G1 X56.729 Y139.785 E.10033
G1 X88.252 Y139.717 E.98838
G1 X88.259 Y142.917 E.10033
G1 X88.3 Y143.033 E.00386
G1 X88.448 Y143.105 E.00516
G1 X89.856 Y143.102 E.04415
G1 X89.859 Y144.509 E.04412
G1 X89.868 Y148.482 E.12457
G1 X88.46 Y148.485 E.04415
G1 X88.339 Y148.529 E.00404
G1 X88.272 Y148.674 E.00501
G1 X88.287 Y155.529 E.21493
G1 X56.763 Y155.598 E.98841
G1 X56.748 Y148.742 E.21497
G1 X56.715 Y148.647 E.00315
G1 E-3.5 F3600
;WIPE_START
G1 F7200
G1 X56.674 Y148.61 E-.02623
G1 X56.559 Y148.554 E-.06076
G1 X55.151 Y148.557 E-.6688
G1 X55.148 Y146.99 E-.74421
;WIPE_END
G1 X87.381 Y141.361 F9000
G1 E5 F2400
;TYPE:Solid infill
;WIDTH:0.42188
G1 F1200
G1 X86.784 Y140.764 E.0266
G1 X86.249 Y140.766 E.01686
G1 X87.212 Y141.728 E.04289
G1 X87.213 Y142.266 E.01695
G1 X85.715 Y140.767 E.06678
G1 X85.18 Y140.768 E.01686
G1 X87.391 Y142.979 E.09853
G1 X88.379 Y143.967 F9000
G1 F1200
G1 X88.814 Y144.402 E.01938
G1 X88.815 Y144.939 E.01692
G1 X84.645 Y140.769 E.18583
G1 X84.11 Y140.77 E.01686
G1 X88.817 Y145.477 E.20976
G1 X88.818 Y146.014 E.01692
G1 X83.576 Y140.771 E.23362
G1 X83.041 Y140.773 E.01686
G1 X88.819 Y146.551 E.25748
G1 X88.82 Y147.088 E.01692
G1 X82.506 Y140.774 E.28137
G1 X81.971 Y140.775 E.01686
G1 X88.636 Y147.44 E.29701
G1 X88.449 Y147.44 E.00589
G1 X88.151 Y147.491 E.00953
G1 X81.436 Y140.776 E.29924
G1 X80.902 Y140.777 E.01683
G1 X87.776 Y147.652 E.30635
G1 X87.562 Y147.827 E.00871
G1 X87.498 Y147.909 E.00328
G1 X80.367 Y140.778 E.31778
G1 X79.832 Y140.78 E.01686
G1 X87.302 Y148.249 E.33286
G1 X87.237 Y148.517 E.00869
G1 X87.237 Y148.72 E.0064
G1 X79.297 Y140.781 E.35381
G1 X78.763 Y140.782 E.01683
G1 X87.237 Y149.256 E.37763
G1 X87.237 Y149.792 E.01689
G1 X78.228 Y140.783 E.40147
G1 X77.693 Y140.784 E.01686
G1 X87.238 Y150.329 E.42535
G1 X87.238 Y150.865 E.01689
G1 X77.158 Y140.785 E.44919
G1 X76.624 Y140.786 E.01683
G1 X87.238 Y151.401 E.47301
G1 X87.239 Y151.937 E.01689
G1 X76.089 Y140.788 E.49685
G1 X75.554 Y140.789 E.01686
G1 X87.239 Y152.474 E.52072
G1 X87.239 Y153.01 E.01689
G1 X75.019 Y140.79 E.54456
G1 X74.484 Y140.791 E.01686
G1 X87.24 Y153.546 E.56842
G1 X87.24 Y154.082 E.01689
G1 X73.95 Y140.792 E.59224
G1 X73.415 Y140.793 E.01686
G1 X87.109 Y154.487 E.61024
G1 X86.574 Y154.489 E.01686
G1 X72.88 Y140.795 E.61024
G1 X72.345 Y140.796 E.01686
G1 X86.039 Y154.49 E.61024
G1 X85.505 Y154.491 E.01683
G1 X71.811 Y140.797 E.61024
G1 X71.276 Y140.798 E.01686
G1 X84.97 Y154.492 E.61024
G1 X84.435 Y154.493 E.01686
G1 X70.741 Y140.799 E.61024
G1 X70.206 Y140.8 E.01686
G1 X83.9 Y154.494 E.61024
G1 X83.366 Y154.496 E.01683
G1 X69.672 Y140.802 E.61024
G1 X69.137 Y140.803 E.01686
G1 X82.831 Y154.497 E.61024
G1 X82.296 Y154.498 E.01686
G1 X68.602 Y140.804 E.61024
G1 X68.067 Y140.805 E.01686
G1 X81.761 Y154.499 E.61024
G1 X81.226 Y154.5 E.01686
G1 X67.532 Y140.806 E.61024
G1 X66.998 Y140.807 E.01683
G1 X80.692 Y154.501 E.61024
G1 X80.157 Y154.503 E.01686
G1 X66.463 Y140.809 E.61024
G1 X65.928 Y140.81 E.01686
G1 X79.622 Y154.504 E.61024
G1 X79.087 Y154.505 E.01686
G1 X65.393 Y140.811 E.61024
G1 X64.859 Y140.812 E.01683
G1 X78.553 Y154.506 E.61024
G1 X78.018 Y154.507 E.01686
G1 X64.324 Y140.813 E.61024
G1 X63.789 Y140.814 E.01686
G1 X77.483 Y154.508 E.61024
G1 X76.948 Y154.509 E.01686
G1 X63.254 Y140.815 E.61024
G1 X62.72 Y140.817 E.01683
G1 X76.414 Y154.511 E.61024
G1 X75.879 Y154.512 E.01686
G1 X62.185 Y140.818 E.61024
G1 X61.65 Y140.819 E.01686
G1 X75.344 Y154.513 E.61024
G1 X74.809 Y154.514 E.01686
G1 X61.115 Y140.82 E.61024
G1 X60.58 Y140.821 E.01686
G1 X74.274 Y154.515 E.61024
G1 X73.74 Y154.516 E.01683
G1 X60.046 Y140.822 E.61024
G1 X59.511 Y140.824 E.01686
G1 X73.205 Y154.518 E.61024
G1 X72.67 Y154.519 E.01686
G1 X58.976 Y140.825 E.61024
G1 X58.441 Y140.826 E.01686
G1 X72.135 Y154.52 E.61024
G1 X71.601 Y154.521 E.01683
G1 X57.907 Y140.827 E.61024
G1 X57.775 Y140.827 E.00416
G1 X57.776 Y141.233 E.01279
G1 X71.066 Y154.522 E.59222
G1 X70.531 Y154.523 E.01686
G1 X57.778 Y141.77 E.56831
G1 X57.779 Y142.307 E.01692
G1 X69.996 Y154.525 E.54445
G1 X69.462 Y154.526 E.01683
G1 X57.78 Y142.844 E.52058
G1 X57.758 Y143.218 E.01181
G1 X57.728 Y143.328 E.00359
G1 X68.927 Y154.527 E.49906
G1 X68.392 Y154.528 E.01686
G1 X57.555 Y143.691 E.48293
G1 X57.292 Y143.964 E.01194
G1 X67.857 Y154.529 E.47081
G1 X67.322 Y154.53 E.01686
G1 X56.945 Y144.153 E.46243
G1 X56.475 Y144.219 E.01496
G1 X66.788 Y154.532 E.45958
G1 X66.253 Y154.533 E.01686
G1 X56.187 Y144.467 E.44857
G1 X56.188 Y145.004 E.01692
G1 X65.718 Y154.534 E.42468
G1 X65.183 Y154.535 E.01686
G1 X56.189 Y145.541 E.4008
G1 X56.191 Y146.078 E.01692
G1 X64.649 Y154.536 E.37691
G1 X64.114 Y154.537 E.01686
G1 X56.192 Y146.615 E.35303
G1 X56.193 Y147.152 E.01692
G1 X56.55 Y147.509 E.01591
G1 X56.956 Y147.574 E.01296
G1 X57.211 Y147.695 E.00889
G1 X57.454 Y147.893 E.00988
G1 X57.585 Y148.057 E.00661
G1 X57.717 Y148.315 E.00913
G1 X57.783 Y148.581 E.00864
G1 X57.783 Y148.743 E.0051
G1 X63.579 Y154.538 E.25826
G1 X63.044 Y154.54 E.01686
G1 X57.785 Y149.281 E.23436
G1 X57.787 Y149.819 E.01695
G1 X62.509 Y154.541 E.21043
G1 X61.975 Y154.542 E.01683
G1 X57.789 Y150.357 E.18652
G1 X57.791 Y150.895 E.01695
G1 X61.44 Y154.543 E.16259
G1 X60.905 Y154.544 E.01686
G1 X57.793 Y151.433 E.13866
G1 X57.795 Y151.97 E.01692
G1 X60.37 Y154.545 E.11475
G1 X59.836 Y154.547 E.01683
G1 X57.797 Y152.508 E.09086
G1 X57.799 Y153.046 E.01695
G1 X59.301 Y154.548 E.06693
G1 X58.766 Y154.549 E.01686
G1 X57.801 Y153.584 E.043
G1 X57.803 Y154.122 E.01695
G1 X58.401 Y154.719 E.02663
G1 E-3.5 F3600
;WIPE_START
G1 F7200
G1 X57.803 Y154.122 E-.40137
G1 X57.801 Y153.584 E-.25555
G1 X58.766 Y154.549 E-.64824
G1 X59.176 Y154.548 E-.19484
;WIPE_END
; stop printing object Golf1-clips+No+frame_17 id:3 copy 0
; printing object Golf1-clips+No+frame_27 id:7 copy 0
G1 X73.997 Y67.247 F9000
G1 E5 F2400
;TYPE:External perimeter
;WIDTH:0.520436
G1 F1200
G1 X74.038 Y67.245 E.00163
;WIDTH:0.516846
G1 X76.278 Y67.245 E.08827
;WIDTH:0.547606
G1 X76.363 Y67.26 E.00362
;WIDTH:0.578366
G1 X76.449 Y67.275 E.00389
G1 X76.473 Y67.379 E.00475
;WIDTH:0.528865
G1 X76.496 Y67.482 E.00426
;WIDTH:0.479364
G1 X76.491 Y68.475 E.03604
;WIDTH:0.472812
G1 X76.489 Y68.512 E.00132
G1 E-3.5 F3600
;WIPE_START
G1 F7200
G1 X76.491 Y68.475 E-.0176
G1 X76.496 Y67.482 E-.47168
G1 X76.473 Y67.379 E-.05013
G1 X76.449 Y67.275 E-.0507
G1 X76.363 Y67.26 E-.04147
G1 X76.278 Y67.245 E-.041
G1 X74.536 Y67.245 E-.82742
;WIPE_END
G1 X70.633 Y76.997 F9000
G1 E5 F2400
;WIDTH:0.550138
G1 F1200
G1 X70.632 Y76.974 E.00097
;WIDTH:0.550004
G1 X70.632 Y70.935 E.25463
G1 X71.801 Y69.901 F9000
;TYPE:Perimeter
;WIDTH:0.419999
G1 F1200
G1 X71.787 Y69.896 E.00047
G1 X73.09 Y68.809 E.0532
G1 X73.316 Y69.275 E.01624
G1 X73.661 Y69.469 E.01241
G1 X73.946 Y69.511 E.00903
G1 X75.681 Y69.477 E.05441
G1 X75.669 Y69.866 E.0122
G1 X75.714 Y70.516 E.02043
G1 X75.819 Y71.241 E.02297
G1 X75.946 Y71.832 E.01895
G1 X76.129 Y72.482 E.02117
G1 X76.342 Y73.081 E.01993
G1 X76.717 Y73.919 E.02879
G1 X77.136 Y74.677 E.02716
G1 X77.591 Y75.356 E.02563
G1 X78.072 Y75.96 E.02421
G1 X78.638 Y76.56 E.02586
G1 X73.421 Y76.557 E.16358
G1 X72.788 Y76.582 E.01986
G1 X72.818 Y75.953 E.01974
G1 X72.815 Y70.835 E.16047
G1 X72.744 Y70.475 E.0115
G1 X72.518 Y70.149 E.01244
G1 X71.857 Y69.921 E.02192
G1 X71.003 Y70.059 F9000
G1 F1200
G1 X73.002 Y68.389 E.08167
G1 X73.426 Y67.968 E.01873
G1 X73.375 Y68.551 E.01835
G1 X73.565 Y68.992 E.01506
G1 X73.773 Y69.109 E.00748
G1 X73.944 Y69.134 E.00542
G1 X75.432 Y69.122 E.04666
G1 X76.107 Y69.057 E.02126
G1 X76.066 Y69.303 E.00782
G1 X76.045 Y69.841 E.01688
G1 X76.088 Y70.463 E.01955
G1 X76.188 Y71.163 E.02217
G1 X76.309 Y71.731 E.01821
G1 X76.485 Y72.358 E.02042
G1 X76.687 Y72.928 E.01896
G1 X77.047 Y73.738 E.02779
G1 X77.45 Y74.469 E.02617
G1 X77.887 Y75.122 E.02464
G1 X78.347 Y75.702 E.02321
G1 X78.975 Y76.366 E.02866
G1 X79.649 Y76.938 E.02772
G1 X73.421 Y76.934 E.19527
G1 X72.392 Y76.977 E.03229
G1 X72.441 Y75.953 E.03214
G1 X72.438 Y70.985 E.15577
G1 X72.395 Y70.62 E.01152
G1 X72.289 Y70.453 E.0062
G1 X71.842 Y70.271 E.01513
G1 X70.977 Y70.348 E.02723
G1 X70.998 Y70.119 E.00721
G1 X70.642 Y69.87 F9000
;TYPE:External perimeter
G1 F1200
G1 X72.736 Y68.121 E.08555
G1 X73.404 Y67.46 E.02947
;WIDTH:0.454201
G1 X73.701 Y67.213 E.01321
;WIDTH:0.487319
G1 X73.849 Y67.23 E.0055
;WIDTH:0.520436
G1 X73.997 Y67.247 E.00592
G1 X73.926 Y67.317 E.00396
;WIDTH:0.487319
G1 X73.855 Y67.388 E.00371
;WIDTH:0.454201
G1 X73.85 Y67.465 E.00264
;WIDTH:0.419999
G1 X73.752 Y68.552 E.03422
G1 X73.815 Y68.71 E.00533
G1 X73.941 Y68.757 E.00422
G1 X75.396 Y68.747 E.04562
;WIDTH:0.421788
G1 X76.296 Y68.661 E.02848
;WIDTH:0.4473
G1 X76.393 Y68.587 E.0041
;WIDTH:0.472812
G1 X76.489 Y68.512 E.00435
G1 X76.5 Y68.685 E.0062
;WIDTH:0.4473
G1 X76.511 Y68.859 E.00586
;WIDTH:0.421788
G1 X76.446 Y69.292 E.01379
;WIDTH:0.419999
G1 X76.421 Y69.817 E.01648
G1 X76.461 Y70.41 E.01864
G1 X76.557 Y71.085 E.02138
G1 X76.673 Y71.629 E.01744
G1 X76.841 Y72.233 E.01966
G1 X77.031 Y72.775 E.01801
G1 X77.378 Y73.556 E.0268
G1 X77.764 Y74.26 E.02517
G1 X78.183 Y74.889 E.0237
G1 X78.621 Y75.443 E.02214
G1 X79.226 Y76.084 E.02764
G1 X79.72 Y76.524 E.02074
G1 X80.562 Y77.11 E.03216
G1 X80.561 Y77.153 E.00135
G1 X80.557 Y77.316 E.00511
G1 X73.348 Y77.311 E.22603
G1 X72.337 Y77.36 E.03174
;WIDTH:0.414619
G1 X72.279 Y77.365 E.0018
;WIDTH:0.42531
G1 X72.114 Y77.467 E.00617
G1 X72.094 Y77.57 E.00334
G1 X71.804 Y77.584 E.00923
;WIDTH:0.448263
G1 X70.603 Y77.569 E.04048
G1 X70.584 Y77.387 E.00617
;WIDTH:0.494449
G1 X70.606 Y77.203 E.00696
;WIDTH:0.540634
G1 X70.627 Y77.018 E.00771
G1 X70.724 Y77.094 E.0051
;WIDTH:0.499306
G1 X70.822 Y77.171 E.00473
;WIDTH:0.457977
G1 X70.875 Y77.173 E.00183
;WIDTH:0.442368
G1 X71.814 Y77.209 E.03121
;WIDTH:0.4183
G1 X71.928 Y77.164 E.00383
;WIDTH:0.414619
G1 X72.009 Y77.031 E.00481
;WIDTH:0.419999
G1 X72.064 Y75.954 E.03381
G1 X72.061 Y70.836 E.16047
G1 X72.011 Y70.708 E.00431
G1 X71.863 Y70.648 E.00501
G1 X71.252 Y70.686 E.01919
;WIDTH:0.468359
G1 X70.753 Y70.768 E.01789
;WIDTH:0.509182
G1 X70.692 Y70.852 E.00402
;WIDTH:0.550004
