; generated by PrusaSlicer 2.9.2 on 2025-04-14 at 02:44:24 UTC

; 

; external perimeters extrusion width = 0.42mm
; perimeters extrusion width = 0.44mm
; infill extrusion width = 0.44mm
; solid infill extrusion width = 0.44mm
; top infill extrusion width = 0.40mm
; first layer extrusion width = 0.42mm

M201 X500 Y500 Z100 E5000 ; sets maximum accelerations, mm/sec^2
M203 X500 Y500 Z10 E60 ; sets maximum feedrates, mm / sec
M204 S500 T1000 ; sets acceleration (S) and retract acceleration (R), mm/sec^2
M205 X8.00 Y8.00 Z0.40 E5.00 ; sets the jerk limits, mm/sec
M205 S0 T0 ; sets the minimum extruding and travel feed rate, mm/sec

; printing object milton bottle cap-Connect id:0 copy 0
; stop printing object milton bottle cap-Connect id:0 copy 0

;TYPE:Custom
G90 ; use absolute coordinates
M83 ; extruder relative mode
M104 S150 ; set temporary nozzle temp to prevent oozing during homing
M140 S60 ; set final bed temp
G4 S30 ; allow partial nozzle warmup
G28 ; home all axis
G1 Z50 F240
G1 X2.0 Y10 F3000
M104 S240 ; set final nozzle temp
M190 S60 ; wait for bed temp to stabilize
M109 S240 ; wait for nozzle temp to stabilize
G1 Z0.28 F240
G92 E0
G1 X2.0 Y140 E10 F1500 ; prime the nozzle
G1 X2.3 Y140 F5000
G92 E0
G1 X2.3 Y10 E10 F1200 ; prime the nozzle
G92 E0
G21 ; set units to millimeters
G90 ; use absolute coordinates
M83 ; use relative distances for extrusion
; Filament gcode
M107
;LAYER_CHANGE
;Z:0.2
;HEIGHT:0.2
G1 E-5 F3600
G1 Z.2 F9000
; printing object milton bottle cap-Connect id:0 copy 0
G1 X119.614 Y25.27
G1 Z.2
G1 E5 F2400
M204 S500
;TYPE:Perimeter
;WIDTH:0.419999
G1 F1200
G1 X120.081 Y25.264 E.01464
G1 X121.329 Y25.31 E.03916
G1 X122.572 Y25.417 E.03912
G1 X123.809 Y25.585 E.03914
G1 X125.037 Y25.814 E.03917
G1 X126.252 Y26.102 E.03915
G1 X127.45 Y26.45 E.03912
G1 X128.631 Y26.856 E.03916
G1 X129.79 Y27.32 E.03914
G1 X130.925 Y27.84 E.03914
G1 X132.033 Y28.415 E.03914
G1 X133.112 Y29.043 E.03914
G1 X134.159 Y29.724 E.03916
G1 X135.17 Y30.455 E.03912
G1 X136.145 Y31.236 E.03917
G1 X137.08 Y32.063 E.03914
G1 X137.974 Y32.934 E.03913
G1 X138.823 Y33.849 E.03914
G1 X139.627 Y34.804 E.03914
G1 X140.383 Y35.798 E.03916
G1 X141.089 Y36.827 E.03913
G1 X141.744 Y37.89 E.03915
G1 X142.346 Y38.984 E.03915
G1 X142.894 Y40.106 E.03915
G1 X143.386 Y41.253 E.03913
G1 X143.821 Y42.424 E.03917
G1 X144.198 Y43.614 E.03914
G1 X144.516 Y44.821 E.03914
G1 X144.775 Y46.042 E.03914
G1 X144.973 Y47.275 E.03916
G1 X145.111 Y48.516 E.03915
G1 X145.187 Y49.762 E.03914
G1 X145.195 Y50.386 E.01957
G1 X145.202 Y51.01 E.01957
G1 X145.156 Y52.258 E.03916
G1 X145.049 Y53.502 E.03915
G1 X144.881 Y54.739 E.03914
G1 X144.653 Y55.966 E.03913
G1 X144.364 Y57.181 E.03916
G1 X144.017 Y58.38 E.03914
G1 X143.61 Y59.56 E.03914
G1 X143.147 Y60.719 E.03913
G1 X142.627 Y61.854 E.03914
G1 X142.052 Y62.963 E.03917
G1 X141.423 Y64.041 E.03913
G1 X140.743 Y65.088 E.03914
G1 X140.011 Y66.1 E.03916
G1 X139.231 Y67.074 E.03912
G1 X138.404 Y68.009 E.03914
G1 X137.532 Y68.903 E.03916
G1 X136.618 Y69.753 E.03914
G1 X135.662 Y70.557 E.03917
G1 X134.669 Y71.312 E.03911
G1 X133.639 Y72.019 E.03917
G1 X132.577 Y72.674 E.03912
G1 X131.483 Y73.276 E.03915
G1 X130.361 Y73.823 E.03914
G1 X129.213 Y74.315 E.03916
G1 X128.043 Y74.75 E.03914
G1 X126.853 Y75.127 E.03914
G1 X125.646 Y75.445 E.03914
G1 X124.425 Y75.704 E.03914
G1 X123.192 Y75.902 E.03916
G1 X121.951 Y76.04 E.03915
G1 X120.705 Y76.116 E.03914
G1 X119.457 Y76.132 E.03913
G1 X118.209 Y76.086 E.03916
G1 X116.965 Y75.979 E.03915
G1 X115.728 Y75.811 E.03914
G1 X114.501 Y75.582 E.03914
G1 X113.286 Y75.294 E.03915
G1 X112.087 Y74.946 E.03915
G1 X110.906 Y74.54 E.03916
G1 X109.747 Y74.076 E.03914
G1 X108.612 Y73.556 E.03914
G1 X107.504 Y72.981 E.03914
G1 X106.426 Y72.353 E.03912
G1 X105.379 Y71.672 E.03916
G1 X104.367 Y70.941 E.03914
G1 X103.392 Y70.16 E.03917
G1 X102.457 Y69.333 E.03914
G1 X101.564 Y68.462 E.03911
G1 X100.714 Y67.547 E.03916
G1 X99.91 Y66.592 E.03914
G1 X99.154 Y65.598 E.03916
G1 X98.448 Y64.569 E.03913
G1 X97.793 Y63.506 E.03915
G1 X97.191 Y62.412 E.03915
G1 X96.644 Y61.29 E.03914
G1 X96.152 Y60.143 E.03913
G1 X95.717 Y58.973 E.03914
G1 X95.34 Y57.782 E.03917
G1 X95.022 Y56.575 E.03914
G1 X94.763 Y55.354 E.03914
G1 X94.565 Y54.121 E.03916
G1 X94.427 Y52.88 E.03915
G1 X94.35 Y51.634 E.03914
G1 X94.335 Y50.386 E.03913
G1 X94.381 Y49.138 E.03916
G1 X94.488 Y47.894 E.03915
G1 X94.656 Y46.657 E.03914
G1 X94.885 Y45.43 E.03914
G1 X95.173 Y44.215 E.03915
G1 X95.521 Y43.016 E.03915
G1 X95.927 Y41.836 E.03913
G1 X96.391 Y40.677 E.03914
G1 X96.911 Y39.542 E.03914
G1 X97.485 Y38.433 E.03915
G1 X98.114 Y37.355 E.03913
G1 X98.795 Y36.308 E.03916
G1 X99.526 Y35.297 E.03912
G1 X100.306 Y34.322 E.03915
G1 X101.133 Y33.387 E.03914
G1 X102.005 Y32.493 E.03916
G1 X102.92 Y31.643 E.03916
G1 X103.875 Y30.84 E.03912
G1 X104.869 Y30.084 E.03916
G1 X105.898 Y29.377 E.03914
G1 X106.961 Y28.722 E.03915
G1 X108.055 Y28.12 E.03915
G1 X109.177 Y27.573 E.03914
G1 X110.324 Y27.081 E.03913
G1 X111.494 Y26.646 E.03914
G1 X112.685 Y26.269 E.03917
G1 X113.892 Y25.951 E.03914
G1 X115.113 Y25.692 E.03914
G1 X116.346 Y25.494 E.03916
G1 X117.587 Y25.356 E.03915
G1 X118.833 Y25.28 E.03914
G1 X119.554 Y25.271 E.02261
G1 X119.551 Y24.894 F9000
G1 F1200
G1 X120.085 Y24.887 E.01674
G1 X121.352 Y24.934 E.03975
G1 X122.614 Y25.043 E.03972
G1 X123.869 Y25.213 E.03971
G1 X125.115 Y25.445 E.03974
G1 X126.348 Y25.738 E.03974
G1 X127.564 Y26.091 E.0397
G1 X128.762 Y26.503 E.03972
G1 X129.939 Y26.973 E.03974
G1 X131.091 Y27.501 E.03973
G1 X132.215 Y28.084 E.0397
G1 X133.31 Y28.722 E.03974
G1 X134.372 Y29.413 E.03973
G1 X135.399 Y30.155 E.03973
G1 X136.388 Y30.947 E.03973
G1 X137.337 Y31.786 E.03972
G1 X138.244 Y32.671 E.03973
G1 X139.106 Y33.599 E.03971
G1 X139.922 Y34.569 E.03974
G1 X140.689 Y35.577 E.03971
G1 X141.406 Y36.622 E.03974
G1 X142.07 Y37.7 E.0397
G1 X142.681 Y38.81 E.03973
G1 X143.237 Y39.949 E.03974
G1 X143.736 Y41.113 E.03971
G1 X144.177 Y42.301 E.03973
G1 X144.56 Y43.509 E.03973
G1 X144.883 Y44.734 E.03972
G1 X145.145 Y45.973 E.03971
G1 X145.347 Y47.224 E.03973
G1 X145.486 Y48.483 E.03971
G1 X145.564 Y49.748 E.03974
G1 X145.572 Y50.381 E.01985
G1 X145.58 Y51.015 E.01988
G1 X145.533 Y52.281 E.03972
G1 X145.424 Y53.543 E.03972
G1 X145.254 Y54.799 E.03974
G1 X145.022 Y56.044 E.03971
G1 X144.729 Y57.277 E.03974
G1 X144.376 Y58.494 E.03973
G1 X143.964 Y59.692 E.03972
G1 X143.494 Y60.868 E.03971
G1 X142.966 Y62.02 E.03973
G1 X142.383 Y63.144 E.0397
G1 X141.745 Y64.239 E.03974
G1 X141.054 Y65.301 E.03973
G1 X140.312 Y66.328 E.03973
G1 X139.52 Y67.317 E.03973
G1 X138.681 Y68.266 E.03972
G1 X137.796 Y69.173 E.03973
G1 X136.868 Y70.035 E.03971
G1 X135.898 Y70.851 E.03974
G1 X134.89 Y71.618 E.03971
G1 X133.845 Y72.335 E.03974
G1 X132.766 Y73 E.03974
G1 X131.656 Y73.61 E.03971
G1 X130.518 Y74.166 E.03971
G1 X129.353 Y74.665 E.03974
G1 X128.166 Y75.107 E.03971
G1 X126.958 Y75.489 E.03972
G1 X125.733 Y75.812 E.03972
G1 X124.494 Y76.075 E.03971
G1 X123.243 Y76.276 E.03973
G1 X121.983 Y76.416 E.03975
G1 X120.719 Y76.493 E.03971
G1 X119.452 Y76.509 E.03973
G1 X118.186 Y76.462 E.03972
G1 X116.924 Y76.353 E.03972
G1 X115.668 Y76.183 E.03974
G1 X114.423 Y75.951 E.03971
G1 X113.19 Y75.658 E.03974
G1 X111.973 Y75.305 E.03973
G1 X110.775 Y74.893 E.03972
G1 X109.599 Y74.423 E.03971
G1 X108.447 Y73.895 E.03973
G1 X107.322 Y73.312 E.03973
G1 X106.228 Y72.674 E.03971
G1 X105.166 Y71.983 E.03973
G1 X104.139 Y71.241 E.03973
G1 X103.15 Y70.449 E.03973
G1 X102.201 Y69.61 E.03972
G1 X101.294 Y68.725 E.03973
G1 X100.432 Y67.797 E.03971
G1 X99.616 Y66.827 E.03974
G1 X98.849 Y65.819 E.03971
G1 X98.132 Y64.774 E.03974
G1 X97.467 Y63.696 E.03971
G1 X96.856 Y62.586 E.03973
G1 X96.301 Y61.447 E.03973
G1 X95.801 Y60.283 E.03972
G1 X95.36 Y59.095 E.03973
G1 X94.977 Y57.887 E.03973
G1 X94.655 Y56.662 E.03971
G1 X94.392 Y55.423 E.03971
G1 X94.191 Y54.172 E.03973
G1 X94.051 Y52.913 E.03972
G1 X93.974 Y51.648 E.03974
G1 X93.958 Y50.381 E.03973
G1 X94.005 Y49.115 E.03972
G1 X94.113 Y47.853 E.03971
G1 X94.284 Y46.597 E.03974
G1 X94.516 Y45.352 E.03971
G1 X94.808 Y44.119 E.03973
G1 X95.161 Y42.902 E.03973
G1 X95.573 Y41.704 E.03972
G1 X96.044 Y40.528 E.03972
G1 X96.572 Y39.376 E.03973
G1 X97.155 Y38.252 E.0397
G1 X97.793 Y37.157 E.03974
G1 X98.484 Y36.095 E.03973
G1 X99.226 Y35.068 E.03973
G1 X100.018 Y34.079 E.03973
G1 X100.857 Y33.13 E.03972
G1 X101.742 Y32.223 E.03973
G1 X102.67 Y31.361 E.03971
G1 X103.639 Y30.545 E.03972
G1 X104.648 Y29.778 E.03974
G1 X105.692 Y29.061 E.03971
G1 X106.771 Y28.397 E.03972
G1 X107.881 Y27.786 E.03973
G1 X109.02 Y27.23 E.03974
G1 X110.184 Y26.731 E.03971
G1 X111.372 Y26.289 E.03974
G1 X112.579 Y25.907 E.03969
G1 X113.804 Y25.584 E.03972
G1 X115.044 Y25.321 E.03974
G1 X116.295 Y25.12 E.03973
G1 X117.554 Y24.98 E.03972
G1 X118.819 Y24.903 E.03974
G1 X119.491 Y24.895 E.02107
G1 X119.489 Y24.517 F9000
;TYPE:External perimeter
G1 F1200
G1 X120.09 Y24.51 E.01885
G1 X121.375 Y24.557 E.04032
G1 X122.656 Y24.668 E.04032
G1 X123.929 Y24.841 E.04028
G1 X125.193 Y25.076 E.04031
G1 X126.444 Y25.373 E.04031
G1 X127.678 Y25.731 E.04029
G1 X128.894 Y26.149 E.04032
G1 X130.087 Y26.627 E.0403
G1 X131.256 Y27.162 E.04031
G1 X132.397 Y27.754 E.0403
G1 X133.508 Y28.401 E.04031
G1 X134.585 Y29.102 E.04029
G1 X135.627 Y29.855 E.04031
G1 X136.631 Y30.658 E.04031
G1 X137.594 Y31.51 E.04032
G1 X138.514 Y32.408 E.04031
G1 X139.389 Y33.349 E.04029
G1 X140.216 Y34.333 E.0403
G1 X140.995 Y35.356 E.04032
G1 X141.722 Y36.416 E.0403
G1 X142.396 Y37.51 E.04029
G1 X143.016 Y38.637 E.04033
G1 X143.58 Y39.792 E.0403
G1 X144.086 Y40.973 E.04028
G1 X144.534 Y42.178 E.04031
G1 X144.922 Y43.404 E.04032
G1 X145.25 Y44.647 E.04031
G1 X145.516 Y45.904 E.04029
G1 X145.72 Y47.173 E.0403
G1 X145.862 Y48.451 E.04032
G1 X145.941 Y49.734 E.0403
G1 X145.949 Y50.377 E.02016
G1 X145.957 Y51.019 E.02013
G1 X145.909 Y52.304 E.04032
G1 X145.799 Y53.585 E.04031
G1 X145.626 Y54.859 E.04031
G1 X145.391 Y56.122 E.04028
G1 X145.094 Y57.373 E.04031
G1 X144.736 Y58.608 E.04032
G1 X144.318 Y59.823 E.04029
G1 X143.84 Y61.017 E.04033
G1 X143.305 Y62.185 E.04028
G1 X142.713 Y63.326 E.0403
G1 X142.066 Y64.437 E.04031
G1 X141.365 Y65.514 E.04029
G1 X140.612 Y66.556 E.04031
G1 X139.808 Y67.56 E.04033
G1 X138.957 Y68.523 E.04029
G1 X138.059 Y69.443 E.04031
G1 X137.117 Y70.318 E.04031
G1 X136.134 Y71.146 E.0403
G1 X135.111 Y71.924 E.0403
G1 X134.051 Y72.651 E.0403
G1 X132.956 Y73.325 E.04032
G1 X131.83 Y73.945 E.0403
G1 X130.675 Y74.509 E.0403
G1 X129.494 Y75.016 E.0403
G1 X128.289 Y75.463 E.0403
G1 X127.063 Y75.852 E.04033
G1 X125.82 Y76.179 E.0403
G1 X124.563 Y76.446 E.04029
G1 X123.293 Y76.65 E.04033
G1 X122.016 Y76.791 E.04028
G1 X120.733 Y76.87 E.0403
G1 X119.447 Y76.886 E.04032
G1 X118.163 Y76.839 E.04029
G1 X116.882 Y76.728 E.04032
G1 X115.608 Y76.555 E.04031
G1 X114.345 Y76.32 E.04028
G1 X113.094 Y76.023 E.04031
G1 X111.859 Y75.665 E.04032
G1 X110.644 Y75.247 E.04029
G1 X109.45 Y74.77 E.04031
G1 X108.281 Y74.234 E.04032
G1 X107.14 Y73.642 E.0403
G1 X106.03 Y72.995 E.04028
G1 X104.952 Y72.294 E.04032
G1 X103.91 Y71.541 E.04031
G1 X102.907 Y70.738 E.04029
G1 X101.944 Y69.886 E.04032
G1 X101.024 Y68.988 E.04031
G1 X100.149 Y68.047 E.04029
G1 X99.321 Y67.063 E.04032
G1 X98.543 Y66.04 E.0403
G1 X97.816 Y64.98 E.0403
G1 X97.141 Y63.886 E.04031
G1 X96.522 Y62.759 E.04032
G1 X95.958 Y61.604 E.0403
G1 X95.451 Y60.423 E.0403
G1 X95.003 Y59.218 E.04031
G1 X94.615 Y57.992 E.04032
G1 X94.288 Y56.749 E.0403
G1 X94.021 Y55.492 E.04029
G1 X93.817 Y54.223 E.0403
G1 X93.675 Y52.945 E.04032
G1 X93.597 Y51.662 E.0403
G1 X93.581 Y50.377 E.04029
G1 X93.628 Y49.092 E.04032
G1 X93.738 Y47.811 E.04031
G1 X93.911 Y46.538 E.04028
G1 X94.147 Y45.274 E.04032
G1 X94.444 Y44.023 E.04031
G1 X94.802 Y42.789 E.04029
G1 X95.22 Y41.573 E.04032
G1 X95.697 Y40.379 E.04031
G1 X96.233 Y39.211 E.04029
G1 X96.825 Y38.07 E.0403
G1 X97.472 Y36.959 E.04031
G1 X98.173 Y35.882 E.04029
G1 X98.926 Y34.84 E.04031
G1 X99.729 Y33.836 E.04031
G1 X100.581 Y32.873 E.04032
G1 X101.478 Y31.953 E.04029
G1 X102.42 Y31.078 E.04031
G1 X103.404 Y30.251 E.0403
G1 X104.427 Y29.472 E.04032
G1 X105.487 Y28.745 E.0403
G1 X106.581 Y28.071 E.04029
G1 X107.707 Y27.451 E.0403
G1 X108.862 Y26.887 E.0403
G1 X110.044 Y26.381 E.04031
G1 X111.249 Y25.933 E.04031
G1 X112.474 Y25.544 E.0403
G1 X113.717 Y25.217 E.0403
G1 X114.975 Y24.951 E.04032
G1 X116.244 Y24.746 E.0403
G1 X117.522 Y24.605 E.04031
G1 X118.805 Y24.526 E.0403
G1 X119.429 Y24.518 E.01957
G1 E-3.5 F3600
;WIPE_START
G1 F7200
G1 X119.489 Y24.517 E-.0285
G1 X120.09 Y24.51 E-.28549
G1 X121.375 Y24.557 E-.61078
G1 X122.581 Y24.661 E-.57523
;WIPE_END
G1 X139.614 Y34.986 F9000
G1 E5 F2400
;TYPE:Solid infill
;WIDTH:0.421006
G1 F1200
G1 X136.883 Y32.275 E.12098
G1 X135.958 Y31.458 E.0388
G1 X134.994 Y30.687 E.03881
G1 X134.22 Y30.127 E.03003
G1 X140.337 Y36.244 E.27196
G1 X140.846 Y36.986 E.02829
G1 X141.33 Y37.772 E.02902
G1 X132.695 Y29.136 E.38393
G1 X131.893 Y28.669 E.02918
G1 X131.477 Y28.453 E.01474
G1 X142.024 Y39 E.46892
G1 X142.548 Y40.059 E.03715
G1 X130.414 Y27.925 E.53948
G1 X129.452 Y27.497 E.0331
G1 X142.966 Y41.012 E.60085
G1 X143.314 Y41.895 E.02984
G1 X128.561 Y27.141 E.65594
G1 X127.743 Y26.858 E.02721
G1 X143.613 Y42.727 E.70556
G1 X143.86 Y43.51 E.02581
G1 X126.961 Y26.611 E.75133
G1 X126.208 Y26.392 E.02465
G1 X144.065 Y44.25 E.79394
G1 X144.251 Y44.97 E.02338
G1 X125.504 Y26.223 E.83349
G1 X124.814 Y26.068 E.02223
G1 X144.394 Y45.648 E.87053
G1 X144.524 Y46.312 E.02127
G1 X124.157 Y25.946 E.90549
G1 X123.515 Y25.839 E.02046
G1 X144.627 Y46.95 E.93862
G1 X144.714 Y47.572 E.01974
G1 X122.897 Y25.755 E.96998
G1 X122.292 Y25.685 E.01915
G1 X144.78 Y48.173 E.99982
G1 X144.835 Y48.762 E.0186
G1 X121.707 Y25.634 E1.02827
G1 X121.132 Y25.594 E.01812
G1 X144.87 Y49.332 E1.05539
G1 X144.898 Y49.895 E.01772
G1 X120.577 Y25.573 E1.08133
G1 X120.024 Y25.555 E.01739
G1 X144.905 Y50.436 E1.10621
G1 X144.912 Y50.978 E.01704
G1 X119.496 Y25.562 E1.13
G1 X118.968 Y25.568 E.0166
G1 X144.894 Y51.495 E1.15269
G1 X144.875 Y52.01 E.0162
G1 X118.458 Y25.594 E1.17448
G1 X117.954 Y25.625 E.01587
G1 X144.843 Y52.513 E1.19546
G1 X144.801 Y53.005 E.01552
G1 X117.458 Y25.663 E1.21565
G1 X116.977 Y25.716 E.01521
G1 X144.757 Y53.496 E1.2351
G1 X144.693 Y53.967 E.01494
G1 X116.495 Y25.769 E1.25368
G1 X116.03 Y25.839 E.01478
G1 X144.629 Y54.438 E1.27151
G1 X144.556 Y54.9 E.0147
G1 X115.569 Y25.913 E1.28876
G1 X115.111 Y25.989 E.0146
G1 X144.472 Y55.35 E1.30539
G1 X144.388 Y55.801 E.01442
G1 X114.67 Y26.083 E1.32126
G1 X114.229 Y26.176 E.01417
G1 X144.29 Y56.238 E1.33653
G1 X144.187 Y56.67 E.01396
G1 X113.794 Y26.277 E1.35127
G1 X113.371 Y26.388 E.01375
G1 X144.085 Y57.102 E1.36554
G1 X143.965 Y57.516 E.01355
G1 X112.948 Y26.5 E1.37899
G1 X112.535 Y26.621 E.01353
G1 X143.844 Y57.931 E1.39202
G1 X143.722 Y58.343 E.01351
G1 X112.129 Y26.75 E1.40463
G1 X111.722 Y26.878 E.01341
G1 X143.585 Y58.741 E1.41663
G1 X143.448 Y59.139 E.01323
G1 X111.327 Y27.018 E1.4281
G1 X110.938 Y27.163 E.01305
G1 X143.308 Y59.534 E1.43919
G1 X143.156 Y59.916 E.01293
G1 X110.548 Y27.308 E1.44975
G1 X110.169 Y27.463 E.01287
G1 X143.003 Y60.298 E1.45982
G1 X142.847 Y60.677 E.01288
G1 X109.795 Y27.624 E1.46951
G1 X109.42 Y27.784 E.01282
G1 X142.679 Y61.043 E1.4787
G1 X142.511 Y61.41 E.01269
G1 X109.056 Y27.955 E1.48741
G1 X108.697 Y28.13 E.01256
G1 X142.341 Y61.775 E1.49584
G1 X142.159 Y62.127 E.01246
G1 X108.337 Y28.306 E1.5037
G1 X107.987 Y28.489 E.01242
G1 X141.976 Y62.479 E1.51117
G1 X141.793 Y62.83 E.01244
G1 X107.642 Y28.679 E1.51835
G1 X107.297 Y28.869 E.01238
G1 X141.596 Y63.168 E1.52493
G1 X141.399 Y63.506 E.0123
G1 X106.958 Y29.065 E1.53125
G1 X106.627 Y29.269 E.01222
G1 X141.202 Y63.844 E1.53721
G1 X140.994 Y64.17 E.01216
G1 X106.297 Y29.473 E1.54263
G1 X105.97 Y29.68 E.01217
G1 X140.783 Y64.494 E1.54781
G1 X140.572 Y64.818 E.01216
G1 X105.652 Y29.898 E1.55254
G1 X105.335 Y30.116 E.01209
G1 X140.352 Y65.132 E1.55683
G1 X140.128 Y65.443 E.01205
G1 X105.019 Y30.334 E1.56095
G1 X104.715 Y30.565 E.012
G1 X139.903 Y65.753 E1.56446
