; generated by PrusaSlicer 2.9.2 on 2025-08-31 at 09:12:26 UTC

; 

; external perimeters extrusion width = 0.42mm
; perimeters extrusion width = 0.44mm
; infill extrusion width = 0.44mm
; solid infill extrusion width = 0.44mm
; top infill extrusion width = 0.40mm
; first layer extrusion width = 0.42mm

; external perimeters extrusion width = 0.42mm
; perimeters extrusion width = 0.44mm
; infill extrusion width = 0.44mm
; solid infill extrusion width = 0.44mm
; top infill extrusion width = 0.40mm
; first layer extrusion width = 0.42mm

; external perimeters extrusion width = 0.42mm
; perimeters extrusion width = 0.44mm
; infill extrusion width = 0.44mm
; solid infill extrusion width = 0.44mm
; top infill extrusion width = 0.40mm
; first layer extrusion width = 0.42mm

; external perimeters extrusion width = 0.42mm
; perimeters extrusion width = 0.44mm
; infill extrusion width = 0.44mm
; solid infill extrusion width = 0.44mm
; top infill extrusion width = 0.40mm
; first layer extrusion width = 0.42mm

; external perimeters extrusion width = 0.42mm
; perimeters extrusion width = 0.44mm
; infill extrusion width = 0.44mm
; solid infill extrusion width = 0.44mm
; top infill extrusion width = 0.40mm
; first layer extrusion width = 0.42mm

; external perimeters extrusion width = 0.42mm
; perimeters extrusion width = 0.44mm
; infill extrusion width = 0.44mm
; solid infill extrusion width = 0.44mm
; top infill extrusion width = 0.40mm
; first layer extrusion width = 0.42mm

; external perimeters extrusion width = 0.42mm
; perimeters extrusion width = 0.44mm
; infill extrusion width = 0.44mm
; solid infill extrusion width = 0.44mm
; top infill extrusion width = 0.40mm
; first layer extrusion width = 0.42mm

M201 X500 Y500 Z100 E5000 ; sets maximum accelerations, mm/sec^2
M203 X500 Y500 Z10 E60 ; sets maximum feedrates, mm / sec
M204 S500 T1000 ; sets acceleration (S) and retract acceleration (R), mm/sec^2
M205 X8.00 Y8.00 Z0.40 E5.00 ; sets the jerk limits, mm/sec
M205 S0 T0 ; sets the minimum extruding and travel feed rate, mm/sec

; printing object Golf1-clips+No+frame_1 id:0 copy 0
; stop printing object Golf1-clips+No+frame_1 id:0 copy 0
; printing object Golf1-clips+No+frame_8 id:3 copy 0
; stop printing object Golf1-clips+No+frame_8 id:3 copy 0
; printing object Golf1-clips+No+frame_19 id:5 copy 0
; stop printing object Golf1-clips+No+frame_19 id:5 copy 0
; printing object Golf1-clips+No+frame_20 id:6 copy 0
; stop printing object Golf1-clips+No+frame_20 id:6 copy 0
; printing object Golf1-clips+No+frame_6 id:1 copy 0
; stop printing object Golf1-clips+No+frame_6 id:1 copy 0
; printing object Golf1-clips+No+frame_13 id:4 copy 0
; stop printing object Golf1-clips+No+frame_13 id:4 copy 0
; printing object Golf1-clips+No+frame_7 id:2 copy 0
; stop printing object Golf1-clips+No+frame_7 id:2 copy 0

;TYPE:Custom
G90 ; use absolute coordinates
M83 ; extruder relative mode
M104 S150 ; set temporary nozzle temp to prevent oozing during homing
M140 S60 ; set final bed temp
G4 S30 ; allow partial nozzle warmup
G28 ; home all axis
G1 Z50 F240
G1 X2.0 Y10 F3000
M104 S220 ; set final nozzle temp
M190 S60 ; wait for bed temp to stabilize
M109 S220 ; wait for nozzle temp to stabilize
G1 Z0.28 F240
G92 E0
G1 X2.0 Y140 E10 F1500 ; prime the nozzle
G1 X2.3 Y140 F5000
G92 E0
G1 X2.3 Y10 E10 F1200 ; prime the nozzle
G92 E0
G21 ; set units to millimeters
G90 ; use absolute coordinates
M83 ; use relative distances for extrusion
; Filament gcode
M107
;LAYER_CHANGE
;Z:0.2
;HEIGHT:0.2
G1 E-5 F3600
G1 Z.2 F9000
; printing object Golf1-clips+No+frame_8 id:3 copy 0
G1 X166.336 Y133.44
G1 Z.2
G1 E5 F2400
M204 S500
;TYPE:External perimeter
;WIDTH:0.654122
G1 F1200
G1 X166.325 Y133.491 E.00265
;WIDTH:0.649524
G1 X162.844 Y147.135 E.71024
;WIDTH:0.669471
G1 X162.805 Y147.213 E.00454
;WIDTH:0.705522
G1 X162.767 Y147.29 E.00473
;WIDTH:0.741572
G1 X162.729 Y147.367 E.00499
G1 X162.558 Y147.39 E.01002
;WIDTH:0.697208
G1 X140.372 Y147.438 E1.20702
;WIDTH:0.74157
G1 X140.201 Y147.416 E.01002
G1 X140.163 Y147.339 E.00499
;WIDTH:0.705523
G1 X140.124 Y147.262 E.00476
;WIDTH:0.669476
G1 X140.085 Y147.185 E.0045
;WIDTH:0.642586
G1 X136.563 Y133.638 E.69794
;WIDTH:0.675146
G1 X136.523 Y133.421 E.0116
G1 E-3.5 F3600
;WIPE_START
G1 F7200
G1 X136.563 Y133.638 E-.10481
G1 X137.302 Y136.481 E-1.39519
;WIPE_END
G1 X166.239 Y132.355 F9000
G1 E5 F2400
;TYPE:Perimeter
;WIDTH:0.516948
G1 F1200
G1 X166.179 Y132.355 E.00236
G1 X166.15 Y132.407 E.00235
G1 X166.179 Y132.458 E.00231
G1 X166.239 Y132.458 E.00236
G1 X166.268 Y132.407 E.00231
G1 E-3.5 F3600
;WIPE_START
G1 F7200
G1 X166.239 Y132.458 E-.02787
G1 X166.179 Y132.458 E-.0285
G1 X166.15 Y132.407 E-.02787
G1 X166.179 Y132.355 E-.02828
G1 X166.239 Y132.355 E-.0285
;WIPE_END
G1 E-1.35898 F3600
G1 X136.685 Y132.42 F9000
G1 E5 F2400
;WIDTH:0.517628
G1 F1200
G1 X136.625 Y132.42 E.00237
G1 X136.596 Y132.471 E.00232
G1 X136.625 Y132.522 E.00232
G1 X136.685 Y132.522 E.00237
G1 X136.714 Y132.471 E.00232
G1 X137.017 Y132.733 F9000
;TYPE:External perimeter
;WIDTH:0.432481
G1 F1200
G1 X136.806 Y132.931 E.00937
;WIDTH:0.462524
G1 X136.759 Y133.013 E.0033
;WIDTH:0.505048
G1 X136.711 Y133.095 E.00365
;WIDTH:0.547573
G1 X136.664 Y133.176 E.00393
;WIDTH:0.590097
G1 X136.617 Y133.258 E.0043
;WIDTH:0.632622
G1 X136.57 Y133.34 E.00463
;WIDTH:0.675146
G1 X136.523 Y133.421 E.00492
G1 X136.485 Y133.362 E.00369
;WIDTH:0.631058
G1 X136.447 Y133.303 E.00343
;WIDTH:0.58697
G1 X136.408 Y133.243 E.00324
;WIDTH:0.542882
G1 X136.37 Y133.184 E.00292
;WIDTH:0.498794
G1 X136.332 Y133.125 E.00266
;WIDTH:0.454706
G1 X136.252 Y132.621 E.01747
;WIDTH:0.419999
G1 X136.125 Y132.046 E.01846
G1 X136.654 Y132.045 E.01659
;WIDTH:0.457131
G1 X136.882 Y132.063 E.00788
;WIDTH:0.494263
G1 X137.11 Y132.081 E.00858
;WIDTH:0.531394
G1 X137.338 Y132.099 E.00929
G1 X138.284 Y132.092 E.03842
;WIDTH:0.521727
G1 X164.022 Y132.036 E1.02471
;WIDTH:0.53132
G1 X165.521 Y132.038 E.06088
;WIDTH:0.542959
G1 X165.846 Y132.023 E.01353
;WIDTH:0.501973
G1 X166.027 Y132.002 E.00696
;WIDTH:0.460986
G1 X166.208 Y131.981 E.00633
;WIDTH:0.419999
G1 X166.737 Y131.98 E.01659
G1 X166.625 Y132.496 E.01656
G1 X166.616 Y132.536 E.00129
;WIDTH:0.425432
G1 X166.546 Y133.072 E.01719
;WIDTH:0.47117
G1 X166.504 Y133.146 E.00303
;WIDTH:0.516908
G1 X166.462 Y133.219 E.00332
;WIDTH:0.562646
G1 X166.42 Y133.293 E.00368
;WIDTH:0.608384
G1 X166.378 Y133.366 E.00396
;WIDTH:0.654122
G1 X166.336 Y133.44 E.00432
G1 X166.321 Y133.393 E.00251
;WIDTH:0.625314
G1 X166.277 Y133.3 E.00498
;WIDTH:0.584251
G1 X166.233 Y133.208 E.00459
;WIDTH:0.543188
G1 X166.189 Y133.116 E.00424
;WIDTH:0.502125
G1 X166.145 Y133.024 E.00389
;WIDTH:0.461062
G1 X166.101 Y132.931 E.00358
;WIDTH:0.452888
G1 X165.854 Y132.662 E.01245
;WIDTH:0.492104
G1 X165.686 Y132.594 E.00677
;WIDTH:0.53132
G1 X165.519 Y132.526 E.00732
G1 X164.024 Y132.515 E.06071
;WIDTH:0.521727
G1 X138.29 Y132.571 E1.02455
;WIDTH:0.531394
G1 X137.344 Y132.588 E.03843
G1 X137.181 Y132.66 E.00724
;WIDTH:0.481938
G1 X137.072 Y132.709 E.00436
G1 E-3.5 F3600
;WIPE_START
G1 F7200
G1 X137.017 Y132.733 E-.0285
G1 X136.806 Y132.931 E-.13744
G1 X136.759 Y133.013 E-.04489
G1 X136.711 Y133.095 E-.04513
G1 X136.664 Y133.176 E-.04448
G1 X136.617 Y133.258 E-.04489
G1 X136.57 Y133.34 E-.04489
G1 X136.523 Y133.421 E-.04448
G1 X136.485 Y133.362 E-.03333
G1 X136.447 Y133.303 E-.03333
G1 X136.408 Y133.243 E-.03399
G1 X136.37 Y133.184 E-.03333
G1 X136.332 Y133.125 E-.03333
G1 X136.252 Y132.621 E-.2424
G1 X136.125 Y132.046 E-.27971
G1 X136.654 Y132.045 E-.25128
G1 X136.882 Y132.063 E-.10864
G1 X136.916 Y132.066 E-.01596
;WIPE_END
G1 X134.736 Y128.587 F9000
G1 E5 F2400
;TYPE:Perimeter
;WIDTH:0.419999
G1 F1200
G1 X134.505 Y123.916 E.14663
G1 X135.113 Y123.915 E.01906
G1 X135.486 Y123.837 E.01195
G1 X135.83 Y123.582 E.01343
G1 X135.996 Y123.298 E.01031
G1 X136.053 Y122.927 E.01177
G1 X135.555 Y112.589 E.32452
G1 X135.46 Y108.846 E.1174
G1 X135.444 Y106.241 E.08168
G1 X167.307 Y106.172 E.99904
G1 X167.302 Y108.777 E.08168
G1 X167.224 Y112.52 E.11738
G1 X166.771 Y122.86 E.32451
G1 X166.829 Y123.231 E.01177
G1 X166.997 Y123.514 E.01032
G1 X167.342 Y123.768 E.01343
G1 X167.715 Y123.844 E.01194
G1 X168.323 Y123.843 E.01906
G1 X168.295 Y124.45 E.01905
G1 X168.113 Y128.515 E.12758
G1 X167.416 Y128.516 E.02185
G1 X167.062 Y128.586 E.01131
G1 X166.97 Y128.717 E.00502
G1 X135.879 Y128.785 E.97484
G1 X135.786 Y128.654 E.00504
G1 X135.432 Y128.586 E.0113
G1 X134.796 Y128.587 E.01994
G1 X134.377 Y128.965 F9000
G1 F1200
G1 X134.109 Y123.54 E.1703
G1 X135.112 Y123.538 E.03145
G1 X135.336 Y123.491 E.00718
G1 X135.542 Y123.338 E.00805
G1 X135.642 Y123.168 E.00618
G1 X135.676 Y122.945 E.00707
G1 X135.178 Y112.603 E.32464
G1 X135.083 Y108.852 E.11765
G1 X135.064 Y105.865 E.09366
G1 X167.685 Y105.794 E1.02281
G1 X167.679 Y108.781 E.09366
G1 X167.6 Y112.533 E.11767
G1 X167.148 Y122.877 E.32464
G1 X167.159 Y123.018 E.00443
G1 X167.283 Y123.269 E.00878
G1 X167.49 Y123.421 E.00805
G1 X167.714 Y123.467 E.00717
G1 X168.717 Y123.465 E.03145
G1 X168.672 Y124.467 E.03145
G1 X168.473 Y128.891 E.13885
G1 X167.417 Y128.893 E.03311
G1 X167.205 Y128.935 E.00678
G1 X167.092 Y129.094 E.00612
G1 X135.758 Y129.162 E.98246
G1 X135.645 Y129.004 E.00609
G1 X135.433 Y128.963 E.00677
G1 X134.437 Y128.965 E.03123
G1 X134.018 Y129.343 F9000
;TYPE:External perimeter
G1 F1200
G1 X133.713 Y123.164 E.19397
G1 X135.112 Y123.161 E.04386
G1 X135.255 Y123.094 E.00495
G1 X135.3 Y122.963 E.00434
G1 X134.802 Y112.617 E.32477
G1 X134.706 Y108.858 E.1179
G1 X134.685 Y105.488 E.10567
G1 X168.063 Y105.416 E1.04654
G1 X168.056 Y108.786 E.10566
G1 X167.977 Y112.545 E.11789
G1 X167.524 Y122.893 E.32476
G1 X167.569 Y123.024 E.00434
G1 X167.713 Y123.09 E.00497
G1 X169.112 Y123.087 E.04386
G1 X169.049 Y124.484 E.04385
G1 X168.834 Y129.267 E.15012
G1 X167.417 Y129.271 E.04443
G1 X167.347 Y129.284 E.00223
G1 X167.228 Y129.471 E.00695
G1 X135.644 Y129.54 E.99029
G1 X135.505 Y129.354 E.00728
G1 X135.434 Y129.34 E.00227
G1 X134.078 Y129.343 E.04252
G1 E-3.5 F3600
;WIPE_START
G1 F7200
G1 X134.018 Y129.343 E-.0285
G1 X133.865 Y126.249 E-1.4715
;WIPE_END
G1 X167.185 Y107.056 F9000
G1 E5 F2400
;TYPE:Solid infill
;WIDTH:0.421323
G1 F1200
G1 X166.592 Y106.464 E.02636
G1 X166.059 Y106.465 E.01677
G1 X167.015 Y107.421 E.04254
G1 X167.013 Y107.955 E.0168
G1 X165.525 Y106.466 E.06623
G1 X164.991 Y106.467 E.0168
G1 X167.012 Y108.489 E.08995
G1 X167.006 Y109.018 E.01665
G1 X164.457 Y106.468 E.11345
G1 X163.923 Y106.469 E.0168
G1 X166.995 Y109.542 E.13672
G1 X166.984 Y110.066 E.01649
G1 X163.389 Y106.471 E.15997
G1 X162.855 Y106.472 E.0168
G1 X166.973 Y110.59 E.18324
G1 X166.962 Y111.115 E.01652
G1 X162.321 Y106.473 E.20653
G1 X161.787 Y106.474 E.0168
G1 X166.952 Y111.639 E.22983
G1 X166.941 Y112.163 E.01649
G1 X161.253 Y106.475 E.2531
G1 X160.719 Y106.476 E.0168
G1 X166.926 Y112.684 E.27622
G1 X166.904 Y113.197 E.01616
G1 X160.185 Y106.477 E.299
G1 X159.651 Y106.479 E.0168
G1 X166.882 Y113.71 E.32176
G1 X166.86 Y114.223 E.01616
G1 X159.117 Y106.48 E.34454
G1 X158.583 Y106.481 E.0168
G1 X166.838 Y114.736 E.36733
G1 X166.816 Y115.249 E.01616
G1 X158.049 Y106.482 E.39011
G1 X157.515 Y106.483 E.0168
G1 X166.793 Y115.762 E.41287
G1 X166.771 Y116.275 E.01616
G1 X156.981 Y106.484 E.43565
G1 X156.447 Y106.486 E.0168
G1 X166.749 Y116.788 E.45841
G1 X166.727 Y117.301 E.01616
G1 X155.913 Y106.487 E.48119
G1 X155.379 Y106.488 E.0168
G1 X166.705 Y117.814 E.50398
G1 X166.683 Y118.327 E.01616
G1 X154.845 Y106.489 E.52676
G1 X154.311 Y106.49 E.0168
G1 X166.661 Y118.84 E.54954
G1 X166.639 Y119.353 E.01616
G1 X153.777 Y106.491 E.57232
G1 X153.243 Y106.493 E.0168
G1 X166.617 Y119.867 E.59511
G1 X166.595 Y120.38 E.01616
G1 X152.709 Y106.494 E.61789
G1 X152.175 Y106.495 E.0168
G1 X166.573 Y120.893 E.64067
G1 X166.551 Y121.406 E.01616
G1 X151.641 Y106.496 E.66345
G1 X151.107 Y106.497 E.0168
G1 X166.529 Y121.919 E.68624
G1 X166.506 Y122.432 E.01616
G1 X150.573 Y106.498 E.709
G1 X150.039 Y106.5 E.0168
G1 X166.484 Y122.945 E.73176
G1 X166.556 Y123.33 E.01232
G1 X166.645 Y123.519 E.00657
G1 X166.776 Y123.704 E.00713
G1 X166.956 Y123.876 E.00783
G1 X167.231 Y124.038 E.01004
G1 X167.666 Y124.127 E.01397
G1 X168.004 Y124.465 E.01504
G1 X167.981 Y124.977 E.01613
G1 X149.505 Y106.501 E.82213
G1 X148.971 Y106.502 E.0168
G1 X167.958 Y125.489 E.84487
G1 X167.935 Y126.001 E.01613
G1 X148.437 Y106.503 E.86761
G1 X147.903 Y106.504 E.0168
G1 X167.912 Y126.513 E.89035
G1 X167.889 Y127.025 E.01613
G1 X147.369 Y106.505 E.91308
G1 X146.835 Y106.506 E.0168
G1 X167.866 Y127.537 E.93582
G1 X167.843 Y128.049 E.01613
G1 X146.301 Y106.508 E.95854
G1 X145.767 Y106.509 E.0168
G1 X167.484 Y128.226 E.96635
G1 X167.405 Y128.226 E.00249
G1 X167.024 Y128.301 E.01222
G1 X145.233 Y106.51 E.96964
G1 X144.699 Y106.511 E.0168
G1 X166.616 Y128.428 E.97525
G1 X166.082 Y128.429 E.0168
G1 X144.165 Y106.512 E.97525
G1 X143.631 Y106.513 E.0168
G1 X165.548 Y128.43 E.97525
G1 X165.014 Y128.431 E.0168
G1 X143.097 Y106.515 E.97522
G1 X142.563 Y106.516 E.0168
G1 X164.48 Y128.432 E.97522
G1 X163.946 Y128.434 E.0168
G1 X142.029 Y106.517 E.97525
G1 X141.495 Y106.518 E.0168
G1 X163.412 Y128.435 E.97525
G1 X162.878 Y128.436 E.0168
G1 X140.961 Y106.519 E.97525
G1 X140.427 Y106.52 E.0168
G1 X162.344 Y128.437 E.97525
G1 X161.81 Y128.438 E.0168
G1 X139.893 Y106.522 E.97522
G1 X139.359 Y106.523 E.0168
G1 X161.276 Y128.439 E.97522
G1 X160.742 Y128.441 E.0168
G1 X138.825 Y106.524 E.97525
G1 X138.291 Y106.525 E.0168
G1 X160.208 Y128.442 E.97525
G1 X159.674 Y128.443 E.0168
G1 X137.757 Y106.526 E.97525
G1 X137.223 Y106.527 E.0168
G1 X159.14 Y128.444 E.97525
G1 X158.606 Y128.445 E.0168
G1 X136.689 Y106.528 E.97525
G1 X136.155 Y106.53 E.0168
G1 X158.072 Y128.446 E.97522
G1 X157.538 Y128.447 E.0168
G1 X135.737 Y106.646 E.97009
G1 X135.74 Y107.185 E.01696
G1 X157.004 Y128.449 E.94619
G1 X156.47 Y128.45 E.0168
G1 X135.744 Y107.723 E.92227
G1 X135.747 Y108.262 E.01696
G1 X155.936 Y128.451 E.89836
G1 X155.402 Y128.452 E.0168
G1 X135.75 Y108.8 E.87446
G1 X135.764 Y109.349 E.01728
G1 X154.868 Y128.453 E.85008
G1 X154.334 Y128.454 E.0168
G1 X135.777 Y109.898 E.82571
G1 X135.791 Y110.447 E.01728
G1 X153.8 Y128.456 E.80135
G1 X153.266 Y128.457 E.0168
G1 X135.805 Y110.996 E.77697
G1 X135.819 Y111.545 E.01728
G1 X152.732 Y128.458 E.75258
G1 X152.198 Y128.459 E.0168
G1 X135.833 Y112.094 E.7282
G1 X135.849 Y112.644 E.01731
G1 X151.664 Y128.46 E.70375
G1 X151.13 Y128.461 E.0168
G1 X135.875 Y113.206 E.67881
G1 X135.902 Y113.768 E.0177
G1 X150.596 Y128.463 E.65387
G1 X150.062 Y128.464 E.0168
G1 X135.928 Y114.33 E.62892
G1 X135.955 Y114.891 E.01767
G1 X149.528 Y128.465 E.60398
G1 X148.994 Y128.466 E.0168
G1 X135.982 Y115.453 E.57902
G1 X136.008 Y116.015 E.0177
G1 X148.46 Y128.467 E.55408
G1 X147.926 Y128.468 E.0168
G1 X136.035 Y116.577 E.52912
G1 X136.061 Y117.139 E.0177
G1 X147.392 Y128.47 E.5042
G1 X146.858 Y128.471 E.0168
G1 X136.088 Y117.7 E.47926
G1 X136.115 Y118.262 E.0177
G1 X146.324 Y128.472 E.4543
G1 X145.79 Y128.473 E.0168
G1 X136.141 Y118.824 E.42935
G1 X136.168 Y119.386 E.0177
G1 X145.256 Y128.474 E.40439
G1 X144.723 Y128.475 E.01677
G1 X136.194 Y119.947 E.3795
G1 X136.221 Y120.509 E.0177
G1 X144.189 Y128.476 E.35453
G1 X143.655 Y128.478 E.0168
G1 X136.248 Y121.071 E.32959
G1 X136.274 Y121.633 E.0177
G1 X143.121 Y128.479 E.30465
G1 X142.587 Y128.48 E.0168
G1 X136.301 Y122.194 E.27971
G1 X136.328 Y122.756 E.0177
G1 X142.053 Y128.481 E.25475
G1 X141.519 Y128.482 E.0168
G1 X136.299 Y123.262 E.23228
G1 X136.27 Y123.396 E.00431
G1 X136.142 Y123.641 E.0087
G1 X140.985 Y128.483 E.21548
G1 X140.451 Y128.485 E.0168
G1 X135.891 Y123.925 E.20291
G1 X135.598 Y124.106 E.01084
G1 X135.548 Y124.117 E.00161
G1 X139.917 Y128.486 E.19441
G1 X139.383 Y128.487 E.0168
G1 X135.101 Y124.205 E.19054
G1 X134.81 Y124.206 E.00916
G1 X134.823 Y124.462 E.00807
G1 X138.849 Y128.488 E.17915
G1 X138.315 Y128.489 E.0168
G1 X134.851 Y125.025 E.15414
G1 X134.878 Y125.588 E.01773
G1 X137.781 Y128.49 E.12915
G1 X137.247 Y128.492 E.0168
G1 X134.906 Y126.151 E.10417
