; generated by PrusaSlicer 2.9.1 on 2025-03-18 at 03:22:30 UTC

; 

; external perimeters extrusion width = 0.42mm
; perimeters extrusion width = 0.44mm
; infill extrusion width = 0.44mm
; solid infill extrusion width = 0.44mm
; top infill extrusion width = 0.40mm
; support material extrusion width = 0.36mm
; first layer extrusion width = 0.42mm

M201 X500 Y500 Z100 E5000 ; sets maximum accelerations, mm/sec^2
M203 X500 Y500 Z10 E60 ; sets maximum feedrates, mm / sec
M204 S500 T1000 ; sets acceleration (S) and retract acceleration (R), mm/sec^2
M205 X8.00 Y8.00 Z0.40 E5.00 ; sets the jerk limits, mm/sec
M205 S0 T0 ; sets the minimum extruding and travel feed rate, mm/sec

; printing object Car_doorHinge_cover-BodyPad id:0 copy 0
; stop printing object Car_doorHinge_cover-BodyPad id:0 copy 0

;TYPE:Custom
G90 ; use absolute coordinates
M83 ; extruder relative mode
M104 S150 ; set temporary nozzle temp to prevent oozing during homing
M140 S60 ; set final bed temp
G4 S30 ; allow partial nozzle warmup
G28 ; home all axis
G1 Z50 F240
G1 X2.0 Y10 F3000
M104 S205 ; set final nozzle temp
M190 S60 ; wait for bed temp to stabilize
M109 S205 ; wait for nozzle temp to stabilize
G1 Z0.28 F240
G92 E0
G1 X2.0 Y140 E10 F1500 ; prime the nozzle
G1 X2.3 Y140 F5000
G92 E0
G1 X2.3 Y10 E10 F1200 ; prime the nozzle
G92 E0
G21 ; set units to millimeters
G90 ; use absolute coordinates
M83 ; use relative distances for extrusion
; Filament gcode
M107
;LAYER_CHANGE
;Z:0.4
;HEIGHT:0.4
G1 E-5 F3600
G1 Z.4 F9000
G1 X110.245 Y110.148
G1 Z.4
G1 E5 F2400
M204 S500
;TYPE:Skirt/Brim
;WIDTH:0.42
G1 F900
G1 X111.484 Y109.165 E.08789
G1 X112.909 Y108.461 E.08833
G1 X114.168 Y108.119 E.0725
G1 X115.75 Y108.004 E.08815
G1 X117.209 Y108.197 E.08178
G1 X118.585 Y108.664 E.08075
G1 X119.95 Y109.464 E.08792
G1 X120.931 Y110.329 E.07268
G1 X121.765 Y111.378 E.07447
G1 X122.491 Y112.787 E.08808
G1 X122.89 Y114.284 E.08609
G1 X122.988 Y115.898 E.08986
G1 X122.738 Y117.461 E.08796
G1 X122.287 Y118.689 E.0727
G1 X121.469 Y120.039 E.08772
G1 X120.562 Y121.033 E.07478
G1 X119.526 Y121.827 E.07254
G1 X118.106 Y122.532 E.0881
G1 X116.814 Y122.884 E.07441
G1 X115.232 Y122.995 E.08813
G1 X113.662 Y122.772 E.08812
G1 X112.43 Y122.344 E.07248
G1 X111.06 Y121.545 E.08813
G1 X110.055 Y120.659 E.07445
G1 X109.094 Y119.402 E.08793
G1 X108.513 Y118.23 E.07269
G1 X108.139 Y116.944 E.07443
G1 X108 Y115.365 E.08809
G1 X108.137 Y114.067 E.07253
G1 X108.603 Y112.552 E.08808
G1 X109.376 Y111.168 E.08809
G1 X110.206 Y110.193 E.07116
G1 X110.46 Y110.409 F9000
G1 F900
G1 X110.483 Y110.382 E.00197
G1 X111.668 Y109.444 E.08399
G1 X113.031 Y108.773 E.08442
G1 X114.221 Y108.449 E.06854
G1 X115.732 Y108.338 E.08419
G1 X117.133 Y108.522 E.07852
G1 X118.453 Y108.972 E.0775
G1 X119.757 Y109.736 E.08399
G1 X120.685 Y110.555 E.06878
G1 X121.489 Y111.567 E.07183
G1 X122.182 Y112.914 E.08418
G1 X122.558 Y114.32 E.08088
G1 X122.654 Y115.887 E.08724
G1 X122.414 Y117.38 E.08403
G1 X121.988 Y118.541 E.06872
G1 X121.207 Y119.832 E.08385
G1 X120.332 Y120.791 E.07214
G1 X119.352 Y121.542 E.06861
G1 X117.996 Y122.217 E.08417
G1 X116.749 Y122.556 E.07181
G1 X115.237 Y122.661 E.08423
G1 X113.738 Y122.446 E.08415
G1 X112.572 Y122.041 E.06859
G1 X111.263 Y121.28 E.08414
G1 X110.293 Y120.425 E.07185
G1 X109.376 Y119.223 E.08401
G1 X108.827 Y118.115 E.06872
G1 X108.466 Y116.874 E.07182
G1 X108.334 Y115.364 E.08423
G1 X108.464 Y114.137 E.06857
G1 X108.907 Y112.689 E.08415
G1 X109.646 Y111.366 E.08421
G1 X110.421 Y110.455 E.06647
G1 E-3.5 F3600
;WIPE_START
G1 F7200
G1 X110.46 Y110.409 E-.02865
G1 X110.483 Y110.382 E-.01685
G1 X111.668 Y109.444 E-.71787
G1 X113.031 Y108.773 E-.72163
G1 X113.061 Y108.765 E-.015
;WIPE_END
; printing object Car_doorHinge_cover-BodyPad id:0 copy 0
G1 X113.262 Y113.353 F9000
G1 E5 F2400
;TYPE:Perimeter
;WIDTH:0.355245
G1 F900
G1 X113.07 Y113.555 E.01249
;WIDTH:0.353816
G1 X112.786 Y113.985 E.02296
;WIDTH:0.368662
G1 X112.629 Y114.336 E.01808
G1 X112.459 Y114.845 E.02524
;WIDTH:0.356774
G1 X112.394 Y115.646 E.03621
;WIDTH:0.36113
G1 X112.48 Y116.239 E.02743
G1 X112.767 Y116.982 E.03646
;WIDTH:0.356492
G1 X113.252 Y117.649 E.03712
;WIDTH:0.364644
G1 X113.712 Y118.037 E.0279
;WIDTH:0.367064
G1 X114.064 Y118.247 E.01917
G1 X114.684 Y118.499 E.0313
;WIDTH:0.361347
G1 X115.448 Y118.607 E.03535
;WIDTH:0.349509
G1 X115.996 Y118.568 E.02409
;WIDTH:0.35545
G1 X116.53 Y118.435 E.02467
G1 X117 Y118.225 E.02308
;WIDTH:0.354229
G1 X117.445 Y117.928 E.02388
G1 X117.84 Y117.545 E.02456
G1 X118.166 Y117.102 E.02455
;WIDTH:0.356384
G1 X118.401 Y116.622 E.02405
;WIDTH:0.359646
G1 X118.548 Y116.12 E.02382
G1 X118.818 Y116.117 E.01229
G1 X118.808 Y116.206 E.00408
G1 X118.642 Y116.747 E.02577
;WIDTH:0.356481
G1 X118.373 Y117.276 E.02671
;WIDTH:0.354822
G1 X118.008 Y117.749 E.02673
G1 X117.577 Y118.164 E.02676
;WIDTH:0.3553
G1 X117.079 Y118.487 E.0266
;WIDTH:0.358875
G1 X116.497 Y118.733 E.02869
;WIDTH:0.361304
G1 X115.785 Y118.869 E.03321
;WIDTH:0.368029
G1 X115.065 Y118.851 E.0338
G1 X114.431 Y118.699 E.0306
;WIDTH:0.367064
G1 X113.955 Y118.506 E.02402
G1 X113.633 Y118.318 E.01744
;WIDTH:0.366289
G1 X113.182 Y117.962 E.0268
G1 X112.85 Y117.599 E.02294
;WIDTH:0.36576
G1 X112.452 Y116.965 E.03485
;WIDTH:0.357882
G1 X112.188 Y116.183 E.03734
;WIDTH:0.354474
G1 X112.13 Y115.662 E.02342
;WIDTH:0.369044
G1 X112.139 Y115.15 E.02412
G1 X112.199 Y114.762 E.01849
;WIDTH:0.368662
G1 X112.363 Y114.242 E.02564
G1 X112.56 Y113.85 E.02063
;WIDTH:0.355172
G1 X112.896 Y113.345 E.02717
;WIDTH:0.360017
G1 X113.355 Y112.882 E.02973
G1 X113.843 Y112.559 E.02668
;WIDTH:0.364628
G1 X114.38 Y112.31 E.02744
G1 X114.637 Y112.233 E.01244
;WIDTH:0.35643
G1 X115.222 Y112.13 E.02673
G1 X115.725 Y112.126 E.02264
;WIDTH:0.360116
G1 X116.257 Y112.202 E.02451
;WIDTH:0.362536
G1 X116.713 Y112.343 E.02196
;WIDTH:0.366872
G1 X117.161 Y112.557 E.0232
G1 X117.707 Y112.951 E.03147
;WIDTH:0.368227
G1 X118.066 Y113.304 E.02364
G1 X118.268 Y113.563 E.01542
;WIDTH:0.362876
G1 X118.551 Y114.05 E.02595
G1 X118.237 Y114.053 E.01447
G1 X118.117 Y113.826 E.01183
;WIDTH:0.368227
G1 X117.864 Y113.501 E.01934
G1 X117.384 Y113.034 E.03145
;WIDTH:0.363833
G1 X116.813 Y112.68 E.03106
;WIDTH:0.354863
G1 X116.312 Y112.497 E.02386
;WIDTH:0.357706
G1 X115.791 Y112.402 E.02394
;WIDTH:0.361288
G1 X115.325 Y112.397 E.02135
;WIDTH:0.36293
G1 X114.897 Y112.453 E.01989
;WIDTH:0.364628
G1 X114.495 Y112.564 E.01934
G1 X113.863 Y112.853 E.03222
;WIDTH:0.357825
G1 X113.423 Y113.184 E.0249
;WIDTH:0.355245
G1 X113.303 Y113.31 E.0078
G1 X113.48 Y113.562 F9000
;TYPE:External perimeter
;WIDTH:0.42
G1 F900
G1 X113.298 Y113.754 E.0147
G1 X113.018 Y114.183 E.02847
G1 X112.76 Y114.875 E.04104
G1 X112.691 Y115.609 E.04097
G1 X112.767 Y116.137 E.02964
G1 X113.014 Y116.809 E.03979
G1 X113.445 Y117.417 E.04142
G1 X113.908 Y117.802 E.03346
G1 X114.192 Y117.967 E.01825
G1 X114.702 Y118.193 E.031
G1 X115.393 Y118.307 E.03892
G1 X115.761 Y118.289 E.02047
G1 X116.368 Y118.171 E.03436
G1 X116.709 Y118.027 E.02057
G1 X117.253 Y117.695 E.03542
G1 X117.612 Y117.351 E.02763
G1 X117.912 Y116.941 E.02823
G1 X118.134 Y116.474 E.02873
G1 X118.283 Y115.819 E.03733
G1 X119.161 Y115.81 E.04879
G1 X119.11 Y116.242 E.02417
G1 X118.962 Y116.772 E.03058
G1 X118.748 Y117.247 E.02895
G1 X118.471 Y117.685 E.0288
G1 X117.941 Y118.265 E.04366
G1 X117.532 Y118.579 E.02865
G1 X117.077 Y118.835 E.02901
G1 X116.594 Y119.023 E.0288
G1 X115.826 Y119.174 E.0435
G1 X115.044 Y119.161 E.04346
G1 X114.539 Y119.062 E.0286
G1 X113.807 Y118.778 E.04363
G1 X113.364 Y118.509 E.0288
G1 X112.963 Y118.18 E.02882
G1 X112.612 Y117.797 E.02887
G1 X112.192 Y117.136 E.04352
G1 X111.922 Y116.402 E.04346
G1 X111.831 Y115.895 E.02862
G1 X111.83 Y115.11 E.04362
G1 X111.921 Y114.6 E.02879
G1 X112.082 Y114.108 E.02877
G1 X112.455 Y113.416 E.04369
G1 X112.775 Y113.011 E.02868
G1 X113.153 Y112.652 E.02897
G1 X113.575 Y112.352 E.02877
G1 X114.285 Y112.016 E.04365
G1 X114.785 Y111.88 E.02879
G1 X115.3 Y111.816 E.02884
G1 X115.821 Y111.825 E.02896
G1 X116.336 Y111.907 E.02898
G1 X116.833 Y112.06 E.0289
G1 X117.304 Y112.282 E.02894
G1 X117.737 Y112.567 E.02881
G1 X118.278 Y113.08 E.04143
G1 X118.595 Y113.498 E.02915
G1 X118.851 Y113.962 E.02945
G1 X118.989 Y114.351 E.02294
G1 X118.053 Y114.361 E.05202
G1 X117.847 Y113.967 E.02471
G1 X117.636 Y113.708 E.01856
G1 X117.295 Y113.34 E.02788
G1 X116.703 Y112.962 E.03903
G1 X116.223 Y112.785 E.02843
G1 X115.715 Y112.698 E.02864
G1 X115.213 Y112.705 E.0279
G1 X114.617 Y112.846 E.03403
G1 X114.068 Y113.082 E.03321
G1 X113.646 Y113.387 E.02893
G1 X113.521 Y113.519 E.0101
M106 S255
;LAYER_CHANGE
;Z:0.6
;HEIGHT:0.2
;BEFORE_LAYER_CHANGE
G92 E0
;0.6


G1 E-3.5 F3600
;WIPE_START
G1 F7200
G1 X113.48 Y113.562 E-.02822
G1 X113.298 Y113.754 E-.12566
G1 X113.018 Y114.183 E-.24334
G1 X112.76 Y114.875 E-.3508
G1 X112.691 Y115.609 E-.35019
G1 X112.767 Y116.137 E-.25338
G1 X112.875 Y116.43 E-.14841
;WIPE_END
G1 Z.6 F9000
;AFTER_LAYER_CHANGE
;0.6
M104 S200 ; set temperature
; stop printing object Car_doorHinge_cover-BodyPad id:0 copy 0
G1 Z.6
G1 X110.615 Y109.854
G1 E5 F2400
;TYPE:Skirt/Brim
;WIDTH:0.42
G1 F900
G1 X111.484 Y109.165 E.03477
G1 X112.909 Y108.461 E.04984
G1 X114.168 Y108.119 E.04091
G1 X115.75 Y108.004 E.04973
G1 X117.209 Y108.197 E.04614
G1 X118.585 Y108.664 E.04556
G1 X119.95 Y109.464 E.04961
G1 X120.931 Y110.329 E.04101
G1 X121.765 Y111.378 E.04202
G1 X122.491 Y112.787 E.0497
G1 X122.89 Y114.284 E.04858
G1 X122.988 Y115.898 E.0507
G1 X122.738 Y117.461 E.04963
G1 X122.287 Y118.689 E.04102
G1 X121.469 Y120.039 E.04949
G1 X120.562 Y121.033 E.04219
G1 X119.526 Y121.827 E.04093
G1 X118.106 Y122.532 E.04971
G1 X116.814 Y122.884 E.04199
G1 X115.232 Y122.995 E.04972
G1 X113.662 Y122.772 E.04972
G1 X112.43 Y122.344 E.04089
G1 X111.06 Y121.545 E.04973
G1 X110.055 Y120.659 E.04201
G1 X109.094 Y119.402 E.04961
G1 X108.513 Y118.23 E.04101
G1 X108.139 Y116.944 E.04199
G1 X108 Y115.365 E.0497
G1 X108.137 Y114.067 E.04092
G1 X108.603 Y112.552 E.0497
G1 X109.376 Y111.168 E.0497
G1 X110.245 Y110.148 E.04201
G1 X110.568 Y109.891 E.01294
G1 X110.774 Y110.152 F9000
G1 F900
G1 X111.668 Y109.444 E.03576
G1 X113.031 Y108.773 E.04763
G1 X114.221 Y108.449 E.03867
G1 X115.732 Y108.338 E.0475
G1 X117.133 Y108.522 E.0443
G1 X118.453 Y108.972 E.04373
G1 X119.757 Y109.736 E.04739
G1 X120.685 Y110.555 E.03881
G1 X121.489 Y111.567 E.04053
G1 X122.182 Y112.914 E.0475
G1 X122.558 Y114.32 E.04563
G1 X122.654 Y115.887 E.04922
G1 X122.414 Y117.38 E.04741
G1 X121.988 Y118.541 E.03878
G1 X121.207 Y119.832 E.04731
G1 X120.332 Y120.791 E.0407
G1 X119.352 Y121.542 E.03871
G1 X117.996 Y122.217 E.04749
G1 X116.749 Y122.556 E.04052
G1 X115.237 Y122.661 E.04752
G1 X113.738 Y122.446 E.04748
G1 X112.572 Y122.041 E.0387
G1 X111.263 Y121.28 E.04747
G1 X110.293 Y120.425 E.04054
G1 X109.376 Y119.223 E.0474
G1 X108.827 Y118.115 E.03877
G1 X108.466 Y116.874 E.04052
G1 X108.334 Y115.364 E.04753
G1 X108.464 Y114.137 E.03869
G1 X108.907 Y112.689 E.04748
G1 X109.646 Y111.366 E.04751
G1 X110.483 Y110.382 E.0405
G1 X110.727 Y110.189 E.00975
G1 E-3.5 F3600
;WIPE_START
G1 F7200
G1 X110.774 Y110.152 E-.02841
G1 X111.668 Y109.444 E-.54169
G1 X113.031 Y108.773 E-.72163
G1 X113.454 Y108.658 E-.20827
;WIPE_END
; printing object Car_doorHinge_cover-BodyPad id:0 copy 0
G1 X113.498 Y113.206 F9000
G1 E5 F2400
;TYPE:Perimeter
;WIDTH:0.39138
G1 F900
G1 X113.252 Y113.411 E.00928
;WIDTH:0.389498
G1 X112.91 Y113.854 E.01613
G1 X112.573 Y114.578 E.02301
;WIDTH:0.391922
G1 X112.452 Y115.132 E.01646
G1 X112.449 Y115.846 E.02072
;WIDTH:0.384835
G1 X112.554 Y116.358 E.01486
;WIDTH:0.401884
G1 X112.665 Y116.653 E.00941
G1 X112.957 Y117.22 E.01904
;WIDTH:0.395623
G1 X113.486 Y117.817 E.02339
;WIDTH:0.392369
G1 X114.037 Y118.195 E.01942
;WIDTH:0.401103
G1 X114.293 Y118.314 E.00841
G1 X114.94 Y118.515 E.02018
;WIDTH:0.395627
G1 X115.762 Y118.56 E.02414
G1 X116.288 Y118.467 E.01567
;WIDTH:0.392857
G1 X116.964 Y118.196 E.02119
;WIDTH:0.389765
G1 X117.418 Y117.899 E.01565
G1 X117.809 Y117.521 E.01568
;WIDTH:0.384901
G1 X118.11 Y117.11 E.01449
;WIDTH:0.391057
G1 X118.356 Y116.625 E.01574
;WIDTH:0.393736
G1 X118.511 Y116.104 E.01586
G1 X118.869 Y116.077 E.01047
G1 X118.676 Y116.761 E.02073
;WIDTH:0.391057
G1 X118.432 Y117.237 E.01548
;WIDTH:0.386003
G1 X118.115 Y117.689 E.01575
;WIDTH:0.396076
G1 X117.771 Y118.058 E.01481
;WIDTH:0.397907
G1 X117.378 Y118.358 E.01459
;WIDTH:0.404103
G1 X116.745 Y118.682 E.02136
G1 X116.355 Y118.812 E.01235
;WIDTH:0.395627
G1 X115.816 Y118.908 E.01606
;WIDTH:0.403563
G1 X115.315 Y118.912 E.01502
G1 X114.582 Y118.795 E.02226
;WIDTH:0.399873
G1 X114.024 Y118.578 E.01777
;WIDTH:0.403936
G1 X113.501 Y118.273 E.01817
G1 X113.115 Y117.95 E.01511
;WIDTH:0.395623
G1 X112.688 Y117.448 E.01933
G1 X112.585 Y117.275 E.0059
;WIDTH:0.401884
G1 X112.344 Y116.813 E.01555
G1 X112.237 Y116.492 E.0101
;WIDTH:0.388338
G1 X112.117 Y115.971 E.01536
;WIDTH:0.403486
G1 X112.083 Y115.388 E.01751
G1 X112.131 Y114.896 E.01482
;WIDTH:0.39994
G1 X112.342 Y114.191 E.02185
G1 X112.706 Y113.529 E.02243
;WIDTH:0.397378
G1 X113.158 Y113.008 E.02033
G1 X113.841 Y112.516 E.02481
;WIDTH:0.39932
G1 X114.354 Y112.279 E.01675
G1 X114.614 Y112.207 E.008
;WIDTH:0.392144
G1 X115.119 Y112.102 E.01498
G1 X115.693 Y112.09 E.01667
;WIDTH:0.395454
G1 X116.263 Y112.164 E.01685
;WIDTH:0.404177
G1 X116.747 Y112.318 E.01526
G1 X117.303 Y112.603 E.01877
;WIDTH:0.400138
G1 X117.757 Y112.932 E.01665
G1 X117.974 Y113.142 E.00897
;WIDTH:0.394823
G1 X118.37 Y113.641 E.01864
;WIDTH:0.398982
G1 X118.61 Y114.085 E.01494
G1 X118.211 Y114.093 E.01182
G1 X118.086 Y113.849 E.00812
;WIDTH:0.398336
G1 X117.829 Y113.506 E.01267
;WIDTH:0.400138
G1 X117.544 Y113.22 E.01199
G1 X116.972 Y112.806 E.02097
;WIDTH:0.395454
G1 X116.206 Y112.512 E.02405
G1 X115.698 Y112.436 E.01506
;WIDTH:0.394201
G1 X115.13 Y112.452 E.0166
;WIDTH:0.39932
G1 X114.501 Y112.604 E.01918
G1 X113.858 Y112.907 E.02106
;WIDTH:0.39138
G1 X113.544 Y113.168 E.01183
G1 X113.73 Y113.473 F9000
;TYPE:External perimeter
;WIDTH:0.419999
G1 F900
G1 X113.562 Y113.607 E.00674
G1 X113.235 Y114.013 E.01635
G1 X112.937 Y114.621 E.02123
G1 X112.815 Y115.136 E.01659
G1 X112.808 Y115.805 E.02098
G1 X112.905 Y116.283 E.01529
G1 X113.237 Y116.986 E.02438
G1 X113.693 Y117.518 E.02197
G1 X114.242 Y117.899 E.02095
G1 X114.416 Y117.968 E.00587
G1 X114.966 Y118.156 E.01822
G1 X115.651 Y118.206 E.02153
G1 X116.157 Y118.128 E.01605
G1 X116.781 Y117.886 E.02098
G1 X117.188 Y117.618 E.01528
G1 X117.535 Y117.287 E.01504
G1 X117.819 Y116.9 E.01505
G1 X117.974 Y116.584 E.01104
G1 X118.091 Y116.256 E.01092
G1 X118.19 Y115.72 E.01709
G1 X119.274 Y115.708 E.03399
G1 X119.253 Y116.01 E.00949
G1 X119.139 Y116.553 E.0174
G1 X118.956 Y117.052 E.01666
G1 X118.55 Y117.746 E.02521
G1 X118.008 Y118.34 E.02521
G1 X117.588 Y118.661 E.01657
G1 X116.871 Y119.032 E.02531
G1 X116.364 Y119.19 E.01665
G1 X115.837 Y119.274 E.01673
G1 X115.305 Y119.284 E.01668
G1 X114.507 Y119.157 E.02534
G1 X114.008 Y118.984 E.01656
G1 X113.304 Y118.589 E.02531
G1 X112.903 Y118.26 E.01626
G1 X112.373 Y117.642 E.02553
G1 X111.993 Y116.937 E.02511
G1 X111.769 Y116.168 E.02511
G1 X111.712 Y115.366 E.02521
G1 X111.767 Y114.841 E.01655
G1 X111.991 Y114.068 E.02523
G1 X112.37 Y113.362 E.02512
G1 X112.89 Y112.753 E.02511
G1 X113.526 Y112.265 E.02514
G1 X114.25 Y111.923 E.02511
G1 X115.03 Y111.74 E.02512
G1 X115.824 Y111.725 E.0249
G1 X116.358 Y111.809 E.01695
G1 X116.869 Y111.967 E.01677
G1 X117.35 Y112.194 E.01668
G1 X118.008 Y112.661 E.0253
G1 X118.381 Y113.04 E.01667
G1 X118.703 Y113.478 E.01704
G1 X118.951 Y113.938 E.01639
G1 X119.12 Y114.45 E.01691
G1 X117.987 Y114.462 E.03553
G1 X117.725 Y113.956 E.01787
G1 X117.32 Y113.51 E.01889
G1 X116.833 Y113.143 E.01912
G1 X116.198 Y112.882 E.02153
G1 X115.701 Y112.798 E.0158
G1 X115.197 Y112.809 E.01581
G1 X114.646 Y112.941 E.01777
G1 X114.085 Y113.19 E.01924
G1 X113.777 Y113.435 E.01234
;LAYER_CHANGE
;Z:0.8
;HEIGHT:0.2
;BEFORE_LAYER_CHANGE
G92 E0
;0.8


G1 E-3.5 F3600
;WIPE_START
G1 F7200
G1 X113.73 Y113.473 E-.02871
G1 X113.562 Y113.607 E-.10208
