; generated by PrusaSlicer 2.9.1 on 2025-03-18 at 02:47:41 UTC

; 

; external perimeters extrusion width = 0.42mm
; perimeters extrusion width = 0.44mm
; infill extrusion width = 0.44mm
; solid infill extrusion width = 0.44mm
; top infill extrusion width = 0.40mm
; support material extrusion width = 0.36mm
; first layer extrusion width = 0.42mm

M201 X500 Y500 Z100 E5000 ; sets maximum accelerations, mm/sec^2
M203 X500 Y500 Z10 E60 ; sets maximum feedrates, mm / sec
M204 S500 T1000 ; sets acceleration (S) and retract acceleration (R), mm/sec^2
M205 X8.00 Y8.00 Z0.40 E5.00 ; sets the jerk limits, mm/sec
M205 S0 T0 ; sets the minimum extruding and travel feed rate, mm/sec

; printing object Car_doorHinge_cover-BodyPad id:0 copy 0
; stop printing object Car_doorHinge_cover-BodyPad id:0 copy 0

;TYPE:Custom
G90 ; use absolute coordinates
M83 ; extruder relative mode
M104 S150 ; set temporary nozzle temp to prevent oozing during homing
M140 S60 ; set final bed temp
G4 S30 ; allow partial nozzle warmup
G28 ; home all axis
G1 Z50 F240
G1 X2.0 Y10 F3000
M104 S205 ; set final nozzle temp
M190 S60 ; wait for bed temp to stabilize
M109 S205 ; wait for nozzle temp to stabilize
G1 Z0.28 F240
G92 E0
G1 X2.0 Y140 E10 F1500 ; prime the nozzle
G1 X2.3 Y140 F5000
G92 E0
G1 X2.3 Y10 E10 F1200 ; prime the nozzle
G92 E0
G21 ; set units to millimeters
G90 ; use absolute coordinates
M83 ; use relative distances for extrusion
; Filament gcode
M107
;LAYER_CHANGE
;Z:0.4
;HEIGHT:0.4
G1 E-5 F3600
G1 Z.4 F9000
G1 X110.836 Y110.28
G1 Z.4
G1 E5 F2400
M204 S500
;TYPE:Skirt/Brim
;WIDTH:0.42
G1 F900
G1 X111.887 Y109.504 E.0726
G1 X113.083 Y108.931 E.0737
G1 X114.586 Y108.56 E.08603
G1 X115.369 Y108.501 E.04364
G1 X116.997 Y108.835 E.09235
G1 X117.976 Y109.524 E.06653
G1 X121.476 Y113.024 E.27506
G1 X122.338 Y114.444 E.09231
G1 X122.499 Y115.631 E.06657
G1 X122.352 Y116.93 E.07265
G1 X121.967 Y118.179 E.07263
G1 X121.356 Y119.334 E.07261
G1 X120.541 Y120.356 E.07264
G1 X119.347 Y121.348 E.08626
G1 X118.179 Y121.967 E.07346
G1 X116.93 Y122.352 E.07263
G1 X115.631 Y122.499 E.07265
G1 X114.07 Y122.352 E.08713
G1 X112.821 Y121.967 E.07263
G1 X111.449 Y121.209 E.08711
G1 X110.459 Y120.356 E.07262
G1 X109.644 Y119.334 E.07264
G1 X109.033 Y118.179 E.07261
G1 X108.644 Y116.911 E.07371
G1 X108.501 Y115.369 E.08606
G1 X108.646 Y114.077 E.07225
G1 X109.033 Y112.821 E.07304
G1 X109.791 Y111.449 E.08711
G1 X110.796 Y110.325 E.08379
G1 X111.043 Y110.546 F9000
G1 F900
G1 X111.054 Y110.534 E.0009
G1 X112.065 Y109.787 E.06985
G1 X113.193 Y109.246 E.06952
G1 X114.624 Y108.892 E.08192
G1 X115.382 Y108.835 E.04224
G1 X116.925 Y109.171 E.08776
G1 X117.739 Y109.761 E.05587
G1 X121.239 Y113.261 E.27506
G1 X122.042 Y114.62 E.08772
G1 X122.165 Y115.618 E.05588
G1 X122.024 Y116.868 E.0699
G1 X121.661 Y118.045 E.06845
G1 X121.073 Y119.157 E.0699
G1 X120.305 Y120.12 E.06845
G1 X119.168 Y121.066 E.08219
G1 X118.045 Y121.661 E.07062
G1 X116.868 Y122.024 E.06845
G1 X115.618 Y122.165 E.0699
G1 X114.132 Y122.024 E.08295
G1 X112.955 Y121.661 E.06845
G1 X111.648 Y120.94 E.08295
G1 X110.695 Y120.12 E.06987
G1 X109.927 Y119.157 E.06845
G1 X109.339 Y118.045 E.0699
G1 X108.972 Y116.849 E.06952
G1 X108.835 Y115.382 E.08188
G1 X108.975 Y114.139 E.06951
G1 X109.339 Y112.955 E.06884
G1 X110.06 Y111.648 E.08295
G1 X111.003 Y110.591 E.07872
G1 E-3.5 F3600
;WIPE_START
G1 F7200
G1 X111.043 Y110.546 E-.0286
G1 X111.054 Y110.534 E-.00773
G1 X112.065 Y109.787 E-.59709
G1 X113.193 Y109.246 E-.59424
G1 X113.749 Y109.108 E-.27234
;WIPE_END
; printing object Car_doorHinge_cover-BodyPad id:0 copy 0
G1 X112.784 Y113.467 F9000
G1 E5 F2400
;TYPE:External perimeter
;WIDTH:0.425841
G1 F900
G1 X112.504 Y113.9 E.02916
G1 X112.294 Y114.38 E.02962
G1 X112.159 Y114.886 E.02961
G1 X112.108 Y115.499 E.03478
G1 X112.175 Y116.191 F9000
G1 F900
G1 X112.319 Y116.695 E.02964
G1 X112.54 Y117.17 E.02962
G1 X112.841 Y117.619 E.03056
G1 X113.384 Y118.155 F9000
G1 F900
G1 X113.798 Y118.433 E.0282
G1 X114.306 Y118.68 E.03194
G1 X114.994 Y118.857 F9000
G1 F900
G1 X115.499 Y118.895 E.02863
G1 X116.255 Y118.812 F9000
G1 F900
G1 X116.973 Y118.56 E.04303
G1 X118.155 Y117.617 F9000
G1 F900
G1 X118.535 Y117.022 E.03992
G1 X118.733 Y116.536 E.02967
G1 X118.808 Y116.263 E.01601
G1 E-3.5 F3600
;WIPE_START
G1 F7200
G1 X118.733 Y116.536 E-.13448
G1 X118.535 Y117.022 E-.24927
G1 X118.155 Y117.617 E-.33535
;WIPE_END
G1 E-.7809 F3600
G1 X115.4 Y112.108 F9000
G1 E5 F2400
G1 F900
G1 X114.973 Y112.143 E.02422
G1 X114.253 Y112.343 F9000
G1 F900
G1 X113.803 Y112.559 E.02822
G1 X113.19 Y113.009 F9000
G1 F900
G1 X113.127 Y113.071 E.005
M106 S255
;LAYER_CHANGE
;Z:0.6
;HEIGHT:0.2
;BEFORE_LAYER_CHANGE
G92 E0
;0.6


G1 E-3.5 F3600
;WIPE_START
G1 F7200
G1 X113.19 Y113.009 E-.04199
;WIPE_END
G1 E-1.45801 F3600
G1 Z.6 F9000
;AFTER_LAYER_CHANGE
;0.6
M104 S200 ; set temperature
; stop printing object Car_doorHinge_cover-BodyPad id:0 copy 0
G1 Z.6
G1 X110.467 Y110.693
G1 E5 F2400
;TYPE:Skirt/Brim
;WIDTH:0.42
G1 F900
G1 X110.836 Y110.28 E.01737
G1 X111.887 Y109.504 E.04096
G1 X113.083 Y108.931 E.04158
G1 X114.586 Y108.56 E.04854
G1 X115.369 Y108.501 E.02462
G1 X116.997 Y108.835 E.05211
G1 X117.976 Y109.524 E.03754
G1 X121.476 Y113.024 E.1552
G1 X122.338 Y114.444 E.05208
G1 X122.499 Y115.631 E.03756
G1 X122.352 Y116.93 E.04099
G1 X121.967 Y118.179 E.04098
G1 X121.356 Y119.334 E.04097
G1 X120.541 Y120.356 E.04099
G1 X119.347 Y121.348 E.04867
G1 X118.179 Y121.967 E.04145
G1 X116.93 Y122.352 E.04098
G1 X115.631 Y122.499 E.04099
G1 X114.07 Y122.352 E.04916
G1 X112.821 Y121.967 E.04098
G1 X111.449 Y121.209 E.04915
G1 X110.459 Y120.356 E.04097
G1 X109.644 Y119.334 E.04099
G1 X109.033 Y118.179 E.04097
G1 X108.644 Y116.911 E.04159
G1 X108.501 Y115.369 E.04856
G1 X108.646 Y114.077 E.04076
G1 X109.033 Y112.821 E.04121
G1 X109.791 Y111.449 E.04915
G1 X110.427 Y110.738 E.02991
G1 X110.674 Y110.959 F9000
G1 F900
G1 X111.054 Y110.534 E.01788
G1 X112.065 Y109.787 E.03941
G1 X113.193 Y109.246 E.03923
G1 X114.624 Y108.892 E.04622
G1 X115.382 Y108.835 E.02383
G1 X116.925 Y109.171 E.04951
G1 X117.739 Y109.761 E.03152
G1 X121.239 Y113.261 E.1552
G1 X122.042 Y114.62 E.04949
G1 X122.165 Y115.618 E.03153
G1 X122.024 Y116.868 E.03944
G1 X121.661 Y118.045 E.03862
G1 X121.073 Y119.157 E.03944
G1 X120.305 Y120.12 E.03862
G1 X119.168 Y121.066 E.04638
G1 X118.045 Y121.661 E.03985
G1 X116.868 Y122.024 E.03862
G1 X115.618 Y122.165 E.03944
G1 X114.132 Y122.024 E.0468
G1 X112.955 Y121.661 E.03862
G1 X111.648 Y120.94 E.0468
G1 X110.695 Y120.12 E.03942
G1 X109.927 Y119.157 E.03862
G1 X109.339 Y118.045 E.03944
G1 X108.972 Y116.849 E.03923
G1 X108.835 Y115.382 E.0462
G1 X108.975 Y114.139 E.03922
G1 X109.339 Y112.955 E.03884
G1 X110.06 Y111.648 E.0468
G1 X110.634 Y111.004 E.02705
G1 E-3.5 F3600
;WIPE_START
G1 F7200
G1 X110.674 Y110.959 E-.0286
G1 X111.054 Y110.534 E-.2708
G1 X112.065 Y109.787 E-.59709
G1 X113.193 Y109.246 E-.59424
G1 X113.212 Y109.241 E-.00927
;WIPE_END
; printing object Car_doorHinge_cover-BodyPad id:0 copy 0
G1 X118.891 Y115.598 F9000
G1 E5 F2400
;TYPE:External perimeter
;WIDTH:0.38292
G1 F900
G1 X118.85 Y116.027 E.01218
G1 X118.733 Y116.538 E.01482
G1 X118.534 Y117.023 E.01482
G1 X118.264 Y117.472 E.01481
G1 X117.923 Y117.869 E.0148
G1 X117.532 Y118.222 E.01489
G1 X116.854 Y118.615 E.02216
G1 X116.359 Y118.786 E.01481
G1 X115.843 Y118.872 E.01479
G1 X115.319 Y118.891 E.01482
G1 X114.801 Y118.819 E.01479
G1 X114.258 Y118.663 E.01597
G1 X113.589 Y118.3 E.02152
G1 X113.186 Y117.99 E.01437
G1 X112.838 Y117.6 E.01478
G1 X112.543 Y117.167 E.01481
G1 X112.321 Y116.692 E.01482
G1 X112.176 Y116.189 E.0148
G1 X112.109 Y115.669 E.01482
G1 X112.123 Y115.145 E.01482
G1 X112.225 Y114.63 E.01484
G1 X112.511 Y113.903 E.02209
G1 X112.79 Y113.459 E.01482
G1 X113.134 Y113.064 E.01481
G1 X113.54 Y112.735 E.01477
G1 X113.989 Y112.464 E.01483
G1 X114.472 Y112.261 E.01481
G1 X114.971 Y112.142 E.0145
G1 X115.4 Y112.108 E.01217
;LAYER_CHANGE
;Z:0.8
;HEIGHT:0.2
;BEFORE_LAYER_CHANGE
G92 E0
;0.8


G1 E-3.5 F3600
;WIPE_START
G1 F7200
G1 X114.971 Y112.142 E-.20441
G1 X114.472 Y112.261 E-.24367
G1 X113.989 Y112.464 E-.24886
G1 X113.54 Y112.735 E-.24911
G1 X113.134 Y113.064 E-.24822
G1 X112.79 Y113.459 E-.2488
G1 X112.726 Y113.56 E-.05693
;WIPE_END
G1 Z.8 F9000
;AFTER_LAYER_CHANGE
;0.8
G1 Z.8
G1 X118.891 Y115.598
G1 E5 F2400
G1 F900
G1 X118.848 Y116.027 E.01219
G1 X118.733 Y116.538 E.01481
G1 X118.534 Y117.023 E.01482
G1 X118.26 Y117.468 E.01477
G1 X117.928 Y117.874 E.01483
G1 X117.41 Y118.304 E.01903
G1 X116.853 Y118.612 E.01799
G1 X116.359 Y118.784 E.01479
G1 X115.843 Y118.872 E.0148
G1 X115.319 Y118.891 E.01482
G1 X114.799 Y118.818 E.01485
G1 X114.056 Y118.573 E.02212
G1 X113.603 Y118.31 E.01481
G1 X113.186 Y117.991 E.01484
G1 X112.831 Y117.605 E.01483
G1 X112.539 Y117.169 E.01484
G1 X112.318 Y116.693 E.01484
G1 X112.174 Y116.189 E.01482
G1 X112.112 Y115.669 E.01481
G1 X112.13 Y115.144 E.01485
G1 X112.301 Y114.381 E.02211
G1 X112.506 Y113.899 E.01481
G1 X112.79 Y113.459 E.01481
G1 X113.134 Y113.064 E.01481
G1 X113.54 Y112.735 E.01477
G1 X113.989 Y112.464 E.01483
G1 X114.472 Y112.261 E.01481
G1 X114.971 Y112.142 E.0145
G1 X115.4 Y112.108 E.01217
;LAYER_CHANGE
;Z:1
;HEIGHT:0.2
;BEFORE_LAYER_CHANGE
G92 E0
;1


G1 E-3.5 F3600
;WIPE_START
G1 F7200
G1 X114.971 Y112.142 E-.20441
G1 X114.472 Y112.261 E-.24367
G1 X113.989 Y112.464 E-.24886
G1 X113.54 Y112.735 E-.24911
G1 X113.134 Y113.064 E-.24822
G1 X112.79 Y113.459 E-.2488
G1 X112.725 Y113.56 E-.05693
;WIPE_END
G1 Z1 F9000
;AFTER_LAYER_CHANGE
;1
G1 Z1
G1 X118.891 Y115.598
G1 E5 F2400
G1 F900
G1 X118.81 Y116.257 E.01877
G1 X118.66 Y116.74 E.0143
G1 X118.44 Y117.198 E.01436
G1 X118.154 Y117.617 E.01434
G1 X117.808 Y117.987 E.01432
G1 X117.317 Y118.367 E.01755
G1 X116.854 Y118.613 E.01482
G1 X116.359 Y118.786 E.01482
G1 X115.843 Y118.872 E.01479
G1 X115.319 Y118.891 E.01482
G1 X114.801 Y118.819 E.01479
G1 X114.257 Y118.663 E.016
G1 X113.801 Y118.443 E.01431
G1 X113.189 Y117.987 E.02158
G1 X112.834 Y117.603 E.01478
G1 X112.547 Y117.165 E.0148
G1 X112.319 Y116.693 E.01482
G1 X112.173 Y116.189 E.01483
G1 X112.112 Y115.669 E.0148
G1 X112.123 Y115.145 E.01482
G1 X112.225 Y114.63 E.01484
G1 X112.511 Y113.903 E.02209
G1 X112.79 Y113.459 E.01482
G1 X113.134 Y113.064 E.01481
G1 X113.54 Y112.735 E.01477
G1 X113.989 Y112.464 E.01483
G1 X114.472 Y112.261 E.01481
G1 X114.971 Y112.142 E.0145
G1 X115.4 Y112.108 E.01217
;LAYER_CHANGE
;Z:1.2
;HEIGHT:0.2
;BEFORE_LAYER_CHANGE
G92 E0
;1.2


G1 E-3.5 F3600
;WIPE_START
G1 F7200
G1 X114.971 Y112.142 E-.20441
G1 X114.472 Y112.261 E-.24367
G1 X113.989 Y112.464 E-.24886
G1 X113.54 Y112.735 E-.24911
G1 X113.134 Y113.064 E-.24822
G1 X112.79 Y113.459 E-.2488
G1 X112.726 Y113.56 E-.05693
;WIPE_END
G1 Z1.2 F9000
;AFTER_LAYER_CHANGE
;1.2
G1 Z1.2
G1 X118.891 Y115.598
G1 E5 F2400
G1 F900
G1 X118.85 Y116.027 E.01218
G1 X118.733 Y116.538 E.01482
G1 X118.529 Y117.02 E.0148
G1 X118.264 Y117.472 E.01481
G1 X117.808 Y117.99 E.01951
G1 X117.412 Y118.303 E.01427
G1 X116.854 Y118.612 E.01803
G1 X116.358 Y118.779 E.0148
G1 X115.843 Y118.878 E.01483
G1 X115.319 Y118.891 E.01482
G1 X114.801 Y118.819 E.01479
G1 X114.258 Y118.663 E.01597
G1 X113.59 Y118.3 E.02149
G1 X113.193 Y117.984 E.01435
G1 X112.834 Y117.603 E.0148
G1 X112.547 Y117.165 E.0148
G1 X112.319 Y116.693 E.01482
G1 X112.173 Y116.189 E.01483
G1 X112.112 Y115.669 E.0148
G1 X112.129 Y115.146 E.01479
G1 X112.22 Y114.628 E.01487
G1 X112.506 Y113.9 E.02211
G1 X112.79 Y113.459 E.01483
G1 X113.134 Y113.064 E.01481
G1 X113.54 Y112.735 E.01477
G1 X113.989 Y112.464 E.01483
G1 X114.472 Y112.261 E.01481
G1 X114.971 Y112.142 E.0145
G1 X115.4 Y112.108 E.01217
;LAYER_CHANGE
;Z:1.4
;HEIGHT:0.2
;BEFORE_LAYER_CHANGE
G92 E0
;1.4


G1 E-3.5 F3600
;WIPE_START
G1 F7200
G1 X114.971 Y112.142 E-.20441
G1 X114.472 Y112.261 E-.24367
G1 X113.989 Y112.464 E-.24886
G1 X113.54 Y112.735 E-.24911
G1 X113.134 Y113.064 E-.24822
G1 X112.79 Y113.459 E-.2488
G1 X112.725 Y113.56 E-.05693
;WIPE_END
G1 Z1.4 F9000
;AFTER_LAYER_CHANGE
;1.4
G1 Z1.4
G1 X118.891 Y115.598
G1 E5 F2400
G1 F900
G1 X118.85 Y116.027 E.01218
G1 X118.733 Y116.538 E.01482
G1 X118.529 Y117.02 E.0148
G1 X118.264 Y117.476 E.01491
G1 X117.737 Y118.055 E.02213
G1 X117.314 Y118.362 E.01478
G1 X116.854 Y118.612 E.0148
G1 X116.359 Y118.784 E.01481
G1 X115.843 Y118.872 E.0148
G1 X115.319 Y118.891 E.01482
G1 X114.801 Y118.819 E.01479
G1 X114.258 Y118.663 E.01597
G1 X113.589 Y118.3 E.02152
G1 X113.186 Y117.991 E.01436
G1 X112.831 Y117.604 E.01485
G1 X112.549 Y117.164 E.01477
G1 X112.326 Y116.691 E.01478
G1 X112.174 Y116.189 E.01483
G1 X112.112 Y115.669 E.01481
G1 X112.125 Y115.145 E.01482
G1 X112.224 Y114.629 E.01485
G1 X112.511 Y113.903 E.02207
G1 X112.79 Y113.459 E.01482
G1 X113.134 Y113.064 E.01481
G1 X113.54 Y112.735 E.01477
G1 X113.989 Y112.464 E.01483
G1 X114.472 Y112.261 E.01481
G1 X114.971 Y112.142 E.0145
G1 X115.4 Y112.108 E.01217
;LAYER_CHANGE
;Z:1.6
;HEIGHT:0.2
;BEFORE_LAYER_CHANGE
G92 E0
;1.6


G1 E-3.5 F3600
;WIPE_START
G1 F7200
G1 X114.971 Y112.142 E-.20441
G1 X114.472 Y112.261 E-.24367
G1 X113.989 Y112.464 E-.24886
G1 X113.54 Y112.735 E-.24911
G1 X113.134 Y113.064 E-.24822
G1 X112.79 Y113.459 E-.2488
G1 X112.726 Y113.56 E-.05693
;WIPE_END
G1 Z1.6 F9000
;AFTER_LAYER_CHANGE
;1.6
G1 Z1.6
G1 X118.891 Y115.598
G1 E5 F2400
G1 F900
G1 X118.85 Y116.027 E.01218
G1 X118.733 Y116.538 E.01482
G1 X118.529 Y117.02 E.0148
G1 X118.264 Y117.476 E.01491
G1 X117.733 Y118.049 E.02209
G1 X117.317 Y118.367 E.0148
G1 X116.855 Y118.614 E.01481
G1 X116.359 Y118.786 E.01484
G1 X115.843 Y118.872 E.01479
G1 X115.319 Y118.891 E.01482
G1 X114.801 Y118.819 E.01479
G1 X114.257 Y118.663 E.016
G1 X113.757 Y118.413 E.0158
G1 X113.186 Y117.991 E.02007
G1 X112.831 Y117.605 E.01483
G1 X112.546 Y117.166 E.0148
G1 X112.327 Y116.691 E.01479
G1 X112.174 Y116.189 E.01484
G1 X112.105 Y115.498 E.01963
G1 X112.142 Y114.993 E.01432
G1 X112.257 Y114.502 E.01426
G1 X112.507 Y113.9 E.01843
G1 X112.787 Y113.456 E.01484
G1 X113.133 Y113.063 E.0148
G1 X113.54 Y112.735 E.01478
G1 X113.989 Y112.464 E.01483
G1 X114.472 Y112.261 E.01481
G1 X114.971 Y112.142 E.0145
G1 X115.4 Y112.108 E.01217
;LAYER_CHANGE
;Z:1.8
;HEIGHT:0.2
;BEFORE_LAYER_CHANGE
G92 E0
;1.8


G1 E-3.5 F3600
;WIPE_START
G1 F7200
G1 X114.971 Y112.142 E-.20441
G1 X114.472 Y112.261 E-.24367
G1 X113.989 Y112.464 E-.24886
G1 X113.54 Y112.735 E-.24911
G1 X113.133 Y113.063 E-.24829
G1 X112.787 Y113.456 E-.24871
G1 X112.723 Y113.557 E-.05695
;WIPE_END
G1 Z1.8 F9000
;AFTER_LAYER_CHANGE
;1.8
G1 Z1.8
G1 X118.892 Y115.6
G1 E5 F2400
G1 F900
G1 X118.856 Y116.029 E.01217
G1 X118.729 Y116.537 E.0148
G1 X118.533 Y117.022 E.01479
G1 X118.259 Y117.471 E.01487
G1 X117.737 Y118.055 E.02214
G1 X117.314 Y118.362 E.01478
G1 X116.854 Y118.612 E.0148
G1 X116.359 Y118.784 E.01481
G1 X115.843 Y118.872 E.0148
G1 X115.319 Y118.891 E.01482
G1 X114.801 Y118.819 E.01479
G1 X114.257 Y118.663 E.016
G1 X113.75 Y118.409 E.01603
G1 X113.186 Y117.991 E.01985
G1 X112.831 Y117.605 E.01483
G1 X112.54 Y117.168 E.01484
G1 X112.325 Y116.691 E.01479
G1 X112.177 Y116.189 E.0148
G1 X112.108 Y115.669 E.01483
G1 X112.123 Y115.145 E.01482
G1 X112.225 Y114.63 E.01484
G1 X112.511 Y113.903 E.02209
G1 X112.79 Y113.459 E.01482
G1 X113.134 Y113.064 E.01481
G1 X113.54 Y112.735 E.01477
G1 X113.989 Y112.464 E.01483
G1 X114.472 Y112.261 E.01481
G1 X114.971 Y112.142 E.0145
G1 X115.4 Y112.108 E.01217
;LAYER_CHANGE
;Z:2
;HEIGHT:0.2
;BEFORE_LAYER_CHANGE
G92 E0
;2


G1 E-3.5 F3600
;WIPE_START
G1 F7200
G1 X114.971 Y112.142 E-.20441
G1 X114.472 Y112.261 E-.24367
G1 X113.989 Y112.464 E-.24886
G1 X113.54 Y112.735 E-.24911
G1 X113.134 Y113.064 E-.24822
G1 X112.79 Y113.459 E-.2488
G1 X112.726 Y113.56 E-.05693
;WIPE_END
G1 Z2 F9000
;AFTER_LAYER_CHANGE
;2
G1 Z2
G1 X118.891 Y115.598
G1 E5 F2400
G1 F900
G1 X118.85 Y116.027 E.01218
G1 X118.733 Y116.538 E.01482
G1 X118.534 Y117.023 E.01482
G1 X118.258 Y117.47 E.01485
G1 X117.737 Y118.055 E.02215
G1 X117.318 Y118.369 E.0148
G1 X116.852 Y118.607 E.01479
G1 X116.359 Y118.785 E.01482
G1 X115.843 Y118.878 E.01482
G1 X115.319 Y118.891 E.01482
