; generated by PrusaSlicer 2.9.1 on 2025-03-18 at 16:13:25 UTC

; 

; external perimeters extrusion width = 0.42mm
; perimeters extrusion width = 0.44mm
; infill extrusion width = 0.44mm
; solid infill extrusion width = 0.44mm
; top infill extrusion width = 0.40mm
; support material extrusion width = 0.36mm
; first layer extrusion width = 0.42mm

M201 X500 Y500 Z100 E5000 ; sets maximum accelerations, mm/sec^2
M203 X500 Y500 Z10 E60 ; sets maximum feedrates, mm / sec
M204 S500 T1000 ; sets acceleration (S) and retract acceleration (R), mm/sec^2
M205 X8.00 Y8.00 Z0.40 E5.00 ; sets the jerk limits, mm/sec
M205 S0 T0 ; sets the minimum extruding and travel feed rate, mm/sec

; printing object Car_doorHinge_cover-BodyPad id:0 copy 0
; stop printing object Car_doorHinge_cover-BodyPad id:0 copy 0

;TYPE:Custom
G90 ; use absolute coordinates
M83 ; extruder relative mode
M104 S150 ; set temporary nozzle temp to prevent oozing during homing
M140 S60 ; set final bed temp
G4 S30 ; allow partial nozzle warmup
G28 ; home all axis
G1 Z50 F240
G1 X2.0 Y10 F3000
M104 S205 ; set final nozzle temp
M190 S60 ; wait for bed temp to stabilize
M109 S205 ; wait for nozzle temp to stabilize
G1 Z0.28 F240
G92 E0
G1 X2.0 Y140 E10 F1500 ; prime the nozzle
G1 X2.3 Y140 F5000
G92 E0
G1 X2.3 Y10 E10 F1200 ; prime the nozzle
G92 E0
G21 ; set units to millimeters
G90 ; use absolute coordinates
M83 ; use relative distances for extrusion
; Filament gcode
M107
;LAYER_CHANGE
;Z:0.4
;HEIGHT:0.4
G1 E-5 F3600
G1 Z.4 F9000
G1 X102.761 Y106.119
G1 Z.4
G1 E5 F2400
M204 S500
;TYPE:Skirt/Brim
;WIDTH:0.42
G1 F1200
G1 X104.451 Y105.63 E.09777
G1 X126.153 Y105.63 E1.206
G1 X127.682 Y106.024 E.08774
G1 X128.831 Y107.107 E.08774
G1 X129.32 Y108.797 E.09777
G1 X129.32 Y122.596 E.76682
G1 X128.926 Y124.126 E.0878
G1 X127.843 Y125.275 E.08774
G1 X126.153 Y125.763 E.09775
G1 X104.451 Y125.763 E1.206
G1 X102.921 Y125.37 E.08778
G1 X101.772 Y124.286 E.08778
G1 X101.284 Y122.596 E.09775
G1 X101.284 Y108.797 E.76682
G1 X101.677 Y107.268 E.08773
G1 X102.719 Y106.162 E.08444
G1 E-3.5 F3600
;WIPE_START
G1 F7200
G1 X102.761 Y106.119 E-.02855
G1 X104.451 Y105.63 E-.83568
G1 X105.789 Y105.63 E-.63577
;WIPE_END
; printing object Car_doorHinge_cover-BodyPad id:0 copy 0
G1 X126.153 Y122.596 F9000
G1 E5 F2400
;TYPE:Support material
G1 F1200
G1 X104.451 Y122.596 E1.206
G1 X104.451 Y108.797 E.76682
G1 X126.153 Y108.797 E1.206
G1 X126.153 Y122.546 E.76404
G1 E-3.5 F3600
;WIPE_START
G1 F7200
G1 X126.153 Y119.388 E-1.5
;WIPE_END
G1 X107.031 Y114.748 F9000
G1 E5 F2400
G1 F1200
G1 X107.031 Y112.694 E.11414
G1 X123.573 Y112.694 E.91925
G1 X123.573 Y114.748 E.11414
G1 X123.206 Y114.748 E.02039
G1 X123.192 Y116.645 E.10542
G1 X123.573 Y116.645 E.02117
G1 X123.573 Y118.699 E.11414
G1 X107.031 Y118.699 E.91925
G1 X107.031 Y116.645 E.11414
G1 X107.691 Y116.645 E.03668
G1 X107.711 Y117.041 E.02203
G1 X122.744 Y117.728 E.83627
G1 X122.771 Y117.458 E.01508
G1 X116.599 Y117.03 E.34381
G1 X113.651 Y116.731 E.16466
G1 X111.791 Y116.43 E.10471
G1 X110.776 Y116.008 E.06109
G1 X110.736 Y115.442 E.03153
G1 X111.561 Y114.967 E.0529
G1 X113.211 Y114.69 E.09298
G1 X115.975 Y114.429 E.15428
G1 X122.796 Y114.044 E.37965
G1 X122.773 Y113.776 E.01495
G1 X107.732 Y114.236 E.83623
G1 X107.705 Y114.748 E.02849
G1 X107.081 Y114.748 E.03468
G1 E-3.5 F3600
;WIPE_START
G1 F7200
G1 X107.705 Y114.748 E-.2964
G1 X107.732 Y114.236 E-.24354
G1 X109.752 Y114.174 E-.96006
;WIPE_END
G1 X125.698 Y122.446 F9000
G1 E5 F2400
G1 F1200
G1 X125.698 Y109.098 E.74176
G1 X125.326 Y109.098 E.02067
G1 X125.326 Y122.296 E.73342
G1 X124.955 Y122.296 E.02062
G1 X124.955 Y109.098 E.73342
G1 X124.584 Y109.098 E.02062
G1 X124.584 Y122.296 E.73342
G1 X124.213 Y122.296 E.02062
G1 X124.213 Y109.098 E.73342
G1 X123.841 Y109.098 E.02067
G1 X123.841 Y122.296 E.73342
G1 X123.47 Y122.296 E.02062
G1 X123.47 Y119 E.18316
G1 X123.099 Y119 E.02062
G1 X123.099 Y122.296 E.18316
G1 X122.727 Y122.296 E.02067
G1 X122.727 Y119 E.18316
G1 X122.356 Y119 E.02062
G1 X122.356 Y122.296 E.18316
G1 X121.985 Y122.296 E.02062
G1 X121.985 Y119 E.18316
G1 X121.614 Y119 E.02062
G1 X121.614 Y122.296 E.18316
G1 X121.242 Y122.296 E.02067
G1 X121.242 Y119 E.18316
G1 X120.871 Y119 E.02062
G1 X120.871 Y122.296 E.18316
G1 X120.5 Y122.296 E.02062
G1 X120.5 Y119 E.18316
G1 X120.128 Y119 E.02067
G1 X120.128 Y122.296 E.18316
G1 X119.757 Y122.296 E.02062
G1 X119.757 Y119 E.18316
G1 X119.386 Y119 E.02062
G1 X119.386 Y122.296 E.18316
G1 X119.015 Y122.296 E.02062
G1 X119.015 Y119 E.18316
G1 X118.643 Y119 E.02067
G1 X118.643 Y122.296 E.18316
G1 X118.272 Y122.296 E.02062
G1 X118.272 Y119 E.18316
G1 X117.901 Y119 E.02062
G1 X117.901 Y122.296 E.18316
G1 X117.529 Y122.296 E.02067
G1 X117.529 Y119 E.18316
G1 X117.158 Y119 E.02062
G1 X117.158 Y122.296 E.18316
G1 X116.787 Y122.296 E.02062
G1 X116.787 Y119 E.18316
G1 X116.416 Y119 E.02062
G1 X116.416 Y122.296 E.18316
G1 X116.044 Y122.296 E.02067
G1 X116.044 Y119 E.18316
G1 X115.673 Y119 E.02062
G1 X115.673 Y122.296 E.18316
G1 X115.302 Y122.296 E.02062
G1 X115.302 Y119 E.18316
G1 X114.93 Y119 E.02067
G1 X114.93 Y122.296 E.18316
G1 X114.559 Y122.296 E.02062
G1 X114.559 Y119 E.18316
G1 X114.188 Y119 E.02062
G1 X114.188 Y122.296 E.18316
G1 X113.816 Y122.296 E.02067
G1 X113.816 Y119 E.18316
G1 X113.445 Y119 E.02062
G1 X113.445 Y122.296 E.18316
G1 X113.074 Y122.296 E.02062
G1 X113.074 Y119 E.18316
G1 X112.703 Y119 E.02062
G1 X112.703 Y122.296 E.18316
G1 X112.331 Y122.296 E.02067
G1 X112.331 Y119 E.18316
G1 X111.96 Y119 E.02062
G1 X111.96 Y122.296 E.18316
G1 X111.589 Y122.296 E.02062
G1 X111.589 Y119 E.18316
G1 X111.217 Y119 E.02067
G1 X111.217 Y122.296 E.18316
G1 X110.846 Y122.296 E.02062
G1 X110.846 Y119 E.18316
G1 X110.475 Y119 E.02062
G1 X110.475 Y122.296 E.18316
G1 X110.104 Y122.296 E.02062
G1 X110.104 Y119 E.18316
G1 X109.732 Y119 E.02067
G1 X109.732 Y122.296 E.18316
G1 X109.361 Y122.296 E.02062
G1 X109.361 Y119 E.18316
G1 X108.99 Y119 E.02062
G1 X108.99 Y122.296 E.18316
G1 X108.618 Y122.296 E.02067
G1 X108.618 Y119 E.18316
G1 X108.247 Y119 E.02062
G1 X108.247 Y122.296 E.18316
G1 X107.876 Y122.296 E.02062
G1 X107.876 Y119 E.18316
G1 X107.505 Y119 E.02062
G1 X107.505 Y122.296 E.18316
G1 X107.133 Y122.296 E.02067
G1 X107.133 Y118.85 E.1915
G1 E-3.5 F3600
;WIPE_START
G1 F7200
G1 X107.133 Y122.007 E-1.5
;WIPE_END
G1 X123.47 Y112.543 F9000
G1 E5 F2400
G1 F1200
G1 X123.47 Y109.098 E.19144
G1 X123.099 Y109.098 E.02062
G1 X123.099 Y112.393 E.18311
G1 X122.727 Y112.393 E.02067
G1 X122.727 Y109.098 E.18311
G1 X122.356 Y109.098 E.02062
G1 X122.356 Y112.393 E.18311
G1 X121.985 Y112.393 E.02062
G1 X121.985 Y109.098 E.18311
G1 X121.614 Y109.098 E.02062
G1 X121.614 Y112.393 E.18311
G1 X121.242 Y112.393 E.02067
G1 X121.242 Y109.098 E.18311
G1 X120.871 Y109.098 E.02062
G1 X120.871 Y112.393 E.18311
G1 X120.5 Y112.393 E.02062
G1 X120.5 Y109.098 E.18311
G1 X120.128 Y109.098 E.02067
G1 X120.128 Y112.393 E.18311
G1 X119.757 Y112.393 E.02062
G1 X119.757 Y109.098 E.18311
G1 X119.386 Y109.098 E.02062
G1 X119.386 Y112.393 E.18311
G1 X119.015 Y112.393 E.02062
G1 X119.015 Y109.098 E.18311
G1 X118.643 Y109.098 E.02067
G1 X118.643 Y112.393 E.18311
G1 X118.272 Y112.393 E.02062
G1 X118.272 Y109.098 E.18311
G1 X117.901 Y109.098 E.02062
G1 X117.901 Y112.393 E.18311
G1 X117.529 Y112.393 E.02067
G1 X117.529 Y109.098 E.18311
G1 X117.158 Y109.098 E.02062
G1 X117.158 Y112.393 E.18311
G1 X116.787 Y112.393 E.02062
G1 X116.787 Y109.098 E.18311
G1 X116.416 Y109.098 E.02062
G1 X116.416 Y112.393 E.18311
G1 X116.044 Y112.393 E.02067
G1 X116.044 Y109.098 E.18311
G1 X115.673 Y109.098 E.02062
G1 X115.673 Y112.393 E.18311
G1 X115.302 Y112.393 E.02062
G1 X115.302 Y109.098 E.18311
G1 X114.93 Y109.098 E.02067
G1 X114.93 Y112.393 E.18311
G1 X114.559 Y112.393 E.02062
G1 X114.559 Y109.098 E.18311
G1 X114.188 Y109.098 E.02062
G1 X114.188 Y112.393 E.18311
G1 X113.816 Y112.393 E.02067
G1 X113.816 Y109.098 E.18311
G1 X113.445 Y109.098 E.02062
G1 X113.445 Y112.393 E.18311
G1 X113.074 Y112.393 E.02062
G1 X113.074 Y109.098 E.18311
G1 X112.703 Y109.098 E.02062
G1 X112.703 Y112.393 E.18311
G1 X112.331 Y112.393 E.02067
G1 X112.331 Y109.098 E.18311
G1 X111.96 Y109.098 E.02062
G1 X111.96 Y112.393 E.18311
G1 X111.589 Y112.393 E.02062
G1 X111.589 Y109.098 E.18311
G1 X111.217 Y109.098 E.02067
G1 X111.217 Y112.393 E.18311
G1 X110.846 Y112.393 E.02062
G1 X110.846 Y109.098 E.18311
G1 X110.475 Y109.098 E.02062
G1 X110.475 Y112.393 E.18311
G1 X110.104 Y112.393 E.02062
G1 X110.104 Y109.098 E.18311
G1 X109.732 Y109.098 E.02067
G1 X109.732 Y112.393 E.18311
G1 X109.361 Y112.393 E.02062
G1 X109.361 Y109.098 E.18311
G1 X108.99 Y109.098 E.02062
G1 X108.99 Y112.393 E.18311
G1 X108.618 Y112.393 E.02067
G1 X108.618 Y109.098 E.18311
G1 X108.247 Y109.098 E.02062
G1 X108.247 Y112.393 E.18311
G1 X107.876 Y112.393 E.02062
G1 X107.876 Y109.098 E.18311
G1 X107.505 Y109.098 E.02062
G1 X107.505 Y112.393 E.18311
G1 X107.133 Y112.393 E.02067
G1 X107.133 Y109.098 E.18311
G1 X106.762 Y109.098 E.02062
G1 X106.762 Y122.296 E.73342
G1 X106.391 Y122.296 E.02062
G1 X106.391 Y109.098 E.73342
G1 X106.019 Y109.098 E.02067
G1 X106.019 Y122.296 E.73342
G1 X105.648 Y122.296 E.02062
G1 X105.648 Y109.098 E.73342
G1 X105.277 Y109.098 E.02062
G1 X105.277 Y122.296 E.73342
G1 X104.906 Y122.296 E.02062
G1 X104.906 Y108.947 E.74182
G1 E-3.5 F3600
;WIPE_START
G1 F7200
G1 X104.906 Y112.105 E-1.5
;WIPE_END
G1 X113.816 Y114.481 F9000
G1 E5 F2400
G1 F1200
G1 X113.816 Y114.32 E.00895
G1 X113.074 Y114.408 E.04152
G1 X113.074 Y114.345 E.0035
G1 X112.703 Y114.358 E.02063
G1 X112.703 Y114.47 E.00622
G1 X112.331 Y114.532 E.02096
G1 X112.331 Y114.371 E.00895
G1 X111.96 Y114.385 E.02063
G1 X111.96 Y114.595 E.01167
G1 X111.589 Y114.657 E.0209
G1 X111.589 Y114.398 E.01439
G1 X111.217 Y114.412 E.02069
G1 X111.217 Y114.803 E.02173
G1 X110.846 Y115.026 E.02405
G1 X110.846 Y114.425 E.0334
G1 X110.475 Y114.438 E.02063
G1 X110.475 Y116.884 E.13593
G1 X110.846 Y116.903 E.02064
G1 X110.846 Y116.364 E.02995
G1 X111.217 Y116.521 E.02239
G1 X111.217 Y116.921 E.02223
G1 X111.589 Y116.939 E.0207
G1 X111.589 Y116.678 E.0145
G1 X111.96 Y116.762 E.02114
G1 X111.96 Y116.957 E.01084
G1 X112.331 Y116.976 E.02064
G1 X112.331 Y116.822 E.00856
G1 X112.703 Y116.882 E.02094
G1 X112.703 Y116.994 E.00622
G1 X113.074 Y117.012 E.02064
G1 X113.074 Y116.942 E.00389
G1 X113.445 Y117.002 E.02088
G1 X113.445 Y117.181 E.00995
G1 X110.104 Y117.017 F9000
G1 F1200
G1 X110.104 Y114.452 E.14254
G1 X109.732 Y114.465 E.02068
G1 X109.732 Y116.848 E.13243
G1 X109.361 Y116.83 E.02064
G1 X109.361 Y114.479 E.13065
G1 X108.99 Y114.492 E.02063
G1 X108.99 Y116.811 E.12887
G1 X108.618 Y116.793 E.0207
G1 X108.618 Y114.505 E.12715
G1 X108.247 Y114.519 E.02063
G1 X108.247 Y116.772 E.1252
G1 X107.991 Y116.756 E.01425
G1 X107.994 Y116.344 E.0229
G1 X107.876 Y116.344 E.00656
G1 X107.876 Y115.049 E.07196
G1 X107.505 Y115.049 E.02062
G1 X107.505 Y116.344 E.07196
G1 X107.133 Y116.344 E.02067
G1 X107.133 Y114.899 E.0803
G1 X107.435 Y114.013 F9000
;TYPE:Support material interface
;WIDTH:0.36
G1 F1200
G1 X107.399 Y114.05 E.00235
G1 X107.399 Y113.062 E.04505
G1 X107.545 Y113.062 E.00666
G1 X107.545 Y113.899 E.03816
G1 X108.063 Y113.856 E.0237
G1 X108.063 Y113.062 E.0362
G1 X108.58 Y113.062 E.02357
G1 X108.58 Y113.837 E.03533
G1 X109.097 Y113.818 E.02359
G1 X109.097 Y113.062 E.03447
G1 X109.614 Y113.062 E.02357
G1 X109.614 Y113.8 E.03365
G1 X110.131 Y113.781 E.02359
G1 X110.131 Y113.062 E.03278
G1 X110.648 Y113.062 E.02357
G1 X110.648 Y113.762 E.03192
G1 X111.165 Y113.744 E.02359
G1 X111.165 Y113.062 E.03109
G1 X111.682 Y113.062 E.02357
G1 X111.682 Y113.725 E.03023
G1 X112.199 Y113.706 E.02359
G1 X112.199 Y113.062 E.02936
G1 X112.716 Y113.062 E.02357
G1 X112.716 Y113.688 E.02854
G1 X113.233 Y113.669 E.02359
G1 X113.233 Y113.062 E.02767
G1 X113.75 Y113.062 E.02357
G1 X113.75 Y113.652 E.0269
G1 X114.267 Y113.637 E.02358
G1 X114.267 Y113.062 E.02622
G1 X114.785 Y113.062 E.02362
G1 X114.785 Y113.623 E.02558
G1 X115.302 Y113.608 E.02358
G1 X115.302 Y113.062 E.02489
G1 X115.819 Y113.062 E.02357
G1 X115.819 Y113.593 E.02421
G1 X116.336 Y113.578 E.02358
G1 X116.336 Y113.062 E.02353
G1 X116.853 Y113.062 E.02357
G1 X116.853 Y113.564 E.02289
G1 X117.37 Y113.549 E.02358
G1 X117.37 Y113.062 E.0222
G1 X117.887 Y113.062 E.02357
G1 X117.887 Y113.534 E.02152
G1 X118.404 Y113.519 E.02358
G1 X118.404 Y113.062 E.02084
G1 X118.921 Y113.062 E.02357
G1 X118.921 Y113.504 E.02015
G1 X119.438 Y113.49 E.02358
G1 X119.438 Y113.062 E.01951
G1 X119.955 Y113.062 E.02357
G1 X119.955 Y113.475 E.01883
G1 X120.472 Y113.46 E.02358
G1 X120.472 Y113.062 E.01815
G1 X120.99 Y113.062 E.02362
G1 X120.99 Y113.448 E.0176
G1 X121.507 Y113.436 E.02358
G1 X121.507 Y113.062 E.01705
G1 X122.024 Y113.062 E.02357
G1 X122.024 Y113.424 E.0165
G1 X122.541 Y113.412 E.02358
G1 X122.541 Y113.062 E.01596
G1 X123.058 Y113.062 E.02357
G1 X123.058 Y113.539 E.02175
G1 X123.168 Y113.647 E.00703
G1 X123.204 Y114.38 E.03346
G1 X123.204 Y113.075 E.0595
G1 E-3.5 F3600
;WIPE_START
G1 F7200
G1 X123.204 Y114.38 E-.61987
G1 X123.168 Y113.647 E-.34859
G1 X123.058 Y113.539 E-.07322
G1 X123.058 Y113.062 E-.22658
G1 X122.57 Y113.062 E-.23174
;WIPE_END
G1 X123.137 Y117.813 F9000
G1 E5 F2400
G1 F1200
G1 X123.143 Y117.014 E.03643
G1 X123.204 Y117.014 E.00278
G1 X123.204 Y118.331 E.06005
G1 X123.058 Y118.331 E.00666
G1 X123.058 Y117.938 E.01792
G1 X122.886 Y118.102 E.01084
G1 X122.541 Y118.09 E.01574
G1 X122.541 Y118.331 E.01099
G1 X122.024 Y118.331 E.02357
G1 X122.024 Y118.071 E.01185
G1 X121.507 Y118.049 E.02359
G1 X121.507 Y118.331 E.01286
G1 X120.99 Y118.331 E.02357
G1 X120.99 Y118.027 E.01386
G1 X120.472 Y118.006 E.02364
G1 X120.472 Y118.331 E.01482
G1 X119.955 Y118.331 E.02357
G1 X119.955 Y117.984 E.01582
G1 X119.438 Y117.962 E.02359
G1 X119.438 Y118.331 E.01682
G1 X118.921 Y118.331 E.02357
G1 X118.921 Y117.94 E.01783
G1 X118.404 Y117.919 E.02359
G1 X118.404 Y118.331 E.01878
G1 X117.887 Y118.331 E.02357
G1 X117.887 Y117.897 E.01979
G1 X117.37 Y117.875 E.02359
G1 X117.37 Y118.331 E.02079
G1 X116.853 Y118.331 E.02357
G1 X116.853 Y117.853 E.02179
G1 X116.336 Y117.832 E.02359
G1 X116.336 Y118.331 E.02275
G1 X115.819 Y118.331 E.02357
G1 X115.819 Y117.81 E.02375
G1 X115.302 Y117.788 E.02359
G1 X115.302 Y118.331 E.02476
G1 X114.785 Y118.331 E.02357
G1 X114.785 Y117.766 E.02576
G1 X114.267 Y117.741 E.02364
G1 X114.267 Y118.331 E.0269
G1 X113.75 Y118.331 E.02357
G1 X113.75 Y117.716 E.02804
G1 X113.233 Y117.69 E.0236
G1 X113.233 Y118.331 E.02923
G1 X112.716 Y118.331 E.02357
G1 X112.716 Y117.665 E.03036
G1 X112.199 Y117.639 E.0236
G1 X112.199 Y118.331 E.03155
G1 X111.682 Y118.331 E.02357
G1 X111.682 Y117.614 E.03269
G1 X111.165 Y117.589 E.0236
G1 X111.165 Y118.331 E.03383
G1 X110.648 Y118.331 E.02357
G1 X110.648 Y117.563 E.03502
G1 X110.131 Y117.538 E.0236
G1 X110.131 Y118.331 E.03616
G1 X109.614 Y118.331 E.02357
G1 X109.614 Y117.512 E.03734
G1 X109.097 Y117.487 E.0236
G1 X109.097 Y118.331 E.03848
G1 X108.58 Y118.331 E.02357
G1 X108.58 Y117.461 E.03967
G1 X108.063 Y117.431 E.02361
G1 X108.063 Y118.331 E.04103
G1 X107.545 Y118.331 E.02362
G1 X107.545 Y117.401 E.0424
G1 X107.399 Y117.247 E.00968
G1 X107.399 Y118.319 E.04888
G1 E-3.5 F3600
;WIPE_START
G1 F7200
G1 X107.399 Y117.247 E-.5092
G1 X107.545 Y117.401 E-.1008
G1 X107.545 Y118.331 E-.44175
G1 X108.063 Y118.331 E-.24605
G1 X108.063 Y117.905 E-.2022
;WIPE_END
G1 X119.943 Y115.651 F9000
G1 E5 F2400
;TYPE:Perimeter
;WIDTH:0.51214
G1 F1200
G1 X119.966 Y115.643 E.00173
;WIDTH:0.465296
G1 X120.044 Y115.615 E.00523
;WIDTH:0.418451
G1 X120.123 Y115.587 E.00464
;WIDTH:0.410378
G1 X120.762 Y115.577 E.03449
;WIDTH:0.452201
G1 X121.744 Y115.551 E.05985
G1 X121.742 Y115.745 E.01182
G1 X121.741 Y115.938 E.01176
G1 X120.757 Y115.9 E.06
;WIDTH:0.410378
G1 X120.119 Y115.872 E.03447
;WIDTH:0.418451
G1 X120.041 Y115.843 E.0046
;WIDTH:0.465296
G1 X119.963 Y115.814 E.00525
;WIDTH:0.51214
G1 X119.886 Y115.784 E.00586
;WIDTH:0.558984
G1 X119.808 Y115.755 E.00655
;WIDTH:0.605829
G1 X119.73 Y115.726 E.0072
G1 X119.809 Y115.698 E.00725
;WIDTH:0.558984
