; generated by PrusaSlicer 2.9.3 on 2025-10-03 at 02:02:22 UTC

; 

; external perimeters extrusion width = 0.42mm
; perimeters extrusion width = 0.44mm
; infill extrusion width = 0.44mm
; solid infill extrusion width = 0.44mm
; top infill extrusion width = 0.40mm
; support material extrusion width = 0.36mm
; first layer extrusion width = 0.42mm

M201 X500 Y500 Z100 E5000 ; sets maximum accelerations, mm/sec^2
M203 X500 Y500 Z10 E60 ; sets maximum feedrates, mm / sec
M204 S500 T1000 ; sets acceleration (S) and retract acceleration (R), mm/sec^2
M205 X8.00 Y8.00 Z0.40 E5.00 ; sets the jerk limits, mm/sec
M205 S0 T0 ; sets the minimum extruding and travel feed rate, mm/sec

; printing object Car_Phone_Mount-Holder id:0 copy 0
; stop printing object Car_Phone_Mount-Holder id:0 copy 0

;TYPE:Custom
G90 ; use absolute coordinates
M83 ; extruder relative mode
M104 S150 ; set temporary nozzle temp to prevent oozing during homing
M140 S80 ; set final bed temp
G4 S30 ; allow partial nozzle warmup
G28 ; home all axis
G1 Z50 F240
G1 X2.0 Y10 F3000
M104 S240 ; set final nozzle temp
M190 S80 ; wait for bed temp to stabilize
M109 S240 ; wait for nozzle temp to stabilize
G1 Z0.28 F240
G92 E0
G1 X2.0 Y140 E10 F1500 ; prime the nozzle
G1 X2.3 Y140 F5000
G92 E0
G1 X2.3 Y10 E10 F1200 ; prime the nozzle
G92 E0
G21 ; set units to millimeters
G90 ; use absolute coordinates
M83 ; use relative distances for extrusion
; Filament gcode
M107
;LAYER_CHANGE
;Z:0.2
;HEIGHT:0.2
G1 E-5 F3600
G1 Z.2 F9000
; printing object Car_Phone_Mount-Holder id:0 copy 0
G1 X67.687 Y151.84
G1 E5 F2400
M204 S500
;TYPE:Support material
;WIDTH:0.42
G1 F1200
G1 X67.958 Y152.111 E.01202
G1 X80.841 Y152.111 E.40394
G1 X81.111 Y151.84 E.01199
G1 X81.111 Y147.481 E.13667
G1 X140.187 Y147.481 E1.85229
G1 X140.187 Y151.84 E.13667
G1 X140.458 Y152.111 E.01202
G1 X153.341 Y152.111 E.40394
G1 X153.611 Y151.84 E.01199
G1 X153.611 Y132.993 E.59093
G1 X157.061 Y132.993 E.10817
G1 X157.061 Y150.744 E.55657
G1 X154.427 Y150.744 E.08259
G1 X154.427 Y154.695 E.12388
G1 X66.871 Y154.695 E2.74526
G1 X66.871 Y150.744 E.12388
G1 X64.237 Y150.744 E.08259
G1 X64.237 Y132.993 E.55657
G1 X67.687 Y132.993 E.10817
G1 X67.687 Y151.784 E.58918
G1 E-3.5 F3600
;WIPE_START
G1 F7200
G1 X67.687 Y148.626 E-1.5
;WIPE_END
G1 X156.318 Y150.574 F9000
G1 E5 F2400
G1 F1200
G1 X156.318 Y133.333 E.54058
G1 X155.899 Y133.333 E.01314
G1 X155.899 Y150.404 E.53525
G1 X155.48 Y150.404 E.01314
G1 X155.48 Y133.333 E.53525
G1 X155.061 Y133.333 E.01314
G1 X155.061 Y150.404 E.53525
G1 X154.642 Y150.404 E.01314
G1 X154.642 Y133.333 E.53525
G1 X154.223 Y133.333 E.01314
G1 X154.223 Y150.404 E.53525
G1 X154.088 Y150.404 E.00423
G1 X154.088 Y154.356 E.12391
G1 X153.804 Y154.356 E.0089
G1 X153.804 Y152.127 E.06989
G1 X153.481 Y152.45 E.01432
G1 X153.385 Y152.45 E.00301
G1 X153.385 Y154.356 E.05976
G1 X152.966 Y154.356 E.01314
G1 X152.966 Y152.45 E.05976
G1 X152.547 Y152.45 E.01314
G1 X152.547 Y154.356 E.05976
G1 X152.128 Y154.356 E.01314
G1 X152.128 Y152.45 E.05976
G1 X151.709 Y152.45 E.01314
G1 X151.709 Y154.356 E.05976
G1 X151.29 Y154.356 E.01314
G1 X151.29 Y152.45 E.05976
G1 X150.871 Y152.45 E.01314
G1 X150.871 Y154.356 E.05976
G1 X150.452 Y154.356 E.01314
G1 X150.452 Y152.45 E.05976
G1 X150.033 Y152.45 E.01314
G1 X150.033 Y154.356 E.05976
G1 X149.614 Y154.356 E.01314
G1 X149.614 Y152.45 E.05976
G1 X149.195 Y152.45 E.01314
G1 X149.195 Y154.356 E.05976
G1 X148.776 Y154.356 E.01314
G1 X148.776 Y152.45 E.05976
G1 X148.357 Y152.45 E.01314
G1 X148.357 Y154.356 E.05976
G1 X147.938 Y154.356 E.01314
G1 X147.938 Y152.45 E.05976
G1 X147.519 Y152.45 E.01314
G1 X147.519 Y154.356 E.05976
G1 X147.1 Y154.356 E.01314
G1 X147.1 Y152.45 E.05976
G1 X146.681 Y152.45 E.01314
G1 X146.681 Y154.356 E.05976
G1 X146.262 Y154.356 E.01314
G1 X146.262 Y152.45 E.05976
G1 X145.843 Y152.45 E.01314
G1 X145.843 Y154.356 E.05976
G1 X145.424 Y154.356 E.01314
G1 X145.424 Y152.45 E.05976
G1 X145.005 Y152.45 E.01314
G1 X145.005 Y154.356 E.05976
G1 X144.586 Y154.356 E.01314
G1 X144.586 Y152.45 E.05976
G1 X144.167 Y152.45 E.01314
G1 X144.167 Y154.356 E.05976
G1 X143.748 Y154.356 E.01314
G1 X143.748 Y152.45 E.05976
G1 X143.329 Y152.45 E.01314
G1 X143.329 Y154.356 E.05976
G1 X142.91 Y154.356 E.01314
G1 X142.91 Y152.45 E.05976
G1 X142.491 Y152.45 E.01314
G1 X142.491 Y154.356 E.05976
G1 X142.073 Y154.356 E.01311
G1 X142.073 Y152.45 E.05976
G1 X141.654 Y152.45 E.01314
G1 X141.654 Y154.356 E.05976
G1 X141.235 Y154.356 E.01314
G1 X141.235 Y152.45 E.05976
G1 X140.816 Y152.45 E.01314
G1 X140.816 Y154.356 E.05976
G1 X140.397 Y154.356 E.01314
G1 X140.397 Y152.45 E.05976
G1 X139.978 Y152.11 E.01692
G1 X139.978 Y154.356 E.07042
G1 X139.559 Y154.356 E.01314
G1 X139.559 Y147.82 E.20493
G1 X139.14 Y147.82 E.01314
G1 X139.14 Y154.356 E.20493
G1 X138.721 Y154.356 E.01314
G1 X138.721 Y147.82 E.20493
G1 X138.302 Y147.82 E.01314
G1 X138.302 Y154.356 E.20493
G1 X137.883 Y154.356 E.01314
G1 X137.883 Y147.82 E.20493
G1 X137.464 Y147.82 E.01314
G1 X137.464 Y154.356 E.20493
G1 X137.045 Y154.356 E.01314
G1 X137.045 Y147.82 E.20493
G1 X136.626 Y147.82 E.01314
G1 X136.626 Y154.356 E.20493
G1 X136.207 Y154.356 E.01314
G1 X136.207 Y147.82 E.20493
G1 X135.788 Y147.82 E.01314
G1 X135.788 Y154.356 E.20493
G1 X135.369 Y154.356 E.01314
G1 X135.369 Y147.82 E.20493
G1 X134.95 Y147.82 E.01314
G1 X134.95 Y154.356 E.20493
G1 X134.531 Y154.356 E.01314
G1 X134.531 Y147.82 E.20493
G1 X134.112 Y147.82 E.01314
G1 X134.112 Y154.356 E.20493
G1 X133.693 Y154.356 E.01314
G1 X133.693 Y147.82 E.20493
G1 X133.274 Y147.82 E.01314
G1 X133.274 Y154.356 E.20493
G1 X132.855 Y154.356 E.01314
G1 X132.855 Y147.82 E.20493
G1 X132.436 Y147.82 E.01314
G1 X132.436 Y154.356 E.20493
G1 X132.017 Y154.356 E.01314
G1 X132.017 Y147.82 E.20493
G1 X131.598 Y147.82 E.01314
G1 X131.598 Y154.356 E.20493
G1 X131.179 Y154.356 E.01314
G1 X131.179 Y147.82 E.20493
G1 X130.76 Y147.82 E.01314
G1 X130.76 Y154.356 E.20493
G1 X130.341 Y154.356 E.01314
G1 X130.341 Y147.82 E.20493
G1 X129.922 Y147.82 E.01314
G1 X129.922 Y154.356 E.20493
G1 X129.503 Y154.356 E.01314
G1 X129.503 Y147.82 E.20493
G1 X129.084 Y147.82 E.01314
G1 X129.084 Y154.356 E.20493
G1 X128.665 Y154.356 E.01314
G1 X128.665 Y147.82 E.20493
G1 X128.246 Y147.82 E.01314
G1 X128.246 Y154.356 E.20493
G1 X127.827 Y154.356 E.01314
G1 X127.827 Y147.82 E.20493
G1 X127.408 Y147.82 E.01314
G1 X127.408 Y154.356 E.20493
G1 X126.989 Y154.356 E.01314
G1 X126.989 Y147.82 E.20493
G1 X126.57 Y147.82 E.01314
G1 X126.57 Y154.356 E.20493
G1 X126.151 Y154.356 E.01314
G1 X126.151 Y147.82 E.20493
G1 X125.732 Y147.82 E.01314
G1 X125.732 Y154.356 E.20493
G1 X125.313 Y154.356 E.01314
G1 X125.313 Y147.82 E.20493
G1 X124.894 Y147.82 E.01314
G1 X124.894 Y154.356 E.20493
G1 X124.475 Y154.356 E.01314
G1 X124.475 Y147.82 E.20493
G1 X124.057 Y147.82 E.01311
G1 X124.057 Y154.356 E.20493
G1 X123.638 Y154.356 E.01314
G1 X123.638 Y147.82 E.20493
G1 X123.219 Y147.82 E.01314
G1 X123.219 Y154.356 E.20493
G1 X122.8 Y154.356 E.01314
G1 X122.8 Y147.82 E.20493
G1 X122.381 Y147.82 E.01314
G1 X122.381 Y154.356 E.20493
G1 X121.962 Y154.356 E.01314
G1 X121.962 Y147.82 E.20493
G1 X121.543 Y147.82 E.01314
G1 X121.543 Y154.356 E.20493
G1 X121.124 Y154.356 E.01314
G1 X121.124 Y147.82 E.20493
G1 X120.705 Y147.82 E.01314
G1 X120.705 Y154.356 E.20493
G1 X120.286 Y154.356 E.01314
G1 X120.286 Y147.82 E.20493
G1 X119.867 Y147.82 E.01314
G1 X119.867 Y154.356 E.20493
G1 X119.448 Y154.356 E.01314
G1 X119.448 Y147.82 E.20493
G1 X119.029 Y147.82 E.01314
G1 X119.029 Y154.356 E.20493
G1 X118.61 Y154.356 E.01314
G1 X118.61 Y147.82 E.20493
G1 X118.191 Y147.82 E.01314
G1 X118.191 Y154.356 E.20493
G1 X117.772 Y154.356 E.01314
G1 X117.772 Y147.82 E.20493
G1 X117.353 Y147.82 E.01314
G1 X117.353 Y154.356 E.20493
G1 X116.934 Y154.356 E.01314
G1 X116.934 Y147.82 E.20493
G1 X116.515 Y147.82 E.01314
G1 X116.515 Y154.356 E.20493
G1 X116.096 Y154.356 E.01314
G1 X116.096 Y147.82 E.20493
G1 X115.677 Y147.82 E.01314
G1 X115.677 Y154.356 E.20493
G1 X115.258 Y154.356 E.01314
G1 X115.258 Y147.82 E.20493
G1 X114.839 Y147.82 E.01314
G1 X114.839 Y154.356 E.20493
G1 X114.42 Y154.356 E.01314
G1 X114.42 Y147.82 E.20493
G1 X114.001 Y147.82 E.01314
G1 X114.001 Y154.356 E.20493
G1 X113.582 Y154.356 E.01314
G1 X113.582 Y147.82 E.20493
G1 X113.163 Y147.82 E.01314
G1 X113.163 Y154.356 E.20493
G1 X112.744 Y154.356 E.01314
G1 X112.744 Y147.82 E.20493
G1 X112.325 Y147.82 E.01314
G1 X112.325 Y154.356 E.20493
G1 X111.906 Y154.356 E.01314
G1 X111.906 Y147.82 E.20493
G1 X111.487 Y147.82 E.01314
G1 X111.487 Y154.356 E.20493
G1 X111.068 Y154.356 E.01314
G1 X111.068 Y147.82 E.20493
G1 X110.649 Y147.82 E.01314
G1 X110.649 Y154.356 E.20493
G1 X110.23 Y154.356 E.01314
G1 X110.23 Y147.82 E.20493
G1 X109.811 Y147.82 E.01314
G1 X109.811 Y154.356 E.20493
G1 X109.392 Y154.356 E.01314
G1 X109.392 Y147.82 E.20493
G1 X108.973 Y147.82 E.01314
G1 X108.973 Y154.356 E.20493
G1 X108.554 Y154.356 E.01314
G1 X108.554 Y147.82 E.20493
G1 X108.135 Y147.82 E.01314
G1 X108.135 Y154.356 E.20493
G1 X107.716 Y154.356 E.01314
G1 X107.716 Y147.82 E.20493
G1 X107.297 Y147.82 E.01314
G1 X107.297 Y154.356 E.20493
G1 X106.878 Y154.356 E.01314
G1 X106.878 Y147.82 E.20493
G1 X106.459 Y147.82 E.01314
G1 X106.459 Y154.356 E.20493
G1 X106.04 Y154.356 E.01314
G1 X106.04 Y147.82 E.20493
G1 X105.622 Y147.82 E.01311
G1 X105.622 Y154.356 E.20493
G1 X105.203 Y154.356 E.01314
G1 X105.203 Y147.82 E.20493
G1 X104.784 Y147.82 E.01314
G1 X104.784 Y154.356 E.20493
G1 X104.365 Y154.356 E.01314
G1 X104.365 Y147.82 E.20493
G1 X103.946 Y147.82 E.01314
G1 X103.946 Y154.356 E.20493
G1 X103.527 Y154.356 E.01314
G1 X103.527 Y147.82 E.20493
G1 X103.108 Y147.82 E.01314
G1 X103.108 Y154.356 E.20493
G1 X102.689 Y154.356 E.01314
G1 X102.689 Y147.82 E.20493
G1 X102.27 Y147.82 E.01314
G1 X102.27 Y154.356 E.20493
G1 X101.851 Y154.356 E.01314
G1 X101.851 Y147.82 E.20493
G1 X101.432 Y147.82 E.01314
G1 X101.432 Y154.356 E.20493
G1 X101.013 Y154.356 E.01314
G1 X101.013 Y147.82 E.20493
G1 X100.594 Y147.82 E.01314
G1 X100.594 Y154.356 E.20493
G1 X100.175 Y154.356 E.01314
G1 X100.175 Y147.82 E.20493
G1 X99.756 Y147.82 E.01314
G1 X99.756 Y154.356 E.20493
G1 X99.337 Y154.356 E.01314
G1 X99.337 Y147.82 E.20493
G1 X98.918 Y147.82 E.01314
G1 X98.918 Y154.356 E.20493
G1 X98.499 Y154.356 E.01314
G1 X98.499 Y147.82 E.20493
G1 X98.08 Y147.82 E.01314
G1 X98.08 Y154.356 E.20493
G1 X97.661 Y154.356 E.01314
G1 X97.661 Y147.82 E.20493
G1 X97.242 Y147.82 E.01314
G1 X97.242 Y154.356 E.20493
G1 X96.823 Y154.356 E.01314
G1 X96.823 Y147.82 E.20493
G1 X96.404 Y147.82 E.01314
G1 X96.404 Y154.356 E.20493
G1 X95.985 Y154.356 E.01314
G1 X95.985 Y147.82 E.20493
G1 X95.566 Y147.82 E.01314
G1 X95.566 Y154.356 E.20493
G1 X95.147 Y154.356 E.01314
G1 X95.147 Y147.82 E.20493
G1 X94.728 Y147.82 E.01314
G1 X94.728 Y154.356 E.20493
G1 X94.309 Y154.356 E.01314
G1 X94.309 Y147.82 E.20493
G1 X93.89 Y147.82 E.01314
G1 X93.89 Y154.356 E.20493
G1 X93.471 Y154.356 E.01314
G1 X93.471 Y147.82 E.20493
G1 X93.052 Y147.82 E.01314
G1 X93.052 Y154.356 E.20493
G1 X92.633 Y154.356 E.01314
G1 X92.633 Y147.82 E.20493
G1 X92.214 Y147.82 E.01314
G1 X92.214 Y154.356 E.20493
G1 X91.795 Y154.356 E.01314
G1 X91.795 Y147.82 E.20493
G1 X91.376 Y147.82 E.01314
G1 X91.376 Y154.356 E.20493
G1 X90.957 Y154.356 E.01314
G1 X90.957 Y147.82 E.20493
G1 X90.538 Y147.82 E.01314
G1 X90.538 Y154.356 E.20493
G1 X90.119 Y154.356 E.01314
G1 X90.119 Y147.82 E.20493
G1 X89.7 Y147.82 E.01314
G1 X89.7 Y154.356 E.20493
G1 X89.281 Y154.356 E.01314
G1 X89.281 Y147.82 E.20493
G1 X88.862 Y147.82 E.01314
G1 X88.862 Y154.356 E.20493
G1 X88.443 Y154.356 E.01314
G1 X88.443 Y147.82 E.20493
G1 X88.024 Y147.82 E.01314
G1 X88.024 Y154.356 E.20493
G1 X87.606 Y154.356 E.01311
G1 X87.606 Y147.82 E.20493
G1 X87.187 Y147.82 E.01314
G1 X87.187 Y154.356 E.20493
G1 X86.768 Y154.356 E.01314
G1 X86.768 Y147.82 E.20493
G1 X86.349 Y147.82 E.01314
G1 X86.349 Y154.356 E.20493
G1 X85.93 Y154.356 E.01314
G1 X85.93 Y147.82 E.20493
G1 X85.511 Y147.82 E.01314
G1 X85.511 Y154.356 E.20493
G1 X85.092 Y154.356 E.01314
G1 X85.092 Y147.82 E.20493
G1 X84.673 Y147.82 E.01314
G1 X84.673 Y154.356 E.20493
G1 X84.254 Y154.356 E.01314
G1 X84.254 Y147.82 E.20493
G1 X83.835 Y147.82 E.01314
G1 X83.835 Y154.356 E.20493
G1 X83.416 Y154.356 E.01314
G1 X83.416 Y147.82 E.20493
G1 X82.997 Y147.82 E.01314
G1 X82.997 Y154.356 E.20493
G1 X82.578 Y154.356 E.01314
G1 X82.578 Y147.82 E.20493
G1 X82.159 Y147.82 E.01314
G1 X82.159 Y154.356 E.20493
G1 X81.74 Y154.356 E.01314
G1 X81.74 Y147.82 E.20493
G1 X81.451 Y147.82 E.00906
G1 X81.451 Y151.981 E.13047
G1 X81.321 Y152.111 E.00576
G1 X81.321 Y154.356 E.07039
G1 X80.902 Y154.356 E.01314
G1 X80.902 Y152.45 E.05976
G1 X80.483 Y152.45 E.01314
G1 X80.483 Y154.356 E.05976
G1 X80.064 Y154.356 E.01314
G1 X80.064 Y152.45 E.05976
G1 X79.645 Y152.45 E.01314
G1 X79.645 Y154.356 E.05976
G1 X79.226 Y154.356 E.01314
G1 X79.226 Y152.45 E.05976
G1 X78.807 Y152.45 E.01314
G1 X78.807 Y154.356 E.05976
G1 X78.388 Y154.356 E.01314
G1 X78.388 Y152.45 E.05976
G1 X77.969 Y152.45 E.01314
G1 X77.969 Y154.356 E.05976
G1 X77.55 Y154.356 E.01314
G1 X77.55 Y152.45 E.05976
G1 X77.131 Y152.45 E.01314
G1 X77.131 Y154.356 E.05976
G1 X76.712 Y154.356 E.01314
G1 X76.712 Y152.45 E.05976
G1 X76.293 Y152.45 E.01314
G1 X76.293 Y154.356 E.05976
G1 X75.874 Y154.356 E.01314
G1 X75.874 Y152.45 E.05976
G1 X75.455 Y152.45 E.01314
G1 X75.455 Y154.356 E.05976
G1 X75.036 Y154.356 E.01314
G1 X75.036 Y152.45 E.05976
G1 X74.617 Y152.45 E.01314
G1 X74.617 Y154.356 E.05976
G1 X74.198 Y154.356 E.01314
G1 X74.198 Y152.45 E.05976
G1 X73.779 Y152.45 E.01314
G1 X73.779 Y154.356 E.05976
G1 X73.36 Y154.356 E.01314
G1 X73.36 Y152.45 E.05976
G1 X72.941 Y152.45 E.01314
G1 X72.941 Y154.356 E.05976
G1 X72.522 Y154.356 E.01314
G1 X72.522 Y152.45 E.05976
G1 X72.103 Y152.45 E.01314
G1 X72.103 Y154.356 E.05976
G1 X71.684 Y154.356 E.01314
G1 X71.684 Y152.45 E.05976
G1 X71.265 Y152.45 E.01314
G1 X71.265 Y154.356 E.05976
G1 X70.846 Y154.356 E.01314
G1 X70.846 Y152.45 E.05976
G1 X70.427 Y152.45 E.01314
G1 X70.427 Y154.356 E.05976
G1 X70.008 Y154.356 E.01314
G1 X70.008 Y152.45 E.05976
G1 X69.589 Y152.45 E.01314
G1 X69.589 Y154.356 E.05976
G1 X69.171 Y154.356 E.01311
G1 X69.171 Y152.45 E.05976
G1 X68.752 Y152.45 E.01314
G1 X68.752 Y154.356 E.05976
G1 X68.333 Y154.356 E.01314
G1 X68.333 Y152.45 E.05976
G1 X67.914 Y152.45 E.01314
G1 X67.914 Y154.356 E.05976
G1 X67.495 Y154.356 E.01314
G1 X67.495 Y152.127 E.06989
G1 X67.348 Y151.981 E.0065
G1 X67.348 Y133.333 E.58469
G1 X67.076 Y133.333 E.00853
G1 X67.076 Y150.404 E.53525
G1 X66.657 Y150.404 E.01314
G1 X66.657 Y133.333 E.53525
G1 X66.238 Y133.333 E.01314
G1 X66.238 Y150.404 E.53525
G1 X65.819 Y150.404 E.01314
G1 X65.819 Y133.333 E.53525
G1 X65.4 Y133.333 E.01314
G1 X65.4 Y150.404 E.53525
G1 X64.981 Y150.404 E.01314
G1 X64.981 Y133.163 E.54058
G1 E-3.5 F3600
;WIPE_START
G1 F7200
G1 X64.981 Y136.321 E-1.5
;WIPE_END
G1 X69.213 Y60.713 F9000
G1 E5 F2400
;TYPE:Perimeter
;WIDTH:0.419999
G1 F1200
G1 X152.085 Y60.713 E2.59839
G1 X152.085 Y66.319 E.17577
G1 X152.085 Y150.585 E2.6421
G1 X141.713 Y150.585 E.32521
G1 X141.713 Y69.527 E2.54151
G1 X141.705 Y69.404 E.00386
G1 X141.592 Y69.065 E.0112
G1 X141.338 Y68.774 E.01211
G1 X141.077 Y68.636 E.00926
G1 X140.771 Y68.585 E.00973
G1 X80.528 Y68.585 E1.88887
G1 X80.371 Y68.598 E.00494
G1 X80.083 Y68.696 E.00954
G1 X79.857 Y68.865 E.00885
G1 X79.655 Y69.171 E.0115
G1 X79.585 Y69.527 E.01138
G1 X79.585 Y150.585 E2.54151
G1 X69.213 Y150.585 E.32521
G1 X69.213 Y60.773 E2.81599
G1 X68.836 Y60.336 F9000
G1 F1200
G1 X152.462 Y60.336 E2.62203
G1 X152.462 Y66.319 E.18759
G1 X152.462 Y150.962 E2.65392
G1 X141.336 Y150.962 E.34885
G1 X141.336 Y69.527 E2.55333
G1 X141.331 Y69.454 E.00229
G1 X141.224 Y69.189 E.00896
G1 X141.038 Y69.029 E.00769
G1 X140.771 Y68.962 E.00863
G1 X80.528 Y68.962 E1.88887
G1 X80.434 Y68.97 E.00296
G1 X80.188 Y69.075 E.00839
G1 X80.035 Y69.25 E.00729
G1 X79.962 Y69.527 E.00898
G1 X79.962 Y150.962 E2.55333
G1 X68.836 Y150.962 E.34885
G1 X68.836 Y60.396 E2.83963
G1 X68.459 Y59.959 F9000
