; generated by PrusaSlicer 2.9.3 on 2025-10-02 at 09:47:42 UTC

; 

; external perimeters extrusion width = 0.42mm
; perimeters extrusion width = 0.44mm
; infill extrusion width = 0.44mm
; solid infill extrusion width = 0.44mm
; top infill extrusion width = 0.40mm
; support material extrusion width = 0.36mm
; first layer extrusion width = 0.42mm

M201 X500 Y500 Z100 E5000 ; sets maximum accelerations, mm/sec^2
M203 X500 Y500 Z10 E60 ; sets maximum feedrates, mm / sec
M204 S500 T1000 ; sets acceleration (S) and retract acceleration (R), mm/sec^2
M205 X8.00 Y8.00 Z0.40 E5.00 ; sets the jerk limits, mm/sec
M205 S0 T0 ; sets the minimum extruding and travel feed rate, mm/sec

; printing object Car_Phone_Mount-cd_insert id:0 copy 0
; stop printing object Car_Phone_Mount-cd_insert id:0 copy 0

;TYPE:Custom
G90 ; use absolute coordinates
M83 ; extruder relative mode
M104 S150 ; set temporary nozzle temp to prevent oozing during homing
M140 S80 ; set final bed temp
G4 S30 ; allow partial nozzle warmup
G28 ; home all axis
G1 Z50 F240
G1 X2.0 Y10 F3000
M104 S240 ; set final nozzle temp
M190 S80 ; wait for bed temp to stabilize
M109 S240 ; wait for nozzle temp to stabilize
G1 Z0.28 F240
G92 E0
G1 X2.0 Y140 E10 F1500 ; prime the nozzle
G1 X2.3 Y140 F5000
G92 E0
G1 X2.3 Y10 E10 F1200 ; prime the nozzle
G92 E0
G21 ; set units to millimeters
G90 ; use absolute coordinates
M83 ; use relative distances for extrusion
; Filament gcode
M107
;LAYER_CHANGE
;Z:0.2
;HEIGHT:0.2
G1 E-5 F3600
G1 Z.2 F9000
; printing object Car_Phone_Mount-cd_insert id:0 copy 0
G1 X70.873 Y65.451
G1 E5 F2400
M204 S500
;TYPE:Support material interface
;WIDTH:0.36
G1 F1200
G1 X70.719 Y65.451 E.00406
G1 X70.719 Y66.768 E.03472
G1 X71.031 Y66.768 E.00823
G1 X71.031 Y65.451 E.03472
G1 X71.548 Y65.451 E.01363
G1 X71.548 Y66.321 E.02294
G1 X72.065 Y66.321 E.01363
G1 X72.065 Y65.451 E.02294
G1 X72.582 Y65.451 E.01363
G1 X72.582 Y66.321 E.02294
G1 X73.1 Y66.321 E.01366
G1 X73.1 Y65.451 E.02294
G1 X73.617 Y65.451 E.01363
G1 X73.617 Y66.321 E.02294
G1 X74.134 Y66.321 E.01363
G1 X74.134 Y65.451 E.02294
G1 X74.651 Y65.451 E.01363
G1 X74.651 Y66.321 E.02294
G1 X75.168 Y66.321 E.01363
G1 X75.168 Y65.451 E.02294
G1 X75.685 Y65.451 E.01363
G1 X75.685 Y66.321 E.02294
G1 X76.202 Y66.321 E.01363
G1 X76.202 Y65.451 E.02294
G1 X76.719 Y65.451 E.01363
G1 X76.719 Y66.321 E.02294
G1 X77.236 Y66.321 E.01363
G1 X77.236 Y65.451 E.02294
G1 X77.753 Y65.451 E.01363
G1 X77.753 Y66.321 E.02294
G1 X78.27 Y66.321 E.01363
G1 X78.27 Y65.451 E.02294
G1 X78.787 Y65.451 E.01363
G1 X78.787 Y66.321 E.02294
G1 X79.304 Y66.321 E.01363
G1 X79.304 Y65.451 E.02294
G1 X79.822 Y65.451 E.01366
G1 X79.822 Y66.321 E.02294
G1 X80.339 Y66.321 E.01363
G1 X80.339 Y65.451 E.02294
G1 X80.856 Y65.451 E.01363
G1 X80.856 Y66.321 E.02294
G1 X81.373 Y66.321 E.01363
G1 X81.373 Y65.451 E.02294
G1 X81.89 Y65.451 E.01363
G1 X81.89 Y66.321 E.02294
G1 X82.407 Y66.321 E.01363
G1 X82.407 Y65.451 E.02294
G1 X82.924 Y65.451 E.01363
G1 X82.924 Y66.321 E.02294
G1 X83.441 Y66.321 E.01363
G1 X83.441 Y65.451 E.02294
G1 X83.958 Y65.451 E.01363
G1 X83.958 Y66.321 E.02294
G1 X84.475 Y66.321 E.01363
G1 X84.475 Y65.451 E.02294
G1 X84.992 Y65.451 E.01363
G1 X84.992 Y66.321 E.02294
G1 X85.509 Y66.321 E.01363
G1 X85.509 Y65.451 E.02294
G1 X86.027 Y65.451 E.01366
G1 X86.027 Y66.321 E.02294
G1 X86.544 Y66.321 E.01363
G1 X86.544 Y65.451 E.02294
G1 X87.061 Y65.451 E.01363
G1 X87.061 Y66.321 E.02294
G1 X87.578 Y66.321 E.01363
G1 X87.578 Y65.451 E.02294
G1 X88.095 Y65.451 E.01363
G1 X88.095 Y66.321 E.02294
G1 X88.612 Y66.321 E.01363
G1 X88.612 Y65.451 E.02294
G1 X89.129 Y65.451 E.01363
G1 X89.129 Y66.321 E.02294
G1 X89.646 Y66.321 E.01363
G1 X89.646 Y65.451 E.02294
G1 X90.163 Y65.451 E.01363
G1 X90.163 Y66.321 E.02294
G1 X90.68 Y66.321 E.01363
G1 X90.68 Y65.451 E.02294
G1 X91.197 Y65.451 E.01363
G1 X91.197 Y66.321 E.02294
G1 X91.714 Y66.321 E.01363
G1 X91.714 Y65.451 E.02294
G1 X92.231 Y65.451 E.01363
G1 X92.231 Y66.321 E.02294
G1 X92.749 Y66.321 E.01366
G1 X92.749 Y65.451 E.02294
G1 X93.266 Y65.451 E.01363
G1 X93.266 Y66.321 E.02294
G1 X93.783 Y66.321 E.01363
G1 X93.783 Y65.451 E.02294
G1 X94.3 Y65.451 E.01363
G1 X94.3 Y66.321 E.02294
G1 X94.817 Y66.321 E.01363
G1 X94.817 Y65.451 E.02294
G1 X95.334 Y65.451 E.01363
G1 X95.334 Y66.321 E.02294
G1 X95.851 Y66.321 E.01363
G1 X95.851 Y65.451 E.02294
G1 X96.368 Y65.451 E.01363
G1 X96.368 Y66.321 E.02294
G1 X96.885 Y66.321 E.01363
G1 X96.885 Y65.451 E.02294
G1 X97.402 Y65.451 E.01363
G1 X97.402 Y66.321 E.02294
G1 X97.919 Y66.321 E.01363
G1 X97.919 Y65.451 E.02294
G1 X98.436 Y65.451 E.01363
G1 X98.436 Y66.321 E.02294
G1 X98.953 Y66.321 E.01363
G1 X98.953 Y65.451 E.02294
G1 X99.471 Y65.451 E.01366
G1 X99.471 Y66.321 E.02294
G1 X99.988 Y66.321 E.01363
G1 X99.988 Y65.451 E.02294
G1 X100.505 Y65.451 E.01363
G1 X100.505 Y66.321 E.02294
G1 X101.022 Y66.321 E.01363
G1 X101.022 Y65.451 E.02294
G1 X101.539 Y65.451 E.01363
G1 X101.539 Y66.321 E.02294
G1 X102.056 Y66.321 E.01363
G1 X102.056 Y65.451 E.02294
G1 X102.573 Y65.451 E.01363
G1 X102.573 Y66.321 E.02294
G1 X103.09 Y66.321 E.01363
G1 X103.09 Y65.451 E.02294
G1 X103.607 Y65.451 E.01363
G1 X103.607 Y66.321 E.02294
G1 X104.124 Y66.321 E.01363
G1 X104.124 Y65.451 E.02294
G1 X104.641 Y65.451 E.01363
G1 X104.641 Y66.321 E.02294
G1 X105.158 Y66.321 E.01363
G1 X105.158 Y65.451 E.02294
G1 X105.676 Y65.451 E.01366
G1 X105.676 Y66.321 E.02294
G1 X106.193 Y66.321 E.01363
G1 X106.193 Y65.451 E.02294
G1 X106.71 Y65.451 E.01363
G1 X106.71 Y66.321 E.02294
G1 X107.227 Y66.321 E.01363
G1 X107.227 Y65.451 E.02294
G1 X107.744 Y65.451 E.01363
G1 X107.744 Y66.321 E.02294
G1 X108.261 Y66.321 E.01363
G1 X108.261 Y65.451 E.02294
G1 X108.778 Y65.451 E.01363
G1 X108.778 Y66.321 E.02294
G1 X109.295 Y66.321 E.01363
G1 X109.295 Y65.451 E.02294
G1 X109.812 Y65.451 E.01363
G1 X109.812 Y66.321 E.02294
G1 X110.329 Y66.321 E.01363
G1 X110.329 Y65.451 E.02294
G1 X110.846 Y65.451 E.01363
G1 X110.846 Y66.321 E.02294
G1 X111.363 Y66.321 E.01363
G1 X111.363 Y65.451 E.02294
G1 X111.88 Y65.451 E.01363
G1 X111.88 Y66.321 E.02294
G1 X112.398 Y66.321 E.01366
G1 X112.398 Y65.451 E.02294
G1 X112.915 Y65.451 E.01363
G1 X112.915 Y66.321 E.02294
G1 X113.432 Y66.321 E.01363
G1 X113.432 Y65.451 E.02294
G1 X113.949 Y65.451 E.01363
G1 X113.949 Y66.321 E.02294
G1 X114.466 Y66.321 E.01363
G1 X114.466 Y65.451 E.02294
G1 X114.983 Y65.451 E.01363
G1 X114.983 Y66.321 E.02294
G1 X115.5 Y66.321 E.01363
G1 X115.5 Y65.451 E.02294
G1 X116.017 Y65.451 E.01363
G1 X116.017 Y66.321 E.02294
G1 X116.534 Y66.321 E.01363
G1 X116.534 Y65.451 E.02294
G1 X117.051 Y65.451 E.01363
G1 X117.051 Y66.321 E.02294
G1 X117.568 Y66.321 E.01363
G1 X117.568 Y65.451 E.02294
G1 X118.085 Y65.451 E.01363
G1 X118.085 Y66.321 E.02294
G1 X118.602 Y66.321 E.01363
G1 X118.602 Y65.451 E.02294
G1 X119.12 Y65.451 E.01366
G1 X119.12 Y66.321 E.02294
G1 X119.637 Y66.321 E.01363
G1 X119.637 Y65.451 E.02294
G1 X120.154 Y65.451 E.01363
G1 X120.154 Y66.321 E.02294
G1 X120.671 Y66.321 E.01363
G1 X120.671 Y65.451 E.02294
G1 X121.188 Y65.451 E.01363
G1 X121.188 Y66.321 E.02294
G1 X121.705 Y66.321 E.01363
G1 X121.705 Y65.451 E.02294
G1 X122.222 Y65.451 E.01363
G1 X122.222 Y66.321 E.02294
G1 X122.739 Y66.321 E.01363
G1 X122.739 Y65.451 E.02294
G1 X123.256 Y65.451 E.01363
G1 X123.256 Y66.321 E.02294
G1 X123.773 Y66.321 E.01363
G1 X123.773 Y65.451 E.02294
G1 X124.29 Y65.451 E.01363
G1 X124.29 Y66.321 E.02294
G1 X124.807 Y66.321 E.01363
G1 X124.807 Y65.451 E.02294
G1 X125.325 Y65.451 E.01366
G1 X125.325 Y66.321 E.02294
G1 X125.842 Y66.321 E.01363
G1 X125.842 Y65.451 E.02294
G1 X126.359 Y65.451 E.01363
G1 X126.359 Y66.321 E.02294
G1 X126.876 Y66.321 E.01363
G1 X126.876 Y65.451 E.02294
G1 X127.393 Y65.451 E.01363
G1 X127.393 Y66.321 E.02294
G1 X127.91 Y66.321 E.01363
G1 X127.91 Y65.451 E.02294
G1 X128.427 Y65.451 E.01363
G1 X128.427 Y66.321 E.02294
G1 X128.944 Y66.321 E.01363
G1 X128.944 Y65.451 E.02294
G1 X129.461 Y65.451 E.01363
G1 X129.461 Y66.321 E.02294
G1 X129.978 Y66.321 E.01363
G1 X129.978 Y65.451 E.02294
G1 X130.495 Y65.451 E.01363
G1 X130.495 Y66.321 E.02294
G1 X131.012 Y66.321 E.01363
G1 X131.012 Y65.451 E.02294
G1 X131.529 Y65.451 E.01363
G1 X131.529 Y66.321 E.02294
G1 X132.047 Y66.321 E.01366
G1 X132.047 Y65.451 E.02294
G1 X132.564 Y65.451 E.01363
G1 X132.564 Y66.321 E.02294
G1 X133.081 Y66.321 E.01363
G1 X133.081 Y65.451 E.02294
G1 X133.598 Y65.451 E.01363
G1 X133.598 Y66.321 E.02294
G1 X134.115 Y66.321 E.01363
G1 X134.115 Y65.451 E.02294
G1 X134.632 Y65.451 E.01363
G1 X134.632 Y66.321 E.02294
G1 X135.149 Y66.321 E.01363
G1 X135.149 Y65.451 E.02294
G1 X135.666 Y65.451 E.01363
G1 X135.666 Y66.321 E.02294
G1 X136.183 Y66.321 E.01363
G1 X136.183 Y65.451 E.02294
G1 X136.7 Y65.451 E.01363
G1 X136.7 Y66.321 E.02294
G1 X137.217 Y66.321 E.01363
G1 X137.217 Y65.451 E.02294
G1 X137.734 Y65.451 E.01363
G1 X137.734 Y66.321 E.02294
G1 X138.251 Y66.321 E.01363
G1 X138.251 Y65.451 E.02294
G1 X138.769 Y65.451 E.01366
G1 X138.769 Y66.321 E.02294
G1 X139.286 Y66.321 E.01363
G1 X139.286 Y65.451 E.02294
G1 X139.803 Y65.451 E.01363
G1 X139.803 Y66.321 E.02294
G1 X140.32 Y66.321 E.01363
G1 X140.32 Y65.451 E.02294
G1 X140.837 Y65.451 E.01363
G1 X140.837 Y66.321 E.02294
G1 X141.354 Y66.321 E.01363
G1 X141.354 Y65.451 E.02294
G1 X141.871 Y65.451 E.01363
G1 X141.871 Y66.321 E.02294
G1 X142.388 Y66.321 E.01363
G1 X142.388 Y65.451 E.02294
G1 X142.905 Y65.451 E.01363
G1 X142.905 Y66.321 E.02294
G1 X143.422 Y66.321 E.01363
G1 X143.422 Y65.451 E.02294
G1 X143.939 Y65.451 E.01363
G1 X143.939 Y66.321 E.02294
G1 X144.456 Y66.321 E.01363
G1 X144.456 Y65.451 E.02294
G1 X144.974 Y65.451 E.01366
G1 X144.974 Y66.321 E.02294
G1 X145.491 Y66.321 E.01363
G1 X145.491 Y65.451 E.02294
G1 X146.008 Y65.451 E.01363
G1 X146.008 Y66.321 E.02294
G1 X146.525 Y66.321 E.01363
G1 X146.525 Y65.451 E.02294
G1 X147.042 Y65.451 E.01363
G1 X147.042 Y66.321 E.02294
G1 X147.559 Y66.321 E.01363
G1 X147.559 Y65.451 E.02294
G1 X148.076 Y65.451 E.01363
G1 X148.076 Y66.321 E.02294
G1 X148.593 Y66.321 E.01363
G1 X148.593 Y65.451 E.02294
G1 X149.11 Y65.451 E.01363
G1 X149.11 Y66.321 E.02294
G1 X149.627 Y66.321 E.01363
G1 X149.627 Y65.451 E.02294
G1 X150.144 Y65.451 E.01363
G1 X150.144 Y66.321 E.02294
G1 X150.661 Y66.321 E.01363
G1 X150.661 Y65.451 E.02294
G1 X151.178 Y65.451 E.01363
G1 X151.178 Y66.321 E.02294
G1 X151.696 Y66.321 E.01366
G1 X151.696 Y65.451 E.02294
G1 X152.213 Y65.451 E.01363
G1 X152.213 Y66.321 E.02294
G1 X152.73 Y66.321 E.01363
G1 X152.73 Y65.451 E.02294
G1 X153.247 Y65.451 E.01363
G1 X153.247 Y66.321 E.02294
G1 X153.764 Y66.321 E.01363
G1 X153.764 Y65.451 E.02294
G1 X154.281 Y65.451 E.01363
G1 X154.281 Y66.321 E.02294
G1 X154.798 Y66.321 E.01363
G1 X154.798 Y65.451 E.02294
G1 X155.315 Y65.451 E.01363
G1 X155.315 Y66.321 E.02294
G1 X155.832 Y66.321 E.01363
G1 X155.832 Y65.451 E.02294
G1 X156.349 Y65.451 E.01363
G1 X156.349 Y66.321 E.02294
G1 X156.866 Y66.321 E.01363
G1 X156.866 Y65.451 E.02294
G1 X157.383 Y65.451 E.01363
G1 X157.383 Y66.321 E.02294
G1 X157.9 Y66.321 E.01363
G1 X157.9 Y65.451 E.02294
G1 X158.418 Y65.451 E.01366
G1 X158.418 Y66.321 E.02294
G1 X158.935 Y66.321 E.01363
G1 X158.935 Y65.451 E.02294
G1 X159.452 Y65.451 E.01363
G1 X159.452 Y66.321 E.02294
G1 X159.67 Y66.321 E.00575
G1 X159.911 Y66.561 E.00897
G1 X159.911 Y66.768 E.00546
G1 X159.969 Y66.768 E.00153
G1 X159.969 Y65.451 E.03472
G1 X160.281 Y65.451 E.00823
G1 X160.281 Y66.768 E.03472
G1 X160.127 Y66.768 E.00406
G1 E-3.5 F3600
;WIPE_START
G1 F7200
G1 X160.281 Y66.768 E-.07315
G1 X160.281 Y65.451 E-.62557
G1 X159.969 Y65.451 E-.1482
G1 X159.969 Y66.768 E-.62557
G1 X159.911 Y66.768 E-.02751
;WIPE_END
G1 X72.564 Y68.426 F9000
G1 E5 F2400
;TYPE:Perimeter
;WIDTH:0.419999
G1 F1200
G1 X158.436 Y68.426 E2.69245
G1 X158.436 Y89.362 E.65643
G1 X158.436 Y165.686 E2.39308
G1 X116.564 Y165.686 E1.31286
G1 X116.564 Y70.629 E2.98044
G1 X116.526 Y70.365 E.00836
G1 X116.376 Y70.063 E.01057
G1 X116.065 Y69.797 E.01283
G1 X115.621 Y69.686 E.01435
G1 X72.564 Y69.686 E1.35002
G1 X72.564 Y68.486 E.03763
G1 X72.187 Y68.049 F9000
G1 F1200
G1 X158.813 Y68.049 E2.71609
G1 X158.813 Y89.362 E.66825
G1 X158.813 Y166.063 E2.4049
G1 X116.187 Y166.063 E1.33651
G1 X116.187 Y70.629 E2.99226
G1 X116.164 Y70.47 E.00504
G1 X116.074 Y70.289 E.00634
G1 X115.888 Y70.129 E.00769
G1 X115.621 Y70.063 E.00862
G1 X72.187 Y70.063 E1.36184
G1 X72.187 Y68.109 E.06127
G1 X71.81 Y67.672 F9000
;TYPE:External perimeter
G1 F1200
G1 X159.19 Y67.672 E2.73973
G1 X159.19 Y89.362 E.68007
G1 X159.19 Y166.44 E2.41672
G1 X115.81 Y166.44 E1.36015
G1 X115.81 Y70.629 E3.00408
G1 X115.772 Y70.515 E.00377
G1 X115.621 Y70.44 E.00529
G1 X71.81 Y70.44 E1.37366
G1 X71.81 Y67.732 E.08491
G1 E-3.5 F3600
;WIPE_START
G1 F7200
G1 X71.81 Y67.672 E-.0285
G1 X74.908 Y67.672 E-1.4715
;WIPE_END
G1 X158.315 Y69.31 F9000
G1 E5 F2400
;TYPE:Solid infill
;WIDTH:0.420199
G1 F1200
G1 X157.722 Y68.717 E.02631
G1 X157.189 Y68.717 E.01672
G1 X158.145 Y69.674 E.04244
G1 X158.145 Y70.207 E.01672
G1 X156.655 Y68.717 E.0661
G1 X156.122 Y68.717 E.01672
G1 X158.145 Y70.741 E.08977
G1 X158.145 Y71.274 E.01672
G1 X155.588 Y68.717 E.11344
G1 X155.054 Y68.717 E.01675
G1 X158.145 Y71.808 E.13713
G1 X158.145 Y72.341 E.01672
G1 X154.521 Y68.717 E.16078
G1 X153.987 Y68.717 E.01675
G1 X158.145 Y72.875 E.18447
G1 X158.145 Y73.408 E.01672
G1 X153.454 Y68.717 E.20812
G1 X152.92 Y68.717 E.01675
G1 X158.145 Y73.942 E.23181
G1 X158.145 Y74.476 E.01675
G1 X152.387 Y68.717 E.25548
G1 X151.853 Y68.717 E.01675
G1 X158.145 Y75.009 E.27915
G1 X158.145 Y75.543 E.01675
G1 X151.32 Y68.717 E.30281
G1 X150.786 Y68.717 E.01675
G1 X158.145 Y76.076 E.32648
G1 X158.145 Y76.61 E.01675
G1 X150.252 Y68.717 E.35017
G1 X149.719 Y68.717 E.01672
G1 X158.145 Y77.143 E.37382
G1 X158.145 Y77.677 E.01675
G1 X149.185 Y68.717 E.39751
G1 X148.652 Y68.717 E.01672
G1 X158.145 Y78.21 E.42116
G1 X158.145 Y78.744 E.01675
G1 X148.118 Y68.717 E.44485
G1 X147.585 Y68.717 E.01672
G1 X158.145 Y79.278 E.46852
G1 X158.145 Y79.811 E.01672
G1 X147.051 Y68.717 E.49219
G1 X146.518 Y68.717 E.01672
G1 X158.145 Y80.345 E.51586
G1 X158.145 Y80.878 E.01672
G1 X145.984 Y68.717 E.53952
G1 X145.45 Y68.717 E.01675
G1 X158.145 Y81.412 E.56322
G1 X158.145 Y81.945 E.01672
G1 X144.917 Y68.717 E.58686
G1 X144.383 Y68.717 E.01675
G1 X158.145 Y82.479 E.61055
G1 X158.145 Y83.012 E.01672
G1 X143.85 Y68.717 E.6342
G1 X143.316 Y68.717 E.01675
G1 X158.145 Y83.546 E.65789
G1 X158.145 Y84.079 E.01672
G1 X142.783 Y68.717 E.68154
G1 X142.249 Y68.717 E.01675
G1 X158.145 Y84.613 E.70523
G1 X158.145 Y85.147 E.01675
G1 X141.716 Y68.717 E.7289
G1 X141.182 Y68.717 E.01675
G1 X158.145 Y85.68 E.75257
G1 X158.145 Y86.214 E.01675
G1 X140.648 Y68.717 E.77626
G1 X140.115 Y68.717 E.01672
G1 X158.145 Y86.747 E.7999
G1 X158.145 Y87.281 E.01675
G1 X139.581 Y68.717 E.82359
G1 X139.048 Y68.717 E.01672
G1 X158.145 Y87.814 E.84724
G1 X158.145 Y88.348 E.01675
G1 X138.514 Y68.717 E.87093
G1 X137.981 Y68.717 E.01672
G1 X158.145 Y88.881 E.89458
G1 X158.145 Y89.415 E.01675
G1 X137.447 Y68.717 E.91827
G1 X136.914 Y68.717 E.01672
G1 X158.145 Y89.949 E.94194
G1 X158.145 Y90.482 E.01672
G1 X136.38 Y68.717 E.96561
G1 X135.846 Y68.717 E.01675
G1 X158.145 Y91.016 E.9893
G1 X158.145 Y91.549 E.01672
G1 X135.313 Y68.717 E1.01294
G1 X134.779 Y68.717 E.01675
G1 X158.145 Y92.083 E1.03664
G1 X158.145 Y92.616 E.01672
G1 X134.246 Y68.717 E1.06028
G1 X133.712 Y68.717 E.01675
G1 X158.145 Y93.15 E1.08397
G1 X158.145 Y93.683 E.01672
G1 X133.179 Y68.717 E1.10762
G1 X132.645 Y68.717 E.01675
G1 X158.145 Y94.217 E1.13131
G1 X158.145 Y94.751 E.01675
G1 X132.112 Y68.717 E1.15498
G1 X131.578 Y68.717 E.01675
G1 X158.145 Y95.284 E1.17865
G1 X158.145 Y95.818 E.01675
G1 X131.045 Y68.717 E1.20232
G1 X130.511 Y68.717 E.01675
G1 X158.145 Y96.351 E1.22599
G1 X158.145 Y96.885 E.01675
G1 X129.977 Y68.717 E1.24968
G1 X129.444 Y68.717 E.01672
G1 X158.145 Y97.418 E1.27332
G1 X158.145 Y97.952 E.01675
G1 X128.91 Y68.717 E1.29701
G1 X128.377 Y68.717 E.01672
G1 X158.145 Y98.485 E1.32066
G1 X158.145 Y99.019 E.01675
G1 X127.843 Y68.717 E1.34435
