; generated by PrusaSlicer 2.9.2 on 2025-08-31 at 11:45:04 UTC

; 

; external perimeters extrusion width = 0.42mm
; perimeters extrusion width = 0.44mm
; infill extrusion width = 0.44mm
; solid infill extrusion width = 0.44mm
; top infill extrusion width = 0.40mm
; first layer extrusion width = 0.42mm

M201 X500 Y500 Z100 E5000 ; sets maximum accelerations, mm/sec^2
M203 X500 Y500 Z10 E60 ; sets maximum feedrates, mm / sec
M204 S500 T1000 ; sets acceleration (S) and retract acceleration (R), mm/sec^2
M205 X8.00 Y8.00 Z0.40 E5.00 ; sets the jerk limits, mm/sec
M205 S0 T0 ; sets the minimum extruding and travel feed rate, mm/sec

; printing object Golf1-clips+No+frame_28 id:0 copy 0
; stop printing object Golf1-clips+No+frame_28 id:0 copy 0

;TYPE:Custom
G90 ; use absolute coordinates
M83 ; extruder relative mode
M104 S150 ; set temporary nozzle temp to prevent oozing during homing
M140 S60 ; set final bed temp
G4 S30 ; allow partial nozzle warmup
G28 ; home all axis
G1 Z50 F240
G1 X2.0 Y10 F3000
M104 S240 ; set final nozzle temp
M190 S60 ; wait for bed temp to stabilize
M109 S240 ; wait for nozzle temp to stabilize
G1 Z0.28 F240
G92 E0
G1 X2.0 Y140 E10 F1500 ; prime the nozzle
G1 X2.3 Y140 F5000
G92 E0
G1 X2.3 Y10 E10 F1200 ; prime the nozzle
G92 E0
G21 ; set units to millimeters
G90 ; use absolute coordinates
M83 ; use relative distances for extrusion
; Filament gcode
M107
;LAYER_CHANGE
;Z:0.2
;HEIGHT:0.2
G1 E-5 F3600
G1 Z.2 F9000
; printing object Golf1-clips+No+frame_28 id:0 copy 0
G1 X122.735 Y107.957
G1 Z.2
G1 E5 F2400
M204 S500
;TYPE:Perimeter
;WIDTH:0.419999
G1 F1200
G1 X123.202 Y108.405 E.02029
G1 X123.932 Y109.295 E.03609
G1 X124.545 Y110.21 E.03453
G1 X125.196 Y111.519 E.04584
G1 X125.506 Y112.39 E.02899
G1 X125.791 Y113.472 E.03508
G1 X125.958 Y114.569 E.03479
G1 X125.968 Y116.352 E.05591
G1 X125.813 Y117.462 E.03514
G1 X125.529 Y118.609 E.03705
G1 X125.208 Y119.498 E.02964
G1 X124.666 Y120.628 E.0393
G1 X124.238 Y121.318 E.02546
G1 X123.57 Y122.233 E.03552
G1 X122.724 Y123.142 E.03893
G1 X122.033 Y123.73 E.02845
G1 X121.491 Y124.126 E.02105
G1 X120.824 Y124.572 E.02516
G1 X119.594 Y125.188 E.04313
G1 X118.712 Y125.52 E.02955
G1 X117.563 Y125.82 E.03723
G1 X116.505 Y125.987 E.03358
G1 X114.677 Y126.001 E.05732
G1 X113.483 Y125.834 E.0378
G1 X112.558 Y125.604 E.02989
G1 X111.784 Y125.343 E.02561
G1 X111.141 Y125.06 E.02203
G1 X110.322 Y124.662 E.02855
G1 X109.526 Y124.148 E.02971
G1 X108.926 Y123.695 E.02357
G1 X108.405 Y123.267 E.02114
G1 X107.678 Y122.516 E.03277
G1 X107.205 Y121.952 E.02308
G1 X106.867 Y121.498 E.01775
G1 X106.551 Y121.001 E.01847
G1 X106.232 Y120.433 E.02043
G1 X105.89 Y119.757 E.02375
G1 X105.579 Y118.959 E.02685
G1 X105.291 Y117.971 E.03227
G1 X105.11 Y117.061 E.02909
G1 X105.01 Y115.958 E.03473
G1 X105.009 Y115.153 E.02524
G1 X105.108 Y114.004 E.03616
G1 X105.306 Y112.999 E.03212
G1 X105.648 Y111.891 E.03636
G1 X106.044 Y110.962 E.03166
G1 X106.406 Y110.285 E.02407
G1 X107.015 Y109.355 E.03486
G1 X107.513 Y108.73 E.02506
G1 X108.207 Y107.992 E.03176
G1 X109.149 Y107.173 E.03914
G1 X110.133 Y106.509 E.03722
G1 X110.887 Y106.098 E.02693
G1 X111.817 Y105.696 E.03177
G1 X112.825 Y105.375 E.03317
G1 X114.029 Y105.133 E.03851
G1 X114.994 Y105.048 E.03037
G1 X115.889 Y105.051 E.02806
G1 X116.884 Y105.122 E.03128
G1 X117.545 Y105.245 E.02108
G1 X118.657 Y105.519 E.03591
G1 X119.592 Y105.867 E.03128
G1 X120.63 Y106.38 E.0363
G1 X121.367 Y106.835 E.02716
G1 X121.831 Y107.172 E.01798
G1 X122.448 Y107.682 E.0251
G1 X122.692 Y107.916 E.0106
G1 X122.431 Y108.188 F9000
G1 F1200
G1 X122.941 Y108.677 E.02215
G1 X123.639 Y109.532 E.03461
G1 X124.147 Y110.293 E.02869
G1 X124.857 Y111.686 E.04902
G1 X125.15 Y112.514 E.02754
G1 X125.425 Y113.564 E.03403
G1 X125.587 Y114.668 E.03499
G1 X125.591 Y116.353 E.05283
G1 X125.429 Y117.461 E.03511
G1 X125.163 Y118.516 E.03411
G1 X124.854 Y119.368 E.02842
G1 X124.326 Y120.464 E.03814
G1 X123.919 Y121.117 E.02413
G1 X123.269 Y122.007 E.03456
G1 X122.449 Y122.883 E.03762
G1 X121.79 Y123.441 E.02707
G1 X121.282 Y123.813 E.01974
G1 X120.614 Y124.259 E.02518
G1 X119.428 Y124.849 E.04153
G1 X118.58 Y125.167 E.0284
G1 X117.47 Y125.455 E.03596
G1 X116.633 Y125.586 E.02656
G1 X116.008 Y125.622 E.01963
G1 X114.677 Y125.624 E.04173
G1 X113.573 Y125.468 E.03496
G1 X112.649 Y125.238 E.02986
G1 X111.906 Y124.986 E.0246
G1 X111.306 Y124.72 E.02058
G1 X110.487 Y124.323 E.02854
G1 X109.733 Y123.833 E.02819
G1 X109.162 Y123.4 E.02247
G1 X108.676 Y123.005 E.01964
G1 X107.949 Y122.254 E.03277
G1 X107.495 Y121.711 E.02219
G1 X107.17 Y121.273 E.0171
G1 X106.87 Y120.8 E.01756
G1 X106.568 Y120.263 E.01932
G1 X106.226 Y119.587 E.02375
G1 X105.932 Y118.825 E.02561
G1 X105.655 Y117.872 E.03112
G1 X105.48 Y116.989 E.02822
G1 X105.387 Y115.686 E.04096
G1 X105.386 Y115.153 E.01671
G1 X105.478 Y114.077 E.03386
G1 X105.676 Y113.072 E.03212
G1 X105.995 Y112.039 E.0339
G1 X106.391 Y111.109 E.03169
G1 X106.738 Y110.465 E.02294
G1 X107.309 Y109.59 E.03276
G1 X107.808 Y108.965 E.02508
G1 X108.481 Y108.251 E.03076
G1 X109.395 Y107.459 E.03792
G1 X110.342 Y106.823 E.03577
G1 X111.036 Y106.444 E.02479
G1 X111.967 Y106.043 E.03178
G1 X112.938 Y105.734 E.03195
G1 X114.062 Y105.509 E.03594
G1 X115.027 Y105.424 E.03037
G1 X115.886 Y105.428 E.02693
G1 X116.852 Y105.498 E.03037
G1 X117.473 Y105.615 E.01981
G1 X118.56 Y105.883 E.0351
G1 X119.512 Y106.243 E.03191
G1 X120.461 Y106.717 E.03326
G1 X121.167 Y107.155 E.02605
G1 X121.608 Y107.476 E.0171
G1 X122.187 Y107.954 E.02354
G1 X122.388 Y108.146 E.00872
G1 X122.126 Y108.418 F9000
;TYPE:External perimeter
G1 F1200
G1 X122.68 Y108.949 E.02406
G1 X123.346 Y109.769 E.03312
G1 X123.832 Y110.501 E.02755
G1 X124.519 Y111.852 E.04752
G1 X124.794 Y112.638 E.02611
G1 X125.06 Y113.657 E.03302
G1 X125.21 Y114.695 E.03288
G1 X125.214 Y116.354 E.05202
G1 X125.064 Y117.369 E.03217
G1 X124.798 Y118.424 E.03411
G1 X124.5 Y119.238 E.02718
G1 X123.987 Y120.3 E.03698
G1 X123.6 Y120.916 E.02281
G1 X122.967 Y121.781 E.03361
G1 X122.174 Y122.625 E.03631
G1 X121.548 Y123.152 E.02566
G1 X121.072 Y123.499 E.01847
G1 X120.405 Y123.945 E.02516
G1 X119.261 Y124.511 E.04002
G1 X118.449 Y124.813 E.02716
G1 X117.376 Y125.09 E.03475
G1 X116.576 Y125.214 E.02538
G1 X116.007 Y125.245 E.01787
G1 X114.677 Y125.247 E.0417
G1 X113.664 Y125.102 E.03209
G1 X112.74 Y124.873 E.02985
G1 X112.029 Y124.629 E.02357
G1 X110.651 Y123.984 E.0477
G1 X109.941 Y123.518 E.02663
G1 X109.398 Y123.106 E.02137
G1 X108.946 Y122.742 E.0182
G1 X108.22 Y121.991 E.03275
G1 X107.785 Y121.47 E.02128
G1 X107.473 Y121.049 E.01643
G1 X107.189 Y120.6 E.01666
G1 X106.905 Y120.092 E.01825
G1 X106.563 Y119.417 E.02373
G1 X106.284 Y118.69 E.02442
G1 X106.019 Y117.773 E.02993
G1 X105.85 Y116.916 E.02739
G1 X105.764 Y115.685 E.03869
G1 X105.763 Y115.152 E.01671
G1 X105.886 Y113.954 E.03776
G1 X106.046 Y113.145 E.02586
G1 X106.342 Y112.186 E.03147
G1 X106.738 Y111.257 E.03166
G1 X107.069 Y110.644 E.02184
G1 X107.388 Y110.155 E.01831
G1 X108.103 Y109.2 E.03741
G1 X108.754 Y108.51 E.02974
G1 X109.641 Y107.745 E.03673
G1 X110.551 Y107.137 E.03431
G1 X111.185 Y106.79 E.02266
G1 X112.116 Y106.389 E.03178
G1 X113.051 Y106.094 E.03074
G1 X114.095 Y105.885 E.03338
G1 X115.06 Y105.799 E.03038
G1 X115.882 Y105.806 E.02577
G1 X116.819 Y105.874 E.02946
G1 X117.401 Y105.985 E.01858
G1 X118.462 Y106.247 E.03427
G1 X119.344 Y106.58 E.02956
G1 X120.292 Y107.055 E.03325
G1 X120.968 Y107.475 E.02495
G1 X121.385 Y107.78 E.0162
G1 X121.926 Y108.226 E.02198
G1 X122.083 Y108.377 E.00683
G1 E-3.5 F3600
;WIPE_START
G1 F7200
G1 X122.126 Y108.418 E-.02822
G1 X122.68 Y108.949 E-.36451
G1 X123.346 Y109.769 E-.50178
G1 X123.832 Y110.501 E-.41736
G1 X124.011 Y110.854 E-.18813
;WIPE_END
G1 X97.106 Y84.284 F9000
G1 E5 F2400
;TYPE:Perimeter
;WIDTH:0.380618
G1 F1200
G1 X97.043 Y84.32 E.00204
G1 X97.106 Y84.357 E.00205
G1 X97.128 Y84.32 E.00121
G1 E-3.5 F3600
;WIPE_START
G1 F7200
G1 X97.106 Y84.357 E-.02045
G1 X97.043 Y84.32 E-.0347
G1 X97.106 Y84.284 E-.03447
;WIPE_END
G1 E-1.41038 F3600
G1 X97.106 Y86.736 F9000
G1 E5 F2400
;WIDTH:0.38236
G1 F1200
G1 X97.043 Y86.773 E.00206
G1 X97.106 Y86.81 E.00206
G1 X97.128 Y86.773 E.00121
G1 E-3.5 F3600
;WIPE_START
G1 F7200
G1 X97.106 Y86.81 E-.02045
G1 X97.043 Y86.773 E-.0347
G1 X97.106 Y86.736 E-.0347
;WIPE_END
G1 E-1.41015 F3600
G1 X102.165 Y85.765 F9000
G1 E5 F2400
;WIDTH:0.419999
G1 F1200
G1 X102.19 Y85.636 E.00412
G1 X102.164 Y85.291 E.01085
G1 X102.295 Y85.281 E.00412
G1 X102.638 Y85.158 E.01143
G1 X102.909 Y84.913 E.01145
G1 X103.125 Y84.875 E.00688
G1 X103.448 Y84.75 E.01086
G1 X103.839 Y84.271 E.01939
G1 X103.853 Y84.188 E.00264
G1 X104.048 Y84.188 E.00611
G1 X104.378 Y85.19 E.03308
G1 X104.596 Y85.512 E.01219
G1 X104.515 Y85.621 E.00426
G1 X104.335 Y85.969 E.01228
G1 X104.053 Y86.86 E.0293
G1 X103.859 Y86.86 E.00608
G1 X103.844 Y86.778 E.00261
G1 X103.451 Y86.3 E.0194
G1 X103.344 Y86.244 E.00379
G1 X102.912 Y86.139 E.01394
G1 X102.64 Y85.896 E.01144
G1 X102.402 Y85.796 E.00809
G1 X102.225 Y85.772 E.0056
G1 X101.714 Y86.111 F9000
;WIDTH:0.440854
G1 F1200
G1 X101.815 Y85.464 E.02167
;WIDTH:0.440497
G1 X101.706 Y84.955 E.01721
G1 X101.771 Y84.915 E.00252
;WIDTH:0.419999
G1 X102.302 Y84.895 E.01666
G1 X102.566 Y84.736 E.00966
G1 X102.665 Y84.514 E.00762
G1 X102.954 Y84.513 E.00906
G1 X103.186 Y84.463 E.00744
G1 X103.484 Y84.141 E.01376
G1 X103.518 Y83.812 E.01037
G1 X104.322 Y83.81 E.02521
G1 X104.719 Y85.029 E.0402
G1 X105.032 Y85.429 E.01593
G1 X105.206 Y85.518 E.00613
G1 X104.904 Y85.728 E.01153
G1 X104.695 Y86.083 E.01292
G1 X104.33 Y87.236 E.03792
G1 X103.526 Y87.238 E.02521
G1 X103.49 Y86.909 E.01038
G1 X103.254 Y86.622 E.01165
G1 X103.129 Y86.565 E.00431
G1 X102.669 Y86.54 E.01444
G1 X102.611 Y86.366 E.00575
G1 X102.448 Y86.22 E.00686
G1 X102.241 Y86.147 E.00688
;WIDTH:0.440854
G1 X101.774 Y86.115 E.01549
G1 E-3.5 F3600
;WIPE_START
G1 F7200
G1 X101.714 Y86.111 E-.02856
G1 X101.815 Y85.464 E-.31105
G1 X101.706 Y84.955 E-.24726
G1 X101.771 Y84.915 E-.03625
G1 X102.302 Y84.895 E-.2524
G1 X102.566 Y84.736 E-.14639
G1 X102.665 Y84.514 E-.11546
G1 X102.954 Y84.513 E-.13728
G1 X103.186 Y84.463 E-.11273
G1 X103.347 Y84.289 E-.11262
;WIPE_END
G1 X126.269 Y85.472 F9000
G1 E5 F2400
;WIDTH:0.419999
G1 F1200
G1 X126.39 Y85.309 E.00636
G1 X126.535 Y85.029 E.00989
G1 X126.815 Y84.142 E.02916
G1 X127.012 Y84.141 E.00618
G1 X127.027 Y84.224 E.00264
G1 X127.419 Y84.698 E.01929
G1 X127.526 Y84.754 E.00379
G1 X127.958 Y84.859 E.01394
G1 X128.23 Y85.102 E.01144
G1 X128.468 Y85.203 E.00811
G1 X128.705 Y85.234 E.00749
G1 X128.68 Y85.363 E.00412
G1 X128.706 Y85.707 E.01082
G1 X128.575 Y85.717 E.00412
G1 X128.231 Y85.84 E.01145
G1 X127.961 Y86.085 E.01143
G1 X127.745 Y86.124 E.00688
G1 X127.419 Y86.25 E.01096
G1 X127.032 Y86.726 E.01923
G1 X127.017 Y86.81 E.00268
G1 X126.818 Y86.81 E.00624
G1 X126.492 Y85.809 E.03301
G1 X126.302 Y85.522 E.01079
G1 E-3.5 F3600
;WIPE_START
G1 F7200
G1 X126.269 Y85.472 E-.02846
G1 X126.39 Y85.309 E-.09643
G1 X126.535 Y85.029 E-.14978
G1 X126.815 Y84.142 E-.44182
G1 X127.012 Y84.141 E-.09358
G1 X127.027 Y84.224 E-.04006
G1 X127.419 Y84.698 E-.29217
G1 X127.526 Y84.754 E-.05736
G1 X127.958 Y84.859 E-.21117
G1 X128.098 Y84.984 E-.08917
;WIPE_END
G1 X129.164 Y86.043 F9000
G1 E5 F2400
;WIDTH:0.440783
G1 F1200
G1 X128.568 Y86.103 E.01982
;WIDTH:0.419999
G1 X128.303 Y86.262 E.00969
G1 X128.205 Y86.484 E.00761
G1 X127.916 Y86.485 E.00906
G1 X127.684 Y86.535 E.00744
G1 X127.386 Y86.856 E.01373
G1 X127.352 Y87.186 E.0104
G1 X126.543 Y87.188 E.02537
G1 X126.178 Y86.039 E.0378
G1 X125.95 Y85.677 E.01341
G1 X125.667 Y85.474 E.01092
G1 X125.762 Y85.433 E.00324
G1 X125.945 Y85.274 E.0076
G1 X126.175 Y84.915 E.01337
G1 X126.539 Y83.767 E.03776
G1 X127.344 Y83.762 E.02524
G1 X127.38 Y84.092 E.01041
G1 X127.615 Y84.376 E.01156
G1 X127.741 Y84.433 E.00434
G1 X128.201 Y84.458 E.01444
G1 X128.259 Y84.632 E.00575
G1 X128.422 Y84.778 E.00686
G1 X128.629 Y84.851 E.00688
;WIDTH:0.440409
G1 X129.17 Y84.883 E.01791
G1 X129.072 Y85.315 E.01464
;WIDTH:0.419999
G1 X129.055 Y85.534 E.00689
;WIDTH:0.440783
G1 X129.151 Y85.985 E.01525
G1 E-3.5 F3600
;WIPE_START
G1 F7200
G1 X129.164 Y86.043 E-.02823
G1 X128.568 Y86.103 E-.28453
G1 X128.303 Y86.262 E-.14679
G1 X128.205 Y86.484 E-.11527
G1 X127.916 Y86.485 E-.13728
G1 X127.684 Y86.535 E-.11273
G1 X127.386 Y86.856 E-.20805
G1 X127.352 Y87.186 E-.15758
G1 X126.7 Y87.188 E-.30954
;WIPE_END
G1 X133.806 Y84.188 F9000
G1 E5 F2400
;WIDTH:0.38235
G1 F1200
G1 X133.742 Y84.225 E.00209
G1 X133.806 Y84.262 E.00209
G1 X133.827 Y84.225 E.0012
G1 E-3.5 F3600
;WIPE_START
G1 F7200
G1 X133.806 Y84.262 E-.02021
G1 X133.742 Y84.225 E-.03511
G1 X133.806 Y84.188 E-.03511
;WIPE_END
G1 E-1.40957 F3600
G1 X133.806 Y86.641 F9000
G1 E5 F2400
;WIDTH:0.38062
G1 F1200
G1 X133.742 Y86.678 E.00208
G1 X133.806 Y86.714 E.00206
G1 X133.827 Y86.678 E.00117
G1 E-3.5 F3600
;WIPE_START
G1 F7200
G1 X133.806 Y86.714 E-.0198
G1 X133.742 Y86.678 E-.03488
G1 X133.806 Y86.641 E-.03511
;WIPE_END
G1 E-1.41021 F3600
G1 X133.936 Y144.188 F9000
G1 E5 F2400
;WIDTH:0.38236
G1 F1200
G1 X133.872 Y144.225 E.00209
G1 X133.936 Y144.262 E.00209
G1 X133.957 Y144.225 E.0012
G1 E-3.5 F3600
;WIPE_START
G1 F7200
G1 X133.936 Y144.262 E-.02021
G1 X133.872 Y144.225 E-.03511
G1 X133.936 Y144.188 E-.03511
;WIPE_END
G1 E-1.40957 F3600
G1 X133.936 Y146.641 F9000
G1 E5 F2400
;WIDTH:0.380616
G1 F1200
G1 X133.872 Y146.678 E.00208
G1 X133.936 Y146.714 E.00206
G1 X133.957 Y146.678 E.00117
G1 E-3.5 F3600
;WIPE_START
G1 F7200
G1 X133.936 Y146.714 E-.0198
G1 X133.872 Y146.678 E-.03488
G1 X133.936 Y146.641 E-.03511
;WIPE_END
G1 E-1.41021 F3600
G1 X128.835 Y145.234 F9000
G1 E5 F2400
;WIDTH:0.419999
G1 F1200
G1 X128.81 Y145.363 E.00412
G1 X128.836 Y145.707 E.01082
G1 X128.705 Y145.717 E.00412
G1 X128.362 Y145.84 E.01143
G1 X128.091 Y146.085 E.01145
G1 X127.875 Y146.124 E.00688
G1 X127.552 Y146.248 E.01085
G1 X127.161 Y146.728 E.01941
G1 X127.147 Y146.81 E.00261
G1 X126.952 Y146.81 E.00611
G1 X126.622 Y145.809 E.03305
G1 X126.404 Y145.486 E.01222
G1 X126.485 Y145.377 E.00426
G1 X126.665 Y145.029 E.01228
G1 X126.947 Y144.138 E.0293
G1 X127.141 Y144.138 E.00608
G1 X127.156 Y144.22 E.00261
G1 X127.549 Y144.698 E.0194
G1 X127.656 Y144.754 E.00379
G1 X128.088 Y144.859 E.01394
G1 X128.36 Y145.102 E.01144
G1 X128.598 Y145.202 E.00809
G1 X128.775 Y145.226 E.0056
G1 X129.3 Y144.883 F9000
;WIDTH:0.440401
G1 F1200
G1 X129.203 Y145.315 E.01463
;WIDTH:0.419999
G1 X129.185 Y145.534 E.00689
;WIDTH:0.440776
G1 X129.302 Y146.055 E.01766
G1 X128.698 Y146.103 E.02004
;WIDTH:0.419999
G1 X128.434 Y146.262 E.00966
G1 X128.336 Y146.484 E.00761
G1 X128.046 Y146.485 E.00909
G1 X127.814 Y146.535 E.00744
G1 X127.516 Y146.857 E.01376
G1 X127.482 Y147.186 E.01037
G1 X126.678 Y147.188 E.02521
G1 X126.308 Y146.036 E.03794
G1 X126.077 Y145.679 E.01333
G1 X125.832 Y145.493 E.00964
G1 X126.096 Y145.27 E.01084
G1 X126.305 Y144.915 E.01292
G1 X126.67 Y143.762 E.03792
G1 X127.474 Y143.76 E.02521
G1 X127.51 Y144.089 E.01038
G1 X127.746 Y144.376 E.01165
G1 X127.871 Y144.433 E.00431
G1 X128.331 Y144.458 E.01444
G1 X128.389 Y144.632 E.00575
G1 X128.552 Y144.778 E.00686
G1 X128.759 Y144.851 E.00688
;WIDTH:0.440401
G1 X129.24 Y144.879 E.01592
G1 E-3.5 F3600
;WIPE_START
G1 F7200
G1 X129.3 Y144.883 E-.02856
G1 X129.203 Y145.315 E-.21031
G1 X129.185 Y145.534 E-.10438
G1 X129.302 Y146.055 E-.25364
G1 X128.698 Y146.103 E-.2878
G1 X128.434 Y146.262 E-.14639
G1 X128.336 Y146.484 E-.11527
G1 X128.046 Y146.485 E-.13775
G1 X127.814 Y146.535 E-.11273
G1 X127.666 Y146.694 E-.10317
;WIPE_END
G1 X97.237 Y144.284 F9000
G1 E5 F2400
;WIDTH:0.380616
G1 F1200
G1 X97.173 Y144.32 E.00206
G1 X97.237 Y144.357 E.00208
G1 X97.258 Y144.32 E.00119
G1 E-3.5 F3600
;WIPE_START
G1 F7200
G1 X97.237 Y144.357 E-.02021
G1 X97.173 Y144.32 E-.03511
G1 X97.237 Y144.284 E-.03488
;WIPE_END
G1 E-1.4098 F3600
G1 X97.237 Y146.736 F9000
G1 E5 F2400
;WIDTH:0.38236
G1 F1200
G1 X97.173 Y146.773 E.00209
G1 X97.237 Y146.81 E.00209
G1 X97.258 Y146.773 E.0012
G1 E-3.5 F3600
;WIPE_START
G1 F7200
G1 X97.237 Y146.81 E-.02021
