; generated by PrusaSlicer 2.9.2 on 2025-08-09 at 02:16:33 UTC

; 

; external perimeters extrusion width = 0.42mm
; perimeters extrusion width = 0.44mm
; infill extrusion width = 0.44mm
; solid infill extrusion width = 0.44mm
; top infill extrusion width = 0.40mm
; first layer extrusion width = 0.42mm

M201 X500 Y500 Z100 E5000 ; sets maximum accelerations, mm/sec^2
M203 X500 Y500 Z10 E60 ; sets maximum feedrates, mm / sec
M204 S500 T1000 ; sets acceleration (S) and retract acceleration (R), mm/sec^2
M205 X8.00 Y8.00 Z0.40 E5.00 ; sets the jerk limits, mm/sec
M205 S0 T0 ; sets the minimum extruding and travel feed rate, mm/sec

; printing object Headset_holder-Body id:0 copy 0
; stop printing object Headset_holder-Body id:0 copy 0

;TYPE:Custom
G90 ; use absolute coordinates
M83 ; extruder relative mode
M104 S150 ; set temporary nozzle temp to prevent oozing during homing
M140 S60 ; set final bed temp
G4 S30 ; allow partial nozzle warmup
G28 ; home all axis
G1 Z50 F240
G1 X2.0 Y10 F3000
M104 S220 ; set final nozzle temp
M190 S60 ; wait for bed temp to stabilize
M109 S220 ; wait for nozzle temp to stabilize
G1 Z0.28 F240
G92 E0
G1 X2.0 Y140 E10 F1500 ; prime the nozzle
G1 X2.3 Y140 F5000
G92 E0
G1 X2.3 Y10 E10 F1200 ; prime the nozzle
G92 E0
G21 ; set units to millimeters
G90 ; use absolute coordinates
M83 ; use relative distances for extrusion
; Filament gcode
M107
;LAYER_CHANGE
;Z:0.2
;HEIGHT:0.2
G1 E-5 F3600
G1 Z.2 F9000
G1 X98.825 Y91.026
G1 Z.2
G1 E5 F2400
M204 S500
;TYPE:Skirt/Brim
;WIDTH:0.42
G1 F1200
G1 X100.425 Y89.889 E.06154
G1 X101.239 Y89.616 E.02692
G1 X102.072 Y89.471 E.02651
G1 X128.974 Y89.472 E.84349
G1 X130.679 Y89.946 E.05549
G1 X132.152 Y91.015 E.05707
G1 X133.132 Y92.491 E.05555
G1 X133.549 Y94.247 E.05659
G1 X133.549 Y136.722 E1.33177
G1 X133.274 Y138.141 E.04532
G1 X132.608 Y139.443 E.04585
G1 X131.065 Y140.847 E.06541
G1 X130.1 Y141.286 E.03324
G1 X129.222 Y141.493 E.02828
G1 X126.287 Y141.551 E.09204
G1 X124.502 Y141.136 E.05746
G1 X122.979 Y140.128 E.05726
G1 X122.019 Y138.844 E.05027
G1 X121.451 Y136.777 E.06721
G1 X121.451 Y101.552 E1.10446
G1 X109.407 Y101.558 E.37763
G1 X109.101 Y102.559 E.03282
G1 X108.821 Y103.105 E.01924
G1 X107.903 Y104.231 E.04555
G1 X106.67 Y105.059 E.04657
G1 X105.047 Y105.516 E.05287
G1 X101.322 Y105.413 E.11684
G1 X100.001 Y104.886 E.04459
G1 X98.884 Y104.024 E.04424
G1 X98.055 Y102.894 E.04394
G1 X97.57 Y101.589 E.04365
G1 X97.45 Y94.264 E.2297
G1 X97.948 Y92.296 E.06365
G1 X98.351 Y91.624 E.02457
G1 X98.788 Y91.073 E.02205
G1 X99.099 Y91.288 F9000
G1 F1200
G1 X99.104 Y91.281 E.00027
G1 X100.572 Y90.238 E.05646
G1 X101.318 Y89.985 E.0247
G1 X102.121 Y89.845 E.02556
G1 X128.9 Y89.843 E.83964
G1 X130.488 Y90.273 E.05158
G1 X131.859 Y91.254 E.05286
G1 X132.774 Y92.613 E.05137
G1 X133.172 Y94.27 E.05343
G1 X133.172 Y136.703 E1.33046
G1 X132.91 Y138.041 E.04275
G1 X132.29 Y139.239 E.04229
G1 X130.836 Y140.546 E.0613
G1 X129.964 Y140.934 E.02993
G1 X129.157 Y141.121 E.02597
G1 X126.303 Y141.174 E.0895
G1 X124.681 Y140.802 E.05218
G1 X123.246 Y139.861 E.0538
G1 X122.35 Y138.66 E.04698
G1 X121.828 Y136.752 E.06202
G1 X121.828 Y101.175 E1.11549
G1 X109.127 Y101.181 E.39823
G1 X108.745 Y102.433 E.04104
G1 X108.516 Y102.882 E.0158
G1 X107.629 Y103.971 E.04404
G1 X106.487 Y104.728 E.04296
G1 X105.028 Y105.138 E.04752
G1 X101.428 Y105.05 E.11291
G1 X100.208 Y104.57 E.04111
G1 X99.17 Y103.777 E.04096
G1 X98.399 Y102.738 E.04057
G1 X97.935 Y101.488 E.04181
G1 X97.827 Y94.283 E.22593
G1 X98.286 Y92.466 E.05876
G1 X99.065 Y91.337 E.04301
G1 X99.373 Y91.55 F9000
G1 F1200
G1 X99.382 Y91.537 E.0005
G1 X100.72 Y90.585 E.05149
G1 X101.398 Y90.354 E.02246
G1 X102.17 Y90.219 E.02457
G1 X128.874 Y90.22 E.83729
G1 X130.354 Y90.627 E.04813
G1 X131.609 Y91.539 E.04864
G1 X132.441 Y92.792 E.04716
G1 X132.795 Y94.291 E.04829
G1 X132.795 Y136.686 E1.32927
G1 X132.562 Y137.892 E.03851
G1 X131.971 Y139.034 E.04032
G1 X130.61 Y140.243 E.05708
G1 X129.831 Y140.581 E.02663
G1 X129.092 Y140.749 E.02376
G1 X126.321 Y140.797 E.0869
G1 X124.799 Y140.442 E.049
G1 X123.513 Y139.594 E.0483
G1 X122.681 Y138.477 E.04367
G1 X122.205 Y136.727 E.05686
G1 X122.205 Y100.797 E1.12656
G1 X108.76 Y100.804 E.42156
G1 X108.733 Y101.183 E.01191
G1 X108.389 Y102.308 E.03689
G1 X108.211 Y102.66 E.01237
G1 X107.355 Y103.71 E.04248
G1 X106.305 Y104.396 E.03933
G1 X105.008 Y104.761 E.04225
G1 X101.535 Y104.687 E.10892
G1 X100.372 Y104.229 E.03919
G1 X99.422 Y103.496 E.03762
G1 X98.719 Y102.537 E.03728
G1 X98.3 Y101.39 E.03829
G1 X98.204 Y94.303 E.22223
G1 X98.624 Y92.635 E.05393
G1 X99.339 Y91.599 E.03947
G1 X99.647 Y91.812 F9000
G1 F1200
G1 X99.66 Y91.793 E.00072
G1 X100.869 Y90.933 E.04652
G1 X101.477 Y90.723 E.02017
G1 X102.219 Y90.594 E.02361
G1 X128.849 Y90.597 E.83496
G1 X130.163 Y90.954 E.04269
G1 X131.316 Y91.778 E.04443
G1 X132.082 Y92.914 E.04296
G1 X132.418 Y94.314 E.04514
G1 X132.418 Y136.667 E1.32795
G1 X132.197 Y137.792 E.03595
G1 X131.654 Y138.827 E.03665
G1 X130.385 Y139.939 E.0529
G1 X129.701 Y140.227 E.02327
G1 X129.029 Y140.377 E.02159
G1 X126.337 Y140.419 E.08442
G1 X124.977 Y140.108 E.04374
G1 X123.78 Y139.326 E.04483
G1 X123.442 Y138.941 E.01606
G1 X123.012 Y138.294 E.02436
G1 X122.582 Y136.703 E.05167
G1 X122.582 Y100.42 E1.13763
G1 X108.396 Y100.427 E.44479
G1 X108.364 Y101.098 E.02106
G1 X107.905 Y102.438 E.04441
G1 X107.082 Y103.448 E.04085
G1 X106.125 Y104.064 E.03568
G1 X104.987 Y104.383 E.03706
G1 X101.639 Y104.323 E.10499
G1 X100.578 Y103.913 E.03566
G1 X99.71 Y103.251 E.03423
G1 X99.04 Y102.336 E.03556
G1 X98.665 Y101.293 E.03475
G1 X98.582 Y94.323 E.21855
G1 X98.962 Y92.805 E.04906
G1 X99.613 Y91.861 E.03595
G1 X99.921 Y92.073 F9000
G1 F1200
G1 X99.938 Y92.049 E.00092
G1 X101.019 Y91.28 E.0416
G1 X101.558 Y91.092 E.0179
G1 X102.267 Y90.968 E.02257
G1 X128.775 Y90.967 E.83114
G1 X130.03 Y91.309 E.04078
G1 X131.066 Y92.062 E.04016
G1 X131.749 Y93.093 E.03878
G1 X132.04 Y94.335 E.04
G1 X132.04 Y136.648 E1.32669
G1 X131.833 Y137.691 E.03334
G1 X131.338 Y138.619 E.03298
G1 X130.211 Y139.603 E.04691
G1 X129.571 Y139.872 E.02177
G1 X128.968 Y140.005 E.01936
G1 X126.355 Y140.042 E.08194
G1 X125.095 Y139.749 E.04056
G1 X124.046 Y139.057 E.0394
G1 X123.343 Y138.111 E.03695
G1 X122.96 Y136.678 E.04651
G1 X122.96 Y100.043 E1.14866
G1 X108.029 Y100.05 E.46815
G1 X107.996 Y101.013 E.03021
G1 X107.58 Y102.247 E.04083
G1 X106.811 Y103.184 E.03801
G1 X105.948 Y103.73 E.03202
G1 X104.965 Y104.006 E.03201
G1 X101.741 Y103.959 E.1011
G1 X100.785 Y103.596 E.03206
G1 X99.961 Y102.968 E.03248
G1 X99.362 Y102.139 E.03207
G1 X99.032 Y101.198 E.03127
G1 X98.959 Y94.343 E.21495
G1 X99.3 Y92.974 E.04424
G1 X99.887 Y92.123 E.03241
G1 X100.195 Y92.335 F9000
G1 F1200
G1 X100.214 Y92.307 E.00106
G1 X101.17 Y91.626 E.0368
G1 X102.316 Y91.342 E.03702
G1 X128.75 Y91.345 E.82882
G1 X129.84 Y91.636 E.03537
G1 X130.774 Y92.302 E.03597
G1 X131.39 Y93.215 E.03453
G1 X131.663 Y94.358 E.03685
G1 X131.663 Y136.629 E1.32538
G1 X131.47 Y137.587 E.03064
G1 X131.023 Y138.409 E.02934
G1 X130.038 Y139.267 E.04096
G1 X129.442 Y139.518 E.02028
G1 X128.908 Y139.632 E.01712
G1 X126.372 Y139.665 E.07952
G1 X125.272 Y139.414 E.03538
G1 X124.31 Y138.787 E.036
G1 X124.056 Y138.501 E.01199
G1 X123.675 Y137.928 E.02158
G1 X123.337 Y136.654 E.04133
G1 X123.337 Y99.666 E1.15973
G1 X107.66 Y99.674 E.49154
G1 X107.628 Y100.928 E.03933
G1 X107.323 Y101.927 E.03275
G1 X106.54 Y102.92 E.03965
G1 X105.772 Y103.396 E.02833
G1 X104.942 Y103.629 E.02703
G1 X101.841 Y103.594 E.09724
G1 X100.988 Y103.278 E.02852
G1 X100.248 Y102.721 E.02904
G1 X99.708 Y101.987 E.02857
G1 X99.398 Y101.102 E.0294
G1 X99.336 Y94.363 E.21131
G1 X99.638 Y93.143 E.03941
G1 X100.161 Y92.384 E.0289
G1 X100.469 Y92.596 F9000
G1 F1200
G1 X100.49 Y92.565 E.00117
G1 X101.322 Y91.972 E.03203
G1 X102.365 Y91.717 E.03367
G1 X128.681 Y91.716 E.82512
G1 X129.654 Y91.965 E.03149
G1 X130.484 Y92.546 E.03177
G1 X131.033 Y93.339 E.03024
G1 X131.286 Y94.381 E.03362
G1 X131.286 Y136.611 E1.32409
G1 X131.124 Y137.433 E.02627
G1 X130.708 Y138.199 E.02733
G1 X129.864 Y138.931 E.03503
G1 X129.313 Y139.163 E.01875
G1 X128.849 Y139.259 E.01486
G1 X126.391 Y139.287 E.07707
G1 X125.391 Y139.055 E.03219
G1 X124.574 Y138.518 E.03065
G1 X124.006 Y137.746 E.03005
G1 X123.714 Y136.63 E.03617
G1 X123.714 Y99.288 E1.17083
G1 X107.289 Y99.297 E.51499
G1 X107.259 Y100.843 E.04848
G1 X106.952 Y101.829 E.03238
G1 X106.312 Y102.618 E.03185
G1 X105.644 Y103.04 E.02477
G1 X104.865 Y103.258 E.02536
G1 X101.941 Y103.229 E.09168
G1 X101.146 Y102.934 E.02659
G1 X100.5 Y102.44 E.0255
G1 X100.031 Y101.79 E.02513
G1 X99.764 Y101.01 E.02585
G1 X99.713 Y94.384 E.20776
G1 X99.977 Y93.312 E.03462
G1 X100.435 Y92.645 E.02537
G1 X100.743 Y92.856 F9000
G1 F1200
G1 X100.765 Y92.824 E.00122
G1 X101.476 Y92.317 E.02738
G1 X102.414 Y92.091 E.03025
G1 X128.656 Y92.093 E.8228
G1 X129.523 Y92.32 E.0281
G1 X130.236 Y92.831 E.0275
G1 X130.7 Y93.52 E.02605
G1 X130.909 Y94.402 E.02842
G1 X130.909 Y136.592 E1.32284
G1 X130.761 Y137.328 E.02354
G1 X130.396 Y137.986 E.02359
G1 X129.69 Y138.595 E.02923
G1 X128.827 Y138.882 E.02852
G1 X126.408 Y138.91 E.07585
G1 X125.567 Y138.72 E.02703
G1 X124.668 Y138.06 E.03497
G1 X124.338 Y137.563 E.01871
G1 X124.091 Y136.607 E.03096
G1 X124.091 Y98.911 E1.18193
G1 X106.919 Y98.92 E.53842
G1 X106.883 Y100.809 E.05924
G1 X106.624 Y101.637 E.0272
G1 X106.083 Y102.317 E.02725
G1 X105.467 Y102.706 E.02284
G1 X104.793 Y102.888 E.02189
G1 X102.038 Y102.863 E.08638
G1 X101.348 Y102.615 E.02299
G1 X100.788 Y102.195 E.02195
G1 X100.354 Y101.594 E.02324
G1 X100.132 Y100.921 E.02222
G1 X100.091 Y94.404 E.20434
G1 X100.315 Y93.481 E.02978
G1 X100.709 Y92.906 E.02186
G1 X101.017 Y93.116 F9000
G1 F1200
G1 X101.038 Y93.085 E.00117
G1 X101.633 Y92.661 E.02291
G1 X102.431 Y92.468 E.02574
G1 X128.633 Y92.47 E.82155
G1 X129.337 Y92.65 E.02278
G1 X129.947 Y93.076 E.02333
G1 X130.343 Y93.645 E.02174
G1 X130.532 Y94.425 E.02516
G1 X130.532 Y136.573 E1.32152
G1 X130.398 Y137.222 E.02078
G1 X130.085 Y137.77 E.01979
G1 X129.517 Y138.258 E.02348
G1 X128.804 Y138.505 E.02366
G1 X126.427 Y138.533 E.07453
G1 X125.686 Y138.361 E.02385
G1 X125.097 Y137.973 E.02211
G1 X124.67 Y137.382 E.02286
G1 X124.468 Y136.584 E.02581
G1 X124.468 Y98.534 E1.19303
G1 X106.547 Y98.543 E.5619
G1 X106.514 Y100.728 E.06852
G1 X106.303 Y101.435 E.02313
G1 X105.85 Y102.019 E.02317
G1 X105.339 Y102.35 E.01909
G1 X104.719 Y102.517 E.02013
G1 X102.132 Y102.497 E.08112
G1 X101.55 Y102.295 E.01932
G1 X101.039 Y101.912 E.02002
G1 X100.68 Y101.402 E.01956
G1 X100.5 Y100.835 E.01865
G1 X100.468 Y94.425 E.20098
G1 X100.654 Y93.649 E.02502
G1 X100.983 Y93.165 E.01835
G1 X101.292 Y93.374 F9000
G1 F1200
G1 X101.31 Y93.348 E.00099
G1 X101.792 Y93.003 E.01859
G1 X102.448 Y92.845 E.02116
G1 X128.608 Y92.847 E.82023
G1 X129.205 Y93.005 E.01936
G1 X129.697 Y93.36 E.01902
G1 X130.01 Y93.825 E.01758
G1 X130.155 Y94.446 E.01999
G1 X130.155 Y136.555 E1.3203
G1 X130.055 Y137.062 E.0162
G1 X129.774 Y137.554 E.01777
G1 X129.344 Y137.922 E.01775
G1 X128.782 Y138.129 E.01878
G1 X126.444 Y138.155 E.07331
G1 X125.862 Y138.025 E.0187
G1 X125.277 Y137.615 E.0224
G1 X125.002 Y137.201 E.01558
G1 X124.845 Y136.561 E.02066
G1 X124.797 Y98.33 E1.19871
G1 X124.48 Y98.157 E.01132
G1 X106.451 Y98.166 E.56529
G1 X106.281 Y98.233 E.00573
G1 X106.171 Y98.424 E.00691
G1 X106.144 Y100.651 E.06983
G1 X105.979 Y101.239 E.01915
G1 X105.616 Y101.721 E.01892
G1 X105.161 Y102.016 E.017
G1 X104.651 Y102.146 E.0165
G1 X102.221 Y102.13 E.07619
G1 X101.747 Y101.972 E.01567
G1 X101.325 Y101.664 E.01638
G1 X101.03 Y101.258 E.01574
G1 X100.868 Y100.748 E.01678
G1 X100.845 Y94.445 E.19763
G1 X100.993 Y93.817 E.02023
G1 X101.258 Y93.423 E.01489
G1 X101.568 Y93.628 F9000
G1 F1200
G1 X101.578 Y93.613 E.00057
G1 X101.956 Y93.343 E.01456
G1 X102.467 Y93.222 E.01647
G1 X128.585 Y93.224 E.81891
G1 X129.019 Y93.334 E.01404
G1 X129.41 Y93.607 E.01495
G1 X129.653 Y93.951 E.01321
G1 X129.778 Y94.469 E.01671
G1 X129.778 Y136.535 E1.31895
G1 X129.692 Y136.953 E.01338
G1 X129.467 Y137.334 E.01387
G1 X129.171 Y137.586 E.01219
G1 X128.795 Y137.744 E.01279
G1 X126.459 Y137.778 E.07325
G1 X126.035 Y137.689 E.01358
G1 X125.605 Y137.413 E.01602
G1 X125.335 Y137.021 E.01492
G1 X125.222 Y136.541 E.01546
G1 X125.222 Y98.546 E1.19131
G1 X125.119 Y98.14 E.01313
G1 X124.858 Y97.879 E.01157
G1 X124.5 Y97.78 E.01165
G1 X106.413 Y97.789 E.56711
G1 X106.064 Y97.932 E.01183
G1 X105.794 Y98.341 E.01537
G1 X105.773 Y100.581 E.07024
G1 X105.652 Y101.05 E.01519
G1 X105.38 Y101.425 E.01453
G1 X104.985 Y101.68 E.01474
G1 X104.588 Y101.773 E.01278
G1 X102.305 Y101.761 E.07158
G1 X101.942 Y101.648 E.01192
G1 X101.574 Y101.379 E.01429
G1 X101.358 Y101.07 E.01182
G1 X101.237 Y100.668 E.01316
G1 X101.222 Y94.465 E.19449
G1 X101.332 Y93.984 E.01547
G1 X101.535 Y93.678 E.01151
G1 X101.84 Y93.884 F9000
G1 F1200
G1 X102.128 Y93.679 E.01108
G1 X102.486 Y93.599 E.0115
G1 X128.559 Y93.601 E.8175
G1 X128.885 Y93.688 E.01058
G1 X129.158 Y93.888 E.01061
G1 X129.319 Y94.128 E.00906
G1 X129.401 Y94.489 E.01161
G1 X129.401 Y136.519 E1.31782
G1 X129.348 Y136.798 E.0089
G1 X128.994 Y137.251 E.01803
G1 X128.699 Y137.375 E.01003
G1 X126.477 Y137.401 E.06967
G1 X126.154 Y137.329 E.01038
G1 X125.863 Y137.133 E.011
G1 X125.67 Y136.842 E.01095
G1 X125.599 Y136.522 E.01028
G1 X125.599 Y98.522 E1.19146
G1 X125.449 Y97.951 E.01851
G1 X125.049 Y97.55 E.01776
G1 X124.529 Y97.402 E.01695
G1 X106.363 Y97.412 E.56958
G1 X105.832 Y97.63 E.018
G1 X105.478 Y98.101 E.01847
G1 X105.404 Y98.436 E.01076
G1 X105.401 Y100.519 E.06531
G1 X105.319 Y100.869 E.01127
G1 X105.136 Y101.136 E.01015
G1 X104.859 Y101.323 E.01048
G1 X104.564 Y101.396 E.00953
G1 X102.382 Y101.392 E.06842
G1 X101.863 Y101.134 E.01817
G1 X101.687 Y100.882 E.00964
G1 X101.607 Y100.594 E.00937
G1 X101.599 Y94.484 E.19157
G1 X101.672 Y94.151 E.01069
G1 X101.808 Y93.935 E.008
G1 X102.107 Y94.157 F9000
G1 F1200
G1 X102.507 Y93.976 E.01377
G1 X128.531 Y93.978 E.81596
G1 X128.895 Y94.16 E.01276
G1 X129.024 Y94.507 E.01161
G1 X129.024 Y136.505 E1.31682
G1 X128.911 Y136.82 E.01049
G1 X128.6 Y137.011 E.01144
G1 X126.499 Y137.024 E.06588
G1 X126.119 Y136.854 E.01305
G1 X125.976 Y136.505 E.01183
G1 X125.976 Y98.499 E1.19165
G1 X125.931 Y98.133 E.01156
G1 X125.779 Y97.762 E.01257
G1 X125.545 Y97.456 E.01208
G1 X125.239 Y97.221 E.0121
G1 X124.558 Y97.025 E.02222
G1 X106.314 Y97.035 E.57203
G1 X105.933 Y97.136 E.01236
G1 X105.601 Y97.328 E.01203
G1 X105.328 Y97.601 E.01211
G1 X105.13 Y97.951 E.01261
G1 X105.027 Y98.409 E.01472
G1 X105.024 Y100.495 E.06541
G1 X104.859 Y100.878 E.01308
G1 X104.508 Y101.023 E.01191
G1 X102.45 Y101.021 E.06453
G1 X102.148 Y100.885 E.01038
G1 X101.979 Y100.533 E.01224
G1 X101.976 Y94.501 E.18913
G1 X102.086 Y94.213 E.00967
; printing object Headset_holder-Body id:0 copy 0
G1 X103.235 Y95.129 F9000
;TYPE:Perimeter
;WIDTH:0.419999
G1 F1200
G1 X127.871 Y95.131 E.77244
G1 X127.871 Y98.144 E.09447
;WIDTH:0.465638
G1 X127.848 Y98.244 E.00361
;WIDTH:0.511277
G1 X127.825 Y98.344 E.004
;WIDTH:0.556916
G1 X127.803 Y98.443 E.00433
;WIDTH:0.602555
G1 X127.78 Y98.543 E.00477
G1 X127.78 Y135.778 E1.73269
G1 X127.22 Y135.779 E.02606
G1 X127.22 Y98.543 E1.73273
G1 X127.193 Y98.459 E.00411
;WIDTH:0.555602
G1 X127.165 Y98.374 E.00382
;WIDTH:0.508648
G1 X127.086 Y98.049 E.01295
;WIDTH:0.464324
G1 X127.006 Y97.724 E.01173
;WIDTH:0.419999
G1 X126.708 Y97.082 E.02219
G1 X126.267 Y96.56 E.02143
G1 X125.705 Y96.169 E.02147
G1 X125.079 Y95.939 E.02091
G1 X124.574 Y95.873 E.01597
G1 X106.498 Y95.871 E.56676
G1 X105.724 Y95.994 E.02457
G1 X105.083 Y96.292 E.02216
G1 X104.56 Y96.733 E.02145
G1 X104.161 Y97.314 E.0221
G1 X103.92 Y98.003 E.02289
G1 X103.874 Y98.734 E.02297
;WIDTH:0.465869
G1 X103.851 Y98.834 E.00361
;WIDTH:0.511738
G1 X103.828 Y98.934 E.004
;WIDTH:0.557607
G1 X103.805 Y99.034 E.00439
;WIDTH:0.603476
G1 X103.781 Y99.134 E.00479
G1 X103.781 Y99.778 E.03002
;WIDTH:0.60318
G1 X103.221 Y99.777 E.02609
;WIDTH:0.603476
G1 X103.221 Y99.133 E.03002
G1 X103.198 Y99.033 E.00478
;WIDTH:0.557607
