; generated by PrusaSlicer 2.9.2 on 2025-05-10 at 08:29:04 UTC

; 

; external perimeters extrusion width = 0.42mm
; perimeters extrusion width = 0.44mm
; infill extrusion width = 0.44mm
; solid infill extrusion width = 0.44mm
; top infill extrusion width = 0.40mm
; first layer extrusion width = 0.42mm

M201 X500 Y500 Z100 E5000 ; sets maximum accelerations, mm/sec^2
M203 X500 Y500 Z10 E60 ; sets maximum feedrates, mm / sec
M204 S500 T1000 ; sets acceleration (S) and retract acceleration (R), mm/sec^2
M205 X8.00 Y8.00 Z0.40 E5.00 ; sets the jerk limits, mm/sec
M205 S0 T0 ; sets the minimum extruding and travel feed rate, mm/sec

; printing object PyCANoverSerial_box-lid id:0 copy 0
; stop printing object PyCANoverSerial_box-lid id:0 copy 0

;TYPE:Custom
G90 ; use absolute coordinates
M83 ; extruder relative mode
M104 S150 ; set temporary nozzle temp to prevent oozing during homing
M140 S60 ; set final bed temp
G4 S30 ; allow partial nozzle warmup
G28 ; home all axis
G1 Z50 F240
G1 X2.0 Y10 F3000
M104 S220 ; set final nozzle temp
M190 S60 ; wait for bed temp to stabilize
M109 S220 ; wait for nozzle temp to stabilize
G1 Z0.28 F240
G92 E0
G1 X2.0 Y140 E10 F1500 ; prime the nozzle
G1 X2.3 Y140 F5000
G92 E0
G1 X2.3 Y10 E10 F1200 ; prime the nozzle
G92 E0
G21 ; set units to millimeters
G90 ; use absolute coordinates
M83 ; use relative distances for extrusion
; Filament gcode
M107
;LAYER_CHANGE
;Z:0.2
;HEIGHT:0.2
G1 E-5 F3600
G1 Z.2 F9000
; printing object PyCANoverSerial_box-lid id:0 copy 0
G1 X84.237 Y139.243
G1 Z.2
G1 E5 F2400
M204 S500
;TYPE:External perimeter
;WIDTH:0.419999
G1 F1200
G1 X84.264 Y139.256 E.00094
G1 X84.306 Y139.339 E.00292
G1 X84.31 Y141.621 E.07155
G1 X84.272 Y141.735 E.00377
G1 X84.121 Y141.81 E.00529
G1 X81.879 Y141.81 E.0703
G1 X81.745 Y141.755 E.00454
G1 X81.69 Y141.621 E.00454
G1 X81.69 Y139.379 E.0703
G1 X81.765 Y139.228 E.00529
G1 X81.879 Y139.19 E.00377
G1 X84.121 Y139.19 E.0703
G1 X84.182 Y139.218 E.0021
G1 E-3.5 F3600
;WIPE_START
G1 F7200
G1 X84.237 Y139.243 E-.0287
G1 X84.264 Y139.256 E-.01423
G1 X84.306 Y139.339 E-.04419
G1 X84.31 Y141.621 E-1.08395
G1 X84.272 Y141.735 E-.05708
G1 X84.121 Y141.81 E-.08009
G1 X83.717 Y141.81 E-.19176
;WIPE_END
G1 X84.257 Y91.737 F9000
G1 E5 F2400
G1 F1200
G1 X84.244 Y91.764 E.00094
G1 X84.121 Y91.81 E.00412
G1 X81.879 Y91.81 E.0703
G1 X81.765 Y91.772 E.00377
G1 X81.69 Y91.621 E.00529
G1 X81.69 Y89.379 E.0703
G1 X81.745 Y89.245 E.00454
G1 X81.879 Y89.19 E.00454
G1 X84.121 Y89.19 E.0703
G1 X84.272 Y89.265 E.00529
G1 X84.31 Y89.379 E.00377
G1 X84.31 Y91.621 E.0703
G1 X84.282 Y91.682 E.0021
G1 E-3.5 F3600
;WIPE_START
G1 F7200
G1 X84.257 Y91.737 E-.0287
G1 X84.244 Y91.764 E-.01423
G1 X84.121 Y91.81 E-.06238
G1 X81.879 Y91.81 E-1.06495
G1 X81.765 Y91.772 E-.05708
G1 X81.69 Y91.621 E-.08009
G1 X81.69 Y91.216 E-.19257
;WIPE_END
G1 X146.763 Y91.757 F9000
G1 E5 F2400
G1 F1200
G1 X146.736 Y91.744 E.00094
G1 X146.69 Y91.621 E.00412
G1 X146.69 Y89.379 E.0703
G1 X146.728 Y89.265 E.00377
G1 X146.879 Y89.19 E.00529
G1 X149.121 Y89.19 E.0703
G1 X149.255 Y89.245 E.00454
G1 X149.31 Y89.379 E.00454
G1 X149.31 Y91.621 E.0703
G1 X149.235 Y91.772 E.00529
G1 X149.121 Y91.81 E.00377
G1 X146.879 Y91.81 E.0703
G1 X146.818 Y91.782 E.0021
G1 E-3.5 F3600
;WIPE_START
G1 F7200
G1 X146.763 Y91.757 E-.0287
G1 X146.736 Y91.744 E-.01423
G1 X146.69 Y91.621 E-.06238
G1 X146.69 Y89.379 E-1.06495
G1 X146.728 Y89.265 E-.05708
G1 X146.879 Y89.19 E-.08009
G1 X147.284 Y89.19 E-.19257
;WIPE_END
G1 X146.743 Y139.263 F9000
G1 E5 F2400
G1 F1200
G1 X146.756 Y139.236 E.00094
G1 X146.879 Y139.19 E.00412
G1 X149.121 Y139.19 E.0703
G1 X149.235 Y139.228 E.00377
G1 X149.31 Y139.379 E.00529
G1 X149.31 Y141.621 E.0703
G1 X149.255 Y141.755 E.00454
G1 X149.121 Y141.81 E.00454
G1 X146.879 Y141.81 E.0703
G1 X146.728 Y141.735 E.00529
G1 X146.69 Y141.621 E.00377
G1 X146.69 Y139.379 E.0703
G1 X146.718 Y139.318 E.0021
G1 E-3.5 F3600
;WIPE_START
G1 F7200
G1 X146.743 Y139.263 E-.0287
G1 X146.756 Y139.236 E-.01423
G1 X146.879 Y139.19 E-.06238
G1 X149.121 Y139.19 E-1.06495
G1 X149.235 Y139.228 E-.05708
G1 X149.31 Y139.379 E-.08009
G1 X149.31 Y139.784 E-.19257
;WIPE_END
G1 X81.25 Y89.379 F9000
G1 E5 F2400
;TYPE:Perimeter
;WIDTH:0.545842
G1 F1200
G1 X81.226 Y89.145 E.00984
;WIDTH:0.497969
G1 X81.202 Y88.912 E.00886
;WIDTH:0.450096
G1 X81.178 Y88.678 E.00796
;WIDTH:0.440508
G1 X81.326 Y88.697 E.00493
;WIDTH:0.478794
G1 X81.474 Y88.716 E.00541
;WIDTH:0.51708
G1 X81.621 Y88.736 E.00585
;WIDTH:0.555366
G1 X81.769 Y88.755 E.00636
G1 X81.698 Y88.812 E.00388
;WIDTH:0.51708
G1 X81.627 Y88.87 E.00361
;WIDTH:0.478794
G1 X81.556 Y88.927 E.0033
;WIDTH:0.440508
G1 X81.485 Y88.985 E.00303
;WIDTH:0.450096
G1 X81.407 Y89.116 E.00516
;WIDTH:0.497969
G1 X81.328 Y89.247 E.00579
;WIDTH:0.545842
G1 X81.281 Y89.327 E.00388
G1 X81.769 Y88.755 F9000
;WIDTH:0.555366
G1 F1200
G1 X81.879 Y88.75 E.00469
;WIDTH:0.545842
G1 X84.121 Y88.75 E.09376
G1 E-3.5 F3600
;WIPE_START
G1 F7200
G1 X81.879 Y88.75 E-1.06495
G1 X81.769 Y88.755 E-.0523
;WIPE_END
G1 E-.38275 F3600
G1 X81.879 Y142.25 F9000
G1 E5 F2400
G1 F1200
G1 X81.645 Y142.274 E.00984
;WIDTH:0.497969
G1 X81.412 Y142.298 E.00886
;WIDTH:0.450096
G1 X81.178 Y142.322 E.00796
;WIDTH:0.440508
G1 X81.197 Y142.174 E.00493
;WIDTH:0.478794
G1 X81.216 Y142.026 E.00541
;WIDTH:0.51708
G1 X81.236 Y141.879 E.00585
;WIDTH:0.555366
G1 X81.255 Y141.731 E.00636
G1 X81.312 Y141.802 E.00388
;WIDTH:0.51708
G1 X81.37 Y141.873 E.00361
;WIDTH:0.478794
G1 X81.427 Y141.944 E.0033
;WIDTH:0.440508
G1 X81.485 Y142.015 E.00303
;WIDTH:0.450096
G1 X81.616 Y142.093 E.00516
;WIDTH:0.497969
G1 X81.747 Y142.172 E.00579
;WIDTH:0.545842
G1 X81.827 Y142.219 E.00388
G1 X81.255 Y141.731 F9000
;WIDTH:0.555366
G1 F1200
G1 X81.25 Y141.621 E.00469
;WIDTH:0.545842
G1 X81.25 Y139.379 E.09376
G1 E-3.5 F3600
;WIPE_START
G1 F7200
G1 X81.25 Y141.621 E-1.06495
G1 X81.255 Y141.731 E-.0523
;WIPE_END
G1 E-.38275 F3600
G1 X149.231 Y142.245 F9000
G1 E5 F2400
;WIDTH:0.555366
G1 F1200
G1 X149.302 Y142.188 E.00388
;WIDTH:0.51708
G1 X149.373 Y142.13 E.00361
;WIDTH:0.478794
G1 X149.444 Y142.073 E.0033
;WIDTH:0.440508
G1 X149.573 Y141.944 E.00603
;WIDTH:0.478794
G1 X149.63 Y141.873 E.0033
;WIDTH:0.51708
G1 X149.688 Y141.802 E.00361
;WIDTH:0.555366
G1 X149.745 Y141.731 E.00388
G1 X149.764 Y141.879 E.00636
;WIDTH:0.51708
G1 X149.784 Y142.026 E.00585
;WIDTH:0.478794
G1 X149.803 Y142.174 E.00541
;WIDTH:0.440508
G1 X149.822 Y142.322 E.00493
G1 X149.674 Y142.303 E.00493
;WIDTH:0.478794
G1 X149.526 Y142.284 E.00541
;WIDTH:0.51708
G1 X149.379 Y142.264 E.00585
;WIDTH:0.555366
G1 X149.29 Y142.253 E.00382
G1 X149.231 Y142.245 F9000
G1 F1200
G1 X149.121 Y142.25 E.00469
;WIDTH:0.545842
G1 X146.879 Y142.25 E.09376
G1 E-3.5 F3600
;WIPE_START
G1 F7200
G1 X149.121 Y142.25 E-1.06495
G1 X149.231 Y142.245 E-.0523
;WIPE_END
G1 E-.38275 F3600
G1 X149.121 Y88.75 F9000
G1 E5 F2400
G1 F1200
G1 X149.355 Y88.726 E.00984
;WIDTH:0.497969
G1 X149.588 Y88.702 E.00886
;WIDTH:0.450095
G1 X149.822 Y88.678 E.00796
;WIDTH:0.402221
G1 X149.822 Y88.858 E.00538
;WIDTH:0.450095
G1 X149.798 Y89.031 E.00591
;WIDTH:0.497969
G1 X149.774 Y89.205 E.00665
;WIDTH:0.545842
G1 X149.75 Y89.379 E.00735
G1 X149.672 Y89.247 E.00641
;WIDTH:0.497969
G1 X149.593 Y89.116 E.00579
;WIDTH:0.450095
G1 X149.515 Y88.985 E.00516
G1 X149.384 Y88.907 E.00516
;WIDTH:0.497969
G1 X149.253 Y88.828 E.00579
;WIDTH:0.545842
G1 X149.173 Y88.781 E.00388
G1 X149.75 Y89.379 F9000
G1 F1200
G1 X149.75 Y91.621 E.09376
;WIDTH:0.555366
G1 X149.745 Y91.731 E.00469
G1 E-3.5 F3600
;WIPE_START
G1 F7200
G1 X149.75 Y91.621 E-.0523
G1 X149.75 Y89.379 E-1.06495
;WIPE_END
G1 E-.38275 F3600
G1 X81.255 Y91.731 F9000
G1 E5 F2400
G1 F1200
G1 X81.25 Y91.621 E.00469
;WIDTH:0.545842
G1 X81.25 Y89.379 E.09376
G1 E-3.5 F3600
;WIPE_START
G1 F7200
G1 X81.25 Y91.621 E-1.06495
G1 X81.255 Y91.731 E-.0523
;WIPE_END
G1 E-.38275 F3600
G1 X84.231 Y142.245 F9000
G1 E5 F2400
;WIDTH:0.555366
G1 F1200
G1 X84.121 Y142.25 E.00469
;WIDTH:0.545842
G1 X81.879 Y142.25 E.09376
G1 E-3.5 F3600
;WIPE_START
G1 F7200
G1 X84.121 Y142.25 E-1.06495
G1 X84.231 Y142.245 E-.0523
;WIPE_END
G1 E-.38275 F3600
G1 X149.75 Y139.379 F9000
G1 E5 F2400
G1 F1200
G1 X149.75 Y141.621 E.09376
;WIDTH:0.555366
G1 X149.745 Y141.731 E.00469
G1 E-3.5 F3600
;WIPE_START
G1 F7200
G1 X149.75 Y141.621 E-.0523
G1 X149.75 Y139.379 E-1.06495
;WIPE_END
G1 E-.38275 F3600
G1 X146.769 Y88.755 F9000
G1 E5 F2400
G1 F1200
G1 X146.879 Y88.75 E.00469
;WIDTH:0.545842
G1 X149.121 Y88.75 E.09376
G1 E-3.5 F3600
;WIPE_START
G1 F7200
G1 X146.879 Y88.75 E-1.06495
G1 X146.769 Y88.755 E-.0523
;WIPE_END
G1 E-.38275 F3600
G1 X145.936 Y91.242 F9000
G1 E5 F2400
;WIDTH:0.419999
G1 F1200
G1 X145.936 Y91.621 E.01188
G1 X146.002 Y91.968 E.01107
G1 X146.212 Y92.288 E.012
G1 X146.532 Y92.498 E.012
G1 X146.879 Y92.564 E.01107
G1 X149.121 Y92.564 E.0703
G1 X149.436 Y92.459 E.01041
G1 X149.436 Y138.541 E1.44487
G1 X149.121 Y138.436 E.01041
G1 X146.879 Y138.436 E.0703
G1 X146.532 Y138.502 E.01107
G1 X146.212 Y138.712 E.012
G1 X146.002 Y139.032 E.012
G1 X145.936 Y139.379 E.01107
G1 X145.936 Y141.621 E.0703
G1 X146.041 Y141.936 E.01041
G1 X84.959 Y141.936 E1.91518
G1 X85.064 Y141.621 E.01041
G1 X85.064 Y139.379 E.0703
G1 X84.998 Y139.032 E.01107
G1 X84.788 Y138.712 E.012
G1 X84.468 Y138.502 E.012
G1 X84.121 Y138.436 E.01107
G1 X81.879 Y138.436 E.0703
G1 X81.564 Y138.541 E.01041
G1 X81.564 Y92.459 E1.44487
G1 X81.879 Y92.564 E.01041
G1 X84.121 Y92.564 E.0703
G1 X84.468 Y92.498 E.01107
G1 X84.788 Y92.288 E.012
G1 X84.998 Y91.968 E.012
G1 X85.064 Y91.621 E.01107
G1 X85.064 Y89.379 E.0703
G1 X84.959 Y89.064 E.01041
G1 X146.041 Y89.064 E1.91518
G1 X145.936 Y89.379 E.01041
G1 X145.936 Y91.182 E.05653
G1 X146.313 Y90.692 F9000
G1 F1200
G1 X146.313 Y91.621 E.02913
G1 X146.325 Y91.739 E.00372
G1 X146.418 Y91.95 E.00723
G1 X146.602 Y92.115 E.00775
G1 X146.879 Y92.187 E.00897
G1 X149.121 Y92.187 E.0703
G1 X149.461 Y92.074 E.01123
;WIDTH:0.465122
G1 X149.556 Y91.96 E.00521
;WIDTH:0.510244
G1 X149.65 Y91.845 E.00577
;WIDTH:0.555366
G1 X149.745 Y91.731 E.00632
G1 X149.768 Y91.904 E.00744
;WIDTH:0.510244
G1 X149.79 Y92.077 E.00678
;WIDTH:0.465122
G1 X149.813 Y92.25 E.00613
;WIDTH:0.419999
G1 X149.813 Y138.75 E1.45797
;WIDTH:0.461947
G1 X149.792 Y138.96 E.00735
;WIDTH:0.503895
G1 X149.771 Y139.169 E.00805
;WIDTH:0.545842
G1 X149.75 Y139.379 E.00883
G1 X149.654 Y139.228 E.00748
;WIDTH:0.503895
G1 X149.557 Y139.077 E.00688
;WIDTH:0.461947
G1 X149.461 Y138.926 E.00623
;WIDTH:0.419999
G1 X149.121 Y138.813 E.01123
G1 X146.879 Y138.813 E.0703
G1 X146.761 Y138.825 E.00372
G1 X146.55 Y138.918 E.00723
G1 X146.385 Y139.102 E.00775
G1 X146.313 Y139.379 E.00897
G1 X146.313 Y141.621 E.0703
G1 X146.426 Y141.961 E.01123
;WIDTH:0.461947
G1 X146.577 Y142.057 E.00623
;WIDTH:0.503895
G1 X146.728 Y142.154 E.00688
;WIDTH:0.545842
G1 X146.879 Y142.25 E.00748
G1 X146.669 Y142.271 E.00883
;WIDTH:0.503895
G1 X146.46 Y142.292 E.00805
;WIDTH:0.461947
G1 X146.25 Y142.313 E.00735
;WIDTH:0.419999
G1 X84.75 Y142.313 E1.92829
;WIDTH:0.465122
G1 X84.577 Y142.29 E.00613
;WIDTH:0.510244
G1 X84.404 Y142.268 E.00678
;WIDTH:0.555366
G1 X84.231 Y142.245 E.00744
G1 X84.345 Y142.15 E.00632
;WIDTH:0.510244
G1 X84.46 Y142.056 E.00577
;WIDTH:0.465122
G1 X84.574 Y141.961 E.00521
;WIDTH:0.419999
G1 X84.687 Y141.621 E.01123
G1 X84.687 Y139.379 E.0703
G1 X84.675 Y139.261 E.00372
G1 X84.582 Y139.05 E.00723
G1 X84.398 Y138.885 E.00775
G1 X84.121 Y138.813 E.00897
G1 X81.879 Y138.813 E.0703
G1 X81.539 Y138.926 E.01123
;WIDTH:0.461947
G1 X81.443 Y139.077 E.00623
;WIDTH:0.503895
G1 X81.346 Y139.228 E.00688
;WIDTH:0.545842
G1 X81.25 Y139.379 E.00748
G1 X81.229 Y139.169 E.00883
;WIDTH:0.503895
G1 X81.208 Y138.96 E.00805
;WIDTH:0.461947
G1 X81.187 Y138.75 E.00735
;WIDTH:0.419999
G1 X81.187 Y92.25 E1.45797
;WIDTH:0.465122
G1 X81.21 Y92.077 E.00613
;WIDTH:0.510244
G1 X81.232 Y91.904 E.00678
;WIDTH:0.555366
G1 X81.255 Y91.731 E.00744
G1 X81.35 Y91.845 E.00632
;WIDTH:0.510244
G1 X81.444 Y91.96 E.00577
;WIDTH:0.465122
G1 X81.539 Y92.074 E.00521
;WIDTH:0.419999
G1 X81.879 Y92.187 E.01123
G1 X84.121 Y92.187 E.0703
G1 X84.239 Y92.175 E.00372
G1 X84.45 Y92.082 E.00723
G1 X84.615 Y91.898 E.00775
G1 X84.687 Y91.621 E.00897
G1 X84.687 Y89.379 E.0703
G1 X84.574 Y89.039 E.01123
;WIDTH:0.461947
G1 X84.423 Y88.943 E.00623
;WIDTH:0.503895
G1 X84.272 Y88.846 E.00688
;WIDTH:0.545842
G1 X84.121 Y88.75 E.00748
G1 X84.331 Y88.729 E.00883
;WIDTH:0.503895
G1 X84.54 Y88.708 E.00805
;WIDTH:0.461947
G1 X84.75 Y88.687 E.00735
;WIDTH:0.419999
G1 X146.25 Y88.687 E1.92829
;WIDTH:0.465122
G1 X146.423 Y88.71 E.00613
;WIDTH:0.510244
G1 X146.596 Y88.732 E.00678
;WIDTH:0.555366
G1 X146.769 Y88.755 E.00744
G1 X146.655 Y88.85 E.00632
;WIDTH:0.510244
G1 X146.54 Y88.944 E.00577
;WIDTH:0.465122
G1 X146.426 Y89.039 E.00521
;WIDTH:0.419999
G1 X146.313 Y89.379 E.01123
G1 X146.313 Y90.632 E.03929
G1 E-3.5 F3600
;WIPE_START
G1 F7200
G1 X146.313 Y90.692 E-.0285
G1 X146.313 Y91.621 E-.44127
G1 X146.325 Y91.739 E-.05634
G1 X146.418 Y91.95 E-.10953
G1 X146.602 Y92.115 E-.11739
G1 X146.879 Y92.187 E-.13595
G1 X148.166 Y92.187 E-.61102
;WIPE_END
G1 X150.19 Y88.31 F9000
G1 E5 F2400
;TYPE:External perimeter
G1 F1200
G1 X150.19 Y88.858 E.01718
G1 X150.19 Y142.69 E1.68786
G1 X80.81 Y142.69 E2.17536
G1 X80.81 Y88.31 E1.70504
G1 X150.13 Y88.31 E2.17348
G1 E-3.5 F3600
;WIPE_START
G1 F7200
G1 X150.19 Y88.31 E-.0285
G1 X150.19 Y88.858 E-.2603
G1 X150.19 Y91.408 E-1.2112
;WIPE_END
G1 X145.815 Y89.949 F9000
G1 E5 F2400
;TYPE:Solid infill
;WIDTH:0.420942
G1 F1200
G1 X145.221 Y89.355 E.0264
G1 X144.686 Y89.355 E.01682
G1 X145.645 Y90.314 E.04263
G1 X145.645 Y90.849 E.01682
G1 X144.151 Y89.355 E.06641
G1 X143.617 Y89.355 E.01679
G1 X145.815 Y91.553 E.09771
G1 E-3.5 F3600
;WIPE_START
G1 F7200
G1 X143.617 Y89.355 E-1.47651
G1 X143.666 Y89.355 E-.02349
;WIPE_END
G1 X148.551 Y92.685 F9000
G1 E5 F2400
G1 F1200
G1 X149.145 Y93.279 E.0264
G1 X149.145 Y93.814 E.01682
G1 X148.186 Y92.855 E.04263
G1 X147.651 Y92.855 E.01682
G1 X149.145 Y94.349 E.06641
G1 X149.145 Y94.883 E.01679
G1 X146.947 Y92.685 E.09771
G1 E-3.5 F3600
;WIPE_START
G1 F7200
G1 X149.145 Y94.883 E-1.47651
G1 X149.145 Y94.834 E-.02349
;WIPE_END
G1 X149.315 Y95.588 F9000
G1 E5 F2400
G1 F1200
G1 X143.082 Y89.355 E.27707
G1 X142.548 Y89.355 E.01679
G1 X149.145 Y95.952 E.29325
G1 X149.145 Y96.487 E.01682
G1 X142.013 Y89.355 E.31704
G1 X141.478 Y89.355 E.01682
G1 X149.145 Y97.022 E.34082
G1 X149.145 Y97.556 E.01679
G1 X140.944 Y89.355 E.36455
G1 X140.409 Y89.355 E.01682
G1 X149.145 Y98.091 E.38834
G1 X149.145 Y98.625 E.01679
G1 X139.875 Y89.355 E.41207
G1 X139.34 Y89.355 E.01682
G1 X149.145 Y99.16 E.43586
G1 X149.145 Y99.695 E.01682
G1 X138.805 Y89.355 E.45964
G1 X138.271 Y89.355 E.01679
G1 X149.145 Y100.229 E.48338
G1 X149.145 Y100.764 E.01682
G1 X137.736 Y89.355 E.50716
G1 X137.202 Y89.355 E.01679
G1 X149.145 Y101.298 E.5309
G1 X149.145 Y101.833 E.01682
G1 X136.667 Y89.355 E.55468
G1 X136.132 Y89.355 E.01682
G1 X149.145 Y102.368 E.57846
G1 X149.145 Y102.902 E.01679
G1 X135.598 Y89.355 E.6022
G1 X135.063 Y89.355 E.01682
G1 X149.145 Y103.437 E.62598
G1 X149.145 Y103.971 E.01679
G1 X134.529 Y89.355 E.64972
G1 X133.994 Y89.355 E.01682
G1 X149.145 Y104.506 E.6735
G1 X149.145 Y105.041 E.01682
G1 X133.459 Y89.355 E.69728
G1 X132.925 Y89.355 E.01679
G1 X149.145 Y105.575 E.72102
G1 X149.145 Y106.11 E.01682
G1 X132.39 Y89.355 E.7448
G1 X131.856 Y89.355 E.01679
G1 X149.145 Y106.645 E.76856
G1 X149.145 Y107.179 E.01679
G1 X131.321 Y89.355 E.79232
G1 X130.786 Y89.355 E.01682
G1 X149.145 Y107.714 E.8161
G1 X149.145 Y108.248 E.01679
G1 X130.252 Y89.355 E.83984
G1 X129.717 Y89.355 E.01682
G1 X149.145 Y108.783 E.86362
G1 X149.145 Y109.318 E.01682
G1 X129.182 Y89.355 E.88741
G1 X128.648 Y89.355 E.01679
G1 X149.145 Y109.852 E.91114
G1 X149.145 Y110.387 E.01682
G1 X128.113 Y89.355 E.93492
G1 X127.579 Y89.355 E.01679
G1 X149.145 Y110.921 E.95866
G1 X149.145 Y111.456 E.01682
G1 X127.044 Y89.355 E.98244
G1 X126.509 Y89.355 E.01682
G1 X149.145 Y111.991 E1.00623
G1 X149.145 Y112.525 E.01679
G1 X125.975 Y89.355 E1.02996
