; generated by PrusaSlicer 2.9.3 on 2025-10-04 at 04:18:14 UTC

; 

; external perimeters extrusion width = 0.42mm
; perimeters extrusion width = 0.44mm
; infill extrusion width = 0.44mm
; solid infill extrusion width = 0.44mm
; top infill extrusion width = 0.40mm
; support material extrusion width = 0.36mm
; first layer extrusion width = 0.42mm

M201 X500 Y500 Z100 E5000 ; sets maximum accelerations, mm/sec^2
M203 X500 Y500 Z10 E60 ; sets maximum feedrates, mm / sec
M204 S500 T1000 ; sets acceleration (S) and retract acceleration (R), mm/sec^2
M205 X8.00 Y8.00 Z0.40 E5.00 ; sets the jerk limits, mm/sec
M205 S0 T0 ; sets the minimum extruding and travel feed rate, mm/sec

; printing object RpiPICO2W_RelayBox-Body id:0 copy 0
; stop printing object RpiPICO2W_RelayBox-Body id:0 copy 0

;TYPE:Custom
G90 ; use absolute coordinates
M83 ; extruder relative mode
M104 S150 ; set temporary nozzle temp to prevent oozing during homing
M140 S80 ; set final bed temp
G4 S30 ; allow partial nozzle warmup
G28 ; home all axis
G1 Z50 F240
G1 X2.0 Y10 F3000
M104 S240 ; set final nozzle temp
M190 S80 ; wait for bed temp to stabilize
M109 S240 ; wait for nozzle temp to stabilize
G1 Z0.28 F240
G92 E0
G1 X2.0 Y140 E10 F1500 ; prime the nozzle
G1 X2.3 Y140 F5000
G92 E0
G1 X2.3 Y10 E10 F1200 ; prime the nozzle
G92 E0
G21 ; set units to millimeters
G90 ; use absolute coordinates
M83 ; use relative distances for extrusion
; Filament gcode
M107
;LAYER_CHANGE
;Z:0.2
;HEIGHT:0.2
G1 E-5 F3600
G1 Z.2 F9000
; printing object RpiPICO2W_RelayBox-Body id:0 copy 0
G1 X164.546 Y97.375
G1 E5 F2400
M204 S500
;TYPE:Support material
;WIDTH:0.42
G1 F1200
G1 X160.962 Y97.375 E.11237
G1 X160.962 Y93.309 E.12749
G1 X160.691 Y93.038 E.01202
G1 X116.962 Y93.038 E1.37109
G1 X116.962 Y87.809 E.16395
G1 X116.691 Y87.538 E.01202
G1 X114.309 Y87.538 E.07469
G1 X114.038 Y87.809 E.01202
G1 X114.038 Y93.038 E.16395
G1 X70.309 Y93.038 E1.37109
G1 X70.038 Y93.309 E.01202
G1 X70.038 Y97.375 E.12749
G1 X66.454 Y97.375 E.11237
G1 X66.454 Y84.893 E.39136
G1 X164.546 Y84.893 E3.07561
G1 X164.546 Y97.319 E.38961
G1 X164.101 Y97.206 F9000
G1 F1200
G1 X164.101 Y85.232 E.37544
G1 X163.682 Y85.232 E.01314
G1 X163.682 Y97.036 E.37011
G1 X163.263 Y97.036 E.01314
G1 X163.263 Y85.232 E.37011
G1 X162.844 Y85.232 E.01314
G1 X162.844 Y97.036 E.37011
G1 X162.425 Y97.036 E.01314
G1 X162.425 Y85.232 E.37011
G1 X162.006 Y85.232 E.01314
G1 X162.006 Y97.036 E.37011
G1 X161.587 Y97.036 E.01314
G1 X161.587 Y85.232 E.37011
G1 X161.168 Y85.232 E.01314
G1 X161.168 Y93.035 E.24466
G1 X160.832 Y92.699 E.0149
G1 X160.75 Y92.699 E.00257
G1 X160.75 Y85.232 E.23412
G1 X160.331 Y85.232 E.01314
G1 X160.331 Y92.699 E.23412
G1 X159.912 Y92.699 E.01314
G1 X159.912 Y85.232 E.23412
G1 X159.493 Y85.232 E.01314
G1 X159.493 Y92.699 E.23412
G1 X159.074 Y92.699 E.01314
G1 X159.074 Y85.232 E.23412
G1 X158.655 Y85.232 E.01314
G1 X158.655 Y92.699 E.23412
G1 X158.236 Y92.699 E.01314
G1 X158.236 Y85.232 E.23412
G1 X157.817 Y85.232 E.01314
G1 X157.817 Y92.699 E.23412
G1 X157.398 Y92.699 E.01314
G1 X157.398 Y85.232 E.23412
G1 X156.979 Y85.232 E.01314
G1 X156.979 Y92.699 E.23412
G1 X156.56 Y92.699 E.01314
G1 X156.56 Y85.232 E.23412
G1 X156.141 Y85.232 E.01314
G1 X156.141 Y92.699 E.23412
G1 X155.722 Y92.699 E.01314
G1 X155.722 Y85.232 E.23412
G1 X155.303 Y85.232 E.01314
G1 X155.303 Y92.699 E.23412
G1 X154.884 Y92.699 E.01314
G1 X154.884 Y85.232 E.23412
G1 X154.465 Y85.232 E.01314
G1 X154.465 Y92.699 E.23412
G1 X154.046 Y92.699 E.01314
G1 X154.046 Y85.232 E.23412
G1 X153.627 Y85.232 E.01314
G1 X153.627 Y92.699 E.23412
G1 X153.208 Y92.699 E.01314
G1 X153.208 Y85.232 E.23412
G1 X152.789 Y85.232 E.01314
G1 X152.789 Y92.699 E.23412
G1 X152.37 Y92.699 E.01314
G1 X152.37 Y85.232 E.23412
G1 X151.951 Y85.232 E.01314
G1 X151.951 Y92.699 E.23412
G1 X151.532 Y92.699 E.01314
G1 X151.532 Y85.232 E.23412
G1 X151.113 Y85.232 E.01314
G1 X151.113 Y92.699 E.23412
G1 X150.694 Y92.699 E.01314
G1 X150.694 Y85.232 E.23412
G1 X150.275 Y85.232 E.01314
G1 X150.275 Y92.699 E.23412
G1 X149.856 Y92.699 E.01314
G1 X149.856 Y85.232 E.23412
G1 X149.437 Y85.232 E.01314
G1 X149.437 Y92.699 E.23412
G1 X149.018 Y92.699 E.01314
G1 X149.018 Y85.232 E.23412
G1 X148.599 Y85.232 E.01314
G1 X148.599 Y92.699 E.23412
G1 X148.18 Y92.699 E.01314
G1 X148.18 Y85.232 E.23412
G1 X147.761 Y85.232 E.01314
G1 X147.761 Y92.699 E.23412
G1 X147.342 Y92.699 E.01314
G1 X147.342 Y85.232 E.23412
G1 X146.923 Y85.232 E.01314
G1 X146.923 Y92.699 E.23412
G1 X146.504 Y92.699 E.01314
G1 X146.504 Y85.232 E.23412
G1 X146.085 Y85.232 E.01314
G1 X146.085 Y92.699 E.23412
G1 X145.666 Y92.699 E.01314
G1 X145.666 Y85.232 E.23412
G1 X145.247 Y85.232 E.01314
G1 X145.247 Y92.699 E.23412
G1 X144.828 Y92.699 E.01314
G1 X144.828 Y85.232 E.23412
G1 X144.409 Y85.232 E.01314
G1 X144.409 Y92.699 E.23412
G1 X143.99 Y92.699 E.01314
G1 X143.99 Y85.232 E.23412
G1 X143.571 Y85.232 E.01314
G1 X143.571 Y92.699 E.23412
G1 X143.152 Y92.699 E.01314
G1 X143.152 Y85.232 E.23412
G1 X142.734 Y85.232 E.01311
G1 X142.734 Y92.699 E.23412
G1 X142.315 Y92.699 E.01314
G1 X142.315 Y85.232 E.23412
G1 X141.896 Y85.232 E.01314
G1 X141.896 Y92.699 E.23412
G1 X141.477 Y92.699 E.01314
G1 X141.477 Y85.232 E.23412
G1 X141.058 Y85.232 E.01314
G1 X141.058 Y92.699 E.23412
G1 X140.639 Y92.699 E.01314
G1 X140.639 Y85.232 E.23412
G1 X140.22 Y85.232 E.01314
G1 X140.22 Y92.699 E.23412
G1 X139.801 Y92.699 E.01314
G1 X139.801 Y85.232 E.23412
G1 X139.382 Y85.232 E.01314
G1 X139.382 Y92.699 E.23412
G1 X138.963 Y92.699 E.01314
G1 X138.963 Y85.232 E.23412
G1 X138.544 Y85.232 E.01314
G1 X138.544 Y92.699 E.23412
G1 X138.125 Y92.699 E.01314
G1 X138.125 Y85.232 E.23412
G1 X137.706 Y85.232 E.01314
G1 X137.706 Y92.699 E.23412
G1 X137.287 Y92.699 E.01314
G1 X137.287 Y85.232 E.23412
G1 X136.868 Y85.232 E.01314
G1 X136.868 Y92.699 E.23412
G1 X136.449 Y92.699 E.01314
G1 X136.449 Y85.232 E.23412
G1 X136.03 Y85.232 E.01314
G1 X136.03 Y92.699 E.23412
G1 X135.611 Y92.699 E.01314
G1 X135.611 Y85.232 E.23412
G1 X135.192 Y85.232 E.01314
G1 X135.192 Y92.699 E.23412
G1 X134.773 Y92.699 E.01314
G1 X134.773 Y85.232 E.23412
G1 X134.354 Y85.232 E.01314
G1 X134.354 Y92.699 E.23412
G1 X133.935 Y92.699 E.01314
G1 X133.935 Y85.232 E.23412
G1 X133.516 Y85.232 E.01314
G1 X133.516 Y92.699 E.23412
G1 X133.097 Y92.699 E.01314
G1 X133.097 Y85.232 E.23412
G1 X132.678 Y85.232 E.01314
G1 X132.678 Y92.699 E.23412
G1 X132.259 Y92.699 E.01314
G1 X132.259 Y85.232 E.23412
G1 X131.84 Y85.232 E.01314
G1 X131.84 Y92.699 E.23412
G1 X131.421 Y92.699 E.01314
G1 X131.421 Y85.232 E.23412
G1 X131.002 Y85.232 E.01314
G1 X131.002 Y92.699 E.23412
G1 X130.583 Y92.699 E.01314
G1 X130.583 Y85.232 E.23412
G1 X130.164 Y85.232 E.01314
G1 X130.164 Y92.699 E.23412
G1 X129.745 Y92.699 E.01314
G1 X129.745 Y85.232 E.23412
G1 X129.326 Y85.232 E.01314
G1 X129.326 Y92.699 E.23412
G1 X128.907 Y92.699 E.01314
G1 X128.907 Y85.232 E.23412
G1 X128.488 Y85.232 E.01314
G1 X128.488 Y92.699 E.23412
G1 X128.069 Y92.699 E.01314
G1 X128.069 Y85.232 E.23412
G1 X127.65 Y85.232 E.01314
G1 X127.65 Y92.699 E.23412
G1 X127.231 Y92.699 E.01314
G1 X127.231 Y85.232 E.23412
G1 X126.812 Y85.232 E.01314
G1 X126.812 Y92.699 E.23412
G1 X126.393 Y92.699 E.01314
G1 X126.393 Y85.232 E.23412
G1 X125.974 Y85.232 E.01314
G1 X125.974 Y92.699 E.23412
G1 X125.555 Y92.699 E.01314
G1 X125.555 Y85.232 E.23412
G1 X125.136 Y85.232 E.01314
G1 X125.136 Y92.699 E.23412
G1 X124.717 Y92.699 E.01314
G1 X124.717 Y85.232 E.23412
G1 X124.299 Y85.232 E.01311
G1 X124.299 Y92.699 E.23412
G1 X123.88 Y92.699 E.01314
G1 X123.88 Y85.232 E.23412
G1 X123.461 Y85.232 E.01314
G1 X123.461 Y92.699 E.23412
G1 X123.042 Y92.699 E.01314
G1 X123.042 Y85.232 E.23412
G1 X122.623 Y85.232 E.01314
G1 X122.623 Y92.699 E.23412
G1 X122.204 Y92.699 E.01314
G1 X122.204 Y85.232 E.23412
G1 X121.785 Y85.232 E.01314
G1 X121.785 Y92.699 E.23412
G1 X121.366 Y92.699 E.01314
G1 X121.366 Y85.232 E.23412
G1 X120.947 Y85.232 E.01314
G1 X120.947 Y92.699 E.23412
G1 X120.528 Y92.699 E.01314
G1 X120.528 Y85.232 E.23412
G1 X120.109 Y85.232 E.01314
G1 X120.109 Y92.699 E.23412
G1 X119.69 Y92.699 E.01314
G1 X119.69 Y85.232 E.23412
G1 X119.271 Y85.232 E.01314
G1 X119.271 Y92.699 E.23412
G1 X118.852 Y92.699 E.01314
G1 X118.852 Y85.232 E.23412
G1 X118.433 Y85.232 E.01314
G1 X118.433 Y92.699 E.23412
G1 X118.014 Y92.699 E.01314
G1 X118.014 Y85.232 E.23412
G1 X117.595 Y85.232 E.01314
G1 X117.595 Y92.699 E.23412
G1 X117.301 Y92.699 E.00922
G1 X117.301 Y87.668 E.15774
G1 X117.176 Y87.543 E.00554
G1 X117.176 Y85.232 E.07246
G1 X116.757 Y85.232 E.01314
G1 X116.757 Y87.199 E.06167
G1 X116.338 Y87.199 E.01314
G1 X116.338 Y85.232 E.06167
G1 X115.919 Y85.232 E.01314
G1 X115.919 Y87.199 E.06167
G1 X115.5 Y87.199 E.01314
G1 X115.5 Y85.232 E.06167
G1 X115.081 Y85.232 E.01314
G1 X115.081 Y87.199 E.06167
G1 X114.662 Y87.199 E.01314
G1 X114.662 Y85.232 E.06167
G1 X114.243 Y85.232 E.01314
G1 X114.243 Y87.199 E.06167
G1 X113.824 Y87.543 E.017
G1 X113.824 Y85.232 E.07246
G1 X113.405 Y85.232 E.01314
G1 X113.405 Y92.699 E.23412
G1 X112.986 Y92.699 E.01314
G1 X112.986 Y85.232 E.23412
G1 X112.567 Y85.232 E.01314
G1 X112.567 Y92.699 E.23412
G1 X112.148 Y92.699 E.01314
G1 X112.148 Y85.232 E.23412
G1 X111.729 Y85.232 E.01314
G1 X111.729 Y92.699 E.23412
G1 X111.31 Y92.699 E.01314
G1 X111.31 Y85.232 E.23412
G1 X110.891 Y85.232 E.01314
G1 X110.891 Y92.699 E.23412
G1 X110.472 Y92.699 E.01314
G1 X110.472 Y85.232 E.23412
G1 X110.053 Y85.232 E.01314
G1 X110.053 Y92.699 E.23412
G1 X109.634 Y92.699 E.01314
G1 X109.634 Y85.232 E.23412
G1 X109.215 Y85.232 E.01314
G1 X109.215 Y92.699 E.23412
G1 X108.796 Y92.699 E.01314
G1 X108.796 Y85.232 E.23412
G1 X108.377 Y85.232 E.01314
G1 X108.377 Y92.699 E.23412
G1 X107.958 Y92.699 E.01314
G1 X107.958 Y85.232 E.23412
G1 X107.539 Y85.232 E.01314
G1 X107.539 Y92.699 E.23412
G1 X107.12 Y92.699 E.01314
G1 X107.12 Y85.232 E.23412
G1 X106.701 Y85.232 E.01314
G1 X106.701 Y92.699 E.23412
G1 X106.283 Y92.699 E.01311
G1 X106.283 Y85.232 E.23412
G1 X105.864 Y85.232 E.01314
G1 X105.864 Y92.699 E.23412
G1 X105.445 Y92.699 E.01314
G1 X105.445 Y85.232 E.23412
G1 X105.026 Y85.232 E.01314
G1 X105.026 Y92.699 E.23412
G1 X104.607 Y92.699 E.01314
G1 X104.607 Y85.232 E.23412
G1 X104.188 Y85.232 E.01314
G1 X104.188 Y92.699 E.23412
G1 X103.769 Y92.699 E.01314
G1 X103.769 Y85.232 E.23412
G1 X103.35 Y85.232 E.01314
G1 X103.35 Y92.699 E.23412
G1 X102.931 Y92.699 E.01314
G1 X102.931 Y85.232 E.23412
G1 X102.512 Y85.232 E.01314
G1 X102.512 Y92.699 E.23412
G1 X102.093 Y92.699 E.01314
G1 X102.093 Y85.232 E.23412
G1 X101.674 Y85.232 E.01314
G1 X101.674 Y92.699 E.23412
G1 X101.255 Y92.699 E.01314
G1 X101.255 Y85.232 E.23412
G1 X100.836 Y85.232 E.01314
G1 X100.836 Y92.699 E.23412
G1 X100.417 Y92.699 E.01314
G1 X100.417 Y85.232 E.23412
G1 X99.998 Y85.232 E.01314
G1 X99.998 Y92.699 E.23412
G1 X99.579 Y92.699 E.01314
G1 X99.579 Y85.232 E.23412
G1 X99.16 Y85.232 E.01314
G1 X99.16 Y92.699 E.23412
G1 X98.741 Y92.699 E.01314
G1 X98.741 Y85.232 E.23412
G1 X98.322 Y85.232 E.01314
G1 X98.322 Y92.699 E.23412
G1 X97.903 Y92.699 E.01314
G1 X97.903 Y85.232 E.23412
G1 X97.484 Y85.232 E.01314
G1 X97.484 Y92.699 E.23412
G1 X97.065 Y92.699 E.01314
G1 X97.065 Y85.232 E.23412
G1 X96.646 Y85.232 E.01314
G1 X96.646 Y92.699 E.23412
G1 X96.227 Y92.699 E.01314
G1 X96.227 Y85.232 E.23412
G1 X95.808 Y85.232 E.01314
G1 X95.808 Y92.699 E.23412
G1 X95.389 Y92.699 E.01314
G1 X95.389 Y85.232 E.23412
G1 X94.97 Y85.232 E.01314
G1 X94.97 Y92.699 E.23412
G1 X94.551 Y92.699 E.01314
G1 X94.551 Y85.232 E.23412
G1 X94.132 Y85.232 E.01314
G1 X94.132 Y92.699 E.23412
G1 X93.713 Y92.699 E.01314
G1 X93.713 Y85.232 E.23412
G1 X93.294 Y85.232 E.01314
G1 X93.294 Y92.699 E.23412
G1 X92.875 Y92.699 E.01314
G1 X92.875 Y85.232 E.23412
G1 X92.456 Y85.232 E.01314
G1 X92.456 Y92.699 E.23412
G1 X92.037 Y92.699 E.01314
G1 X92.037 Y85.232 E.23412
G1 X91.618 Y85.232 E.01314
G1 X91.618 Y92.699 E.23412
G1 X91.199 Y92.699 E.01314
G1 X91.199 Y85.232 E.23412
G1 X90.78 Y85.232 E.01314
G1 X90.78 Y92.699 E.23412
G1 X90.361 Y92.699 E.01314
G1 X90.361 Y85.232 E.23412
G1 X89.942 Y85.232 E.01314
G1 X89.942 Y92.699 E.23412
G1 X89.523 Y92.699 E.01314
G1 X89.523 Y85.232 E.23412
G1 X89.104 Y85.232 E.01314
G1 X89.104 Y92.699 E.23412
G1 X88.685 Y92.699 E.01314
G1 X88.685 Y85.232 E.23412
G1 X88.266 Y85.232 E.01314
G1 X88.266 Y92.699 E.23412
G1 X87.848 Y92.699 E.01311
G1 X87.848 Y85.232 E.23412
G1 X87.429 Y85.232 E.01314
G1 X87.429 Y92.699 E.23412
G1 X87.01 Y92.699 E.01314
G1 X87.01 Y85.232 E.23412
G1 X86.591 Y85.232 E.01314
G1 X86.591 Y92.699 E.23412
G1 X86.172 Y92.699 E.01314
G1 X86.172 Y85.232 E.23412
G1 X85.753 Y85.232 E.01314
G1 X85.753 Y92.699 E.23412
G1 X85.334 Y92.699 E.01314
G1 X85.334 Y85.232 E.23412
G1 X84.915 Y85.232 E.01314
G1 X84.915 Y92.699 E.23412
G1 X84.496 Y92.699 E.01314
G1 X84.496 Y85.232 E.23412
G1 X84.077 Y85.232 E.01314
G1 X84.077 Y92.699 E.23412
G1 X83.658 Y92.699 E.01314
G1 X83.658 Y85.232 E.23412
G1 X83.239 Y85.232 E.01314
G1 X83.239 Y92.699 E.23412
G1 X82.82 Y92.699 E.01314
G1 X82.82 Y85.232 E.23412
G1 X82.401 Y85.232 E.01314
G1 X82.401 Y92.699 E.23412
G1 X81.982 Y92.699 E.01314
G1 X81.982 Y85.232 E.23412
G1 X81.563 Y85.232 E.01314
G1 X81.563 Y92.699 E.23412
G1 X81.144 Y92.699 E.01314
G1 X81.144 Y85.232 E.23412
G1 X80.725 Y85.232 E.01314
G1 X80.725 Y92.699 E.23412
G1 X80.306 Y92.699 E.01314
G1 X80.306 Y85.232 E.23412
G1 X79.887 Y85.232 E.01314
G1 X79.887 Y92.699 E.23412
G1 X79.468 Y92.699 E.01314
G1 X79.468 Y85.232 E.23412
G1 X79.049 Y85.232 E.01314
G1 X79.049 Y92.699 E.23412
G1 X78.63 Y92.699 E.01314
G1 X78.63 Y85.232 E.23412
G1 X78.211 Y85.232 E.01314
G1 X78.211 Y92.699 E.23412
G1 X77.792 Y92.699 E.01314
G1 X77.792 Y85.232 E.23412
G1 X77.373 Y85.232 E.01314
G1 X77.373 Y92.699 E.23412
G1 X76.954 Y92.699 E.01314
G1 X76.954 Y85.232 E.23412
G1 X76.535 Y85.232 E.01314
G1 X76.535 Y92.699 E.23412
G1 X76.116 Y92.699 E.01314
G1 X76.116 Y85.232 E.23412
G1 X75.697 Y85.232 E.01314
G1 X75.697 Y92.699 E.23412
G1 X75.278 Y92.699 E.01314
G1 X75.278 Y85.232 E.23412
G1 X74.859 Y85.232 E.01314
G1 X74.859 Y92.699 E.23412
G1 X74.44 Y92.699 E.01314
G1 X74.44 Y85.232 E.23412
G1 X74.021 Y85.232 E.01314
G1 X74.021 Y92.699 E.23412
G1 X73.602 Y92.699 E.01314
G1 X73.602 Y85.232 E.23412
G1 X73.183 Y85.232 E.01314
G1 X73.183 Y92.699 E.23412
G1 X72.764 Y92.699 E.01314
G1 X72.764 Y85.232 E.23412
G1 X72.345 Y85.232 E.01314
G1 X72.345 Y92.699 E.23412
G1 X71.926 Y92.699 E.01314
G1 X71.926 Y85.232 E.23412
G1 X71.507 Y85.232 E.01314
G1 X71.507 Y92.699 E.23412
G1 X71.088 Y92.699 E.01314
G1 X71.088 Y85.232 E.23412
G1 X70.669 Y85.232 E.01314
G1 X70.669 Y92.699 E.23412
G1 X70.25 Y92.699 E.01314
G1 X70.25 Y85.232 E.23412
G1 X69.832 Y85.232 E.01311
G1 X69.832 Y93.035 E.24466
G1 X69.699 Y93.168 E.0059
G1 X69.699 Y97.036 E.12128
G1 X69.413 Y97.036 E.00897
G1 X69.413 Y85.232 E.37011
G1 X68.994 Y85.232 E.01314
G1 X68.994 Y97.036 E.37011
G1 X68.575 Y97.036 E.01314
G1 X68.575 Y85.232 E.37011
G1 X68.156 Y85.232 E.01314
G1 X68.156 Y97.036 E.37011
G1 X67.737 Y97.036 E.01314
G1 X67.737 Y85.232 E.37011
G1 X67.318 Y85.232 E.01314
G1 X67.318 Y97.036 E.37011
G1 X66.899 Y97.036 E.01314
G1 X66.899 Y85.063 E.37541
G1 E-3.5 F3600
;WIPE_START
G1 F7200
G1 X66.899 Y88.221 E-1.5
;WIPE_END
G1 X71.564 Y94.564 F9000
G1 E5 F2400
;TYPE:Perimeter
;WIDTH:0.419999
G1 F1200
G1 X114.621 Y94.564 E1.35002
G1 X114.957 Y94.502 E.01071
G1 X115.331 Y94.243 E.01426
G1 X115.5 Y93.846 E.01353
G1 X115.669 Y94.243 E.01353
G1 X116.043 Y94.502 E.01426
G1 X116.379 Y94.564 E.01071
G1 X159.436 Y94.564 E1.35002
G1 X159.436 Y118.25 E.74266
G1 X159.436 Y141.936 E.74266
G1 X71.564 Y141.936 E2.75516
G1 X71.564 Y94.624 E1.48343
G1 X71.187 Y94.187 F9000
G1 F1200
G1 X114.621 Y94.187 E1.36184
G1 X114.777 Y94.165 E.00494
G1 X115.047 Y93.994 E.01002
;WIDTH:0.462578
G1 X115.114 Y93.888 E.00438
;WIDTH:0.505157
G1 X115.181 Y93.782 E.00482
;WIDTH:0.547736
G1 X115.249 Y93.676 E.00529
G1 X115.249 Y93.621 E.00231
;WIDTH:0.544381
G1 X115.249 Y88.749 E.20315
G1 X115.751 Y88.749 E.02093
G1 X115.751 Y93.621 E.20315
;WIDTH:0.547736
G1 X115.751 Y93.676 E.00231
