; generated by PrusaSlicer 2.9.3 on 2025-10-04 at 13:33:23 UTC

; 

; external perimeters extrusion width = 0.42mm
; perimeters extrusion width = 0.44mm
; infill extrusion width = 0.44mm
; solid infill extrusion width = 0.44mm
; top infill extrusion width = 0.40mm
; support material extrusion width = 0.36mm
; first layer extrusion width = 0.42mm

M201 X500 Y500 Z100 E5000 ; sets maximum accelerations, mm/sec^2
M203 X500 Y500 Z10 E60 ; sets maximum feedrates, mm / sec
M204 S500 T1000 ; sets acceleration (S) and retract acceleration (R), mm/sec^2
M205 X8.00 Y8.00 Z0.40 E5.00 ; sets the jerk limits, mm/sec
M205 S0 T0 ; sets the minimum extruding and travel feed rate, mm/sec

; printing object RpiPICO2W_RelayBox-Lid_temp id:0 copy 0
; stop printing object RpiPICO2W_RelayBox-Lid_temp id:0 copy 0

;TYPE:Custom
G90 ; use absolute coordinates
M83 ; extruder relative mode
M104 S150 ; set temporary nozzle temp to prevent oozing during homing
M140 S80 ; set final bed temp
G4 S30 ; allow partial nozzle warmup
G28 ; home all axis
G1 Z50 F240
G1 X2.0 Y10 F3000
M104 S240 ; set final nozzle temp
M190 S80 ; wait for bed temp to stabilize
M109 S240 ; wait for nozzle temp to stabilize
G1 Z0.28 F240
G92 E0
G1 X2.0 Y140 E10 F1500 ; prime the nozzle
G1 X2.3 Y140 F5000
G92 E0
G1 X2.3 Y10 E10 F1200 ; prime the nozzle
G92 E0
G21 ; set units to millimeters
G90 ; use absolute coordinates
M83 ; use relative distances for extrusion
; Filament gcode
M107
;LAYER_CHANGE
;Z:0.2
;HEIGHT:0.2
G1 E-5 F3600
G1 Z.2 F9000
; printing object RpiPICO2W_RelayBox-Lid_temp id:0 copy 0
G1 X68.564 Y86.064
G1 E5 F2400
M204 S500
;TYPE:Perimeter
;WIDTH:0.419999
G1 F1200
G1 X162.436 Y86.064 E2.94329
G1 X162.436 Y115.5 E.92294
G1 X162.436 Y144.936 E.92294
G1 X68.564 Y144.936 E2.94329
G1 X68.564 Y86.124 E1.84401
G1 X68.187 Y85.687 F9000
G1 F1200
G1 X162.813 Y85.687 E2.96693
G1 X162.813 Y115.5 E.93476
G1 X162.813 Y145.313 E.93476
G1 X68.187 Y145.313 E2.96693
G1 X68.187 Y85.747 E1.86765
G1 X67.81 Y85.31 F9000
;TYPE:External perimeter
G1 F1200
G1 X163.19 Y85.31 E2.99057
G1 X163.19 Y115.5 E.94658
G1 X163.19 Y145.69 E.94658
G1 X67.81 Y145.69 E2.99057
G1 X67.81 Y85.37 E1.89129
G1 E-3.5 F3600
;WIPE_START
G1 F7200
G1 X67.81 Y85.31 E-.0285
G1 X70.908 Y85.31 E-1.4715
;WIPE_END
G1 X162.315 Y86.949 F9000
G1 E5 F2400
;TYPE:Solid infill
;WIDTH:0.420877
G1 F1200
G1 X161.721 Y86.355 E.0264
G1 X161.186 Y86.355 E.01681
G1 X162.145 Y87.314 E.04262
G1 X162.145 Y87.848 E.01678
G1 X160.652 Y86.355 E.06636
G1 X160.117 Y86.355 E.01681
G1 X162.145 Y88.383 E.09013
G1 X162.145 Y88.917 E.01678
G1 X159.583 Y86.355 E.11387
G1 X159.048 Y86.355 E.01681
G1 X162.145 Y89.452 E.13765
G1 X162.145 Y89.986 E.01678
G1 X158.514 Y86.355 E.16138
G1 X157.979 Y86.355 E.01681
G1 X162.145 Y90.521 E.18516
G1 X162.145 Y91.055 E.01678
G1 X157.445 Y86.355 E.20889
G1 X156.91 Y86.355 E.01681
G1 X162.145 Y91.59 E.23267
G1 X162.145 Y92.124 E.01678
G1 X156.376 Y86.355 E.2564
G1 X155.841 Y86.355 E.01681
G1 X162.145 Y92.659 E.28018
G1 X162.145 Y93.193 E.01678
G1 X155.307 Y86.355 E.30391
G1 X154.772 Y86.355 E.01681
G1 X162.145 Y93.728 E.32769
G1 X162.145 Y94.262 E.01678
G1 X154.238 Y86.355 E.35143
G1 X153.703 Y86.355 E.01681
G1 X162.145 Y94.797 E.3752
G1 X162.145 Y95.331 E.01678
G1 X153.169 Y86.355 E.39894
G1 X152.634 Y86.355 E.01681
G1 X162.145 Y95.866 E.42271
G1 X162.145 Y96.4 E.01678
G1 X152.1 Y86.355 E.44645
G1 X151.565 Y86.355 E.01681
G1 X162.145 Y96.935 E.47023
G1 X162.145 Y97.47 E.01681
G1 X151.03 Y86.355 E.494
G1 X150.496 Y86.355 E.01678
G1 X162.145 Y98.004 E.51774
G1 X162.145 Y98.539 E.01681
G1 X149.961 Y86.355 E.54152
G1 X149.427 Y86.355 E.01678
G1 X162.145 Y99.073 E.56525
G1 X162.145 Y99.608 E.01681
G1 X148.892 Y86.355 E.58903
G1 X148.358 Y86.355 E.01678
G1 X162.145 Y100.142 E.61276
G1 X162.145 Y100.677 E.01681
G1 X147.823 Y86.355 E.63654
G1 X147.289 Y86.355 E.01678
G1 X162.145 Y101.211 E.66027
G1 X162.145 Y101.746 E.01681
G1 X146.754 Y86.355 E.68405
G1 X146.22 Y86.355 E.01678
G1 X162.145 Y102.28 E.70778
G1 X162.145 Y102.815 E.01681
G1 X145.685 Y86.355 E.73156
G1 X145.151 Y86.355 E.01678
G1 X162.145 Y103.349 E.7553
G1 X162.145 Y103.884 E.01681
G1 X144.616 Y86.355 E.77907
G1 X144.082 Y86.355 E.01678
G1 X162.145 Y104.418 E.80281
G1 X162.145 Y104.953 E.01681
G1 X143.547 Y86.355 E.82659
G1 X143.013 Y86.355 E.01678
G1 X162.145 Y105.487 E.85032
G1 X162.145 Y106.022 E.01681
G1 X142.478 Y86.355 E.8741
G1 X141.944 Y86.355 E.01678
G1 X162.145 Y106.556 E.89783
G1 X162.145 Y107.091 E.01681
G1 X141.409 Y86.355 E.92161
G1 X140.875 Y86.355 E.01678
G1 X162.145 Y107.625 E.94534
G1 X162.145 Y108.16 E.01681
G1 X140.34 Y86.355 E.96912
G1 X139.806 Y86.355 E.01678
G1 X162.145 Y108.694 E.99285
G1 X162.145 Y109.229 E.01681
G1 X139.271 Y86.355 E1.01663
G1 X138.737 Y86.355 E.01678
G1 X162.145 Y109.763 E1.04036
G1 X162.145 Y110.298 E.01681
G1 X138.202 Y86.355 E1.06414
G1 X137.668 Y86.355 E.01678
G1 X162.145 Y110.832 E1.08788
G1 X162.145 Y111.367 E.01681
G1 X137.133 Y86.355 E1.11165
G1 X136.599 Y86.355 E.01678
G1 X162.145 Y111.901 E1.13539
G1 X162.145 Y112.436 E.01681
G1 X136.064 Y86.355 E1.15917
G1 X135.53 Y86.355 E.01678
G1 X162.145 Y112.97 E1.1829
G1 X162.145 Y113.505 E.01681
G1 X134.995 Y86.355 E1.20668
G1 X134.461 Y86.355 E.01678
G1 X162.145 Y114.039 E1.23041
G1 X162.145 Y114.574 E.01681
G1 X133.926 Y86.355 E1.25419
G1 X133.392 Y86.355 E.01678
G1 X162.145 Y115.108 E1.27792
G1 X162.145 Y115.643 E.01681
G1 X132.857 Y86.355 E1.3017
G1 X132.323 Y86.355 E.01678
G1 X162.145 Y116.177 E1.32543
G1 X162.145 Y116.712 E.01681
G1 X131.788 Y86.355 E1.34921
G1 X131.254 Y86.355 E.01678
G1 X162.145 Y117.246 E1.37295
G1 X162.145 Y117.781 E.01681
G1 X130.719 Y86.355 E1.39672
G1 X130.185 Y86.355 E.01678
G1 X162.145 Y118.315 E1.42046
G1 X162.145 Y118.85 E.01681
G1 X129.65 Y86.355 E1.44424
G1 X129.116 Y86.355 E.01678
G1 X162.145 Y119.384 E1.46797
G1 X162.145 Y119.919 E.01681
G1 X128.581 Y86.355 E1.49175
G1 X128.046 Y86.355 E.01681
G1 X162.145 Y120.454 E1.51552
G1 X162.145 Y120.988 E.01678
G1 X127.512 Y86.355 E1.53926
G1 X126.977 Y86.355 E.01681
G1 X162.145 Y121.523 E1.56304
G1 X162.145 Y122.057 E.01678
G1 X126.443 Y86.355 E1.58677
G1 X125.908 Y86.355 E.01681
G1 X162.145 Y122.592 E1.61055
G1 X162.145 Y123.126 E.01678
G1 X125.374 Y86.355 E1.63428
G1 X124.839 Y86.355 E.01681
G1 X162.145 Y123.661 E1.65806
G1 X162.145 Y124.195 E.01678
G1 X124.305 Y86.355 E1.68179
G1 X123.77 Y86.355 E.01681
G1 X162.145 Y124.73 E1.70557
G1 X162.145 Y125.264 E.01678
G1 X123.236 Y86.355 E1.7293
G1 X122.701 Y86.355 E.01681
G1 X162.145 Y125.799 E1.75308
G1 X162.145 Y126.333 E.01678
G1 X122.167 Y86.355 E1.77682
G1 X121.632 Y86.355 E.01681
G1 X162.145 Y126.868 E1.80059
G1 X162.145 Y127.402 E.01678
G1 X121.098 Y86.355 E1.82433
G1 X120.563 Y86.355 E.01681
G1 X162.145 Y127.937 E1.84811
G1 X162.145 Y128.471 E.01678
G1 X120.029 Y86.355 E1.87184
G1 X119.494 Y86.355 E.01681
G1 X162.145 Y129.006 E1.89562
G1 X162.145 Y129.54 E.01678
G1 X118.96 Y86.355 E1.91935
G1 X118.425 Y86.355 E.01681
G1 X162.145 Y130.075 E1.94313
G1 X162.145 Y130.609 E.01678
G1 X117.891 Y86.355 E1.96686
G1 X117.356 Y86.355 E.01681
G1 X162.145 Y131.144 E1.99064
G1 X162.145 Y131.678 E.01678
G1 X116.822 Y86.355 E2.01437
G1 X116.287 Y86.355 E.01681
G1 X162.145 Y132.213 E2.03815
G1 X162.145 Y132.747 E.01678
G1 X115.753 Y86.355 E2.06189
G1 X115.218 Y86.355 E.01681
G1 X162.145 Y133.282 E2.08566
G1 X162.145 Y133.816 E.01678
G1 X114.684 Y86.355 E2.1094
G1 X114.149 Y86.355 E.01681
G1 X162.145 Y134.351 E2.13317
G1 X162.145 Y134.885 E.01678
G1 X113.615 Y86.355 E2.15691
G1 X113.08 Y86.355 E.01681
G1 X162.145 Y135.42 E2.18069
G1 X162.145 Y135.954 E.01678
G1 X112.546 Y86.355 E2.20442
G1 X112.011 Y86.355 E.01681
G1 X162.145 Y136.489 E2.2282
G1 X162.145 Y137.023 E.01678
G1 X111.477 Y86.355 E2.25193
G1 X110.942 Y86.355 E.01681
G1 X162.145 Y137.558 E2.27571
G1 X162.145 Y138.092 E.01678
G1 X110.408 Y86.355 E2.29944
G1 X109.873 Y86.355 E.01681
G1 X162.145 Y138.627 E2.32322
G1 X162.145 Y139.161 E.01678
G1 X109.339 Y86.355 E2.34695
G1 X108.804 Y86.355 E.01681
G1 X162.145 Y139.696 E2.37073
G1 X162.145 Y140.23 E.01678
G1 X108.27 Y86.355 E2.39447
G1 X107.735 Y86.355 E.01681
G1 X162.145 Y140.765 E2.41824
G1 X162.145 Y141.299 E.01678
G1 X107.201 Y86.355 E2.44198
G1 X106.666 Y86.355 E.01681
G1 X162.145 Y141.834 E2.46576
G1 X162.145 Y142.369 E.01681
G1 X106.131 Y86.355 E2.48953
G1 X105.597 Y86.355 E.01678
G1 X162.145 Y142.903 E2.51327
G1 X162.145 Y143.438 E.01681
G1 X105.062 Y86.355 E2.53705
G1 X104.528 Y86.355 E.01678
G1 X162.145 Y143.972 E2.56078
G1 X162.145 Y144.507 E.01681
G1 X103.993 Y86.355 E2.58456
G1 X103.459 Y86.355 E.01678
G1 X161.75 Y144.645 E2.59071
G1 X161.215 Y144.645 E.01681
G1 X102.924 Y86.355 E2.59071
G1 X102.39 Y86.355 E.01678
G1 X160.681 Y144.645 E2.59071
G1 X160.146 Y144.645 E.01681
G1 X101.855 Y86.355 E2.59071
G1 X101.321 Y86.355 E.01678
G1 X159.612 Y144.645 E2.59071
G1 X159.077 Y144.645 E.01681
G1 X100.786 Y86.355 E2.59071
G1 X100.252 Y86.355 E.01678
G1 X158.543 Y144.645 E2.59071
G1 X158.008 Y144.645 E.01681
G1 X99.717 Y86.355 E2.59071
G1 X99.183 Y86.355 E.01678
G1 X157.474 Y144.645 E2.59071
G1 X156.939 Y144.645 E.01681
G1 X98.648 Y86.355 E2.59071
G1 X98.114 Y86.355 E.01678
G1 X156.405 Y144.645 E2.59071
G1 X155.87 Y144.645 E.01681
G1 X97.579 Y86.355 E2.59071
G1 X97.045 Y86.355 E.01678
G1 X155.336 Y144.645 E2.59071
G1 X154.801 Y144.645 E.01681
G1 X96.51 Y86.355 E2.59071
G1 X95.976 Y86.355 E.01678
G1 X154.267 Y144.645 E2.59071
G1 X153.732 Y144.645 E.01681
G1 X95.441 Y86.355 E2.59071
G1 X94.907 Y86.355 E.01678
G1 X153.198 Y144.645 E2.59071
G1 X152.663 Y144.645 E.01681
G1 X94.372 Y86.355 E2.59071
G1 X93.838 Y86.355 E.01678
G1 X152.129 Y144.645 E2.59071
G1 X151.594 Y144.645 E.01681
G1 X93.303 Y86.355 E2.59071
G1 X92.769 Y86.355 E.01678
G1 X151.06 Y144.645 E2.59071
G1 X150.525 Y144.645 E.01681
G1 X92.234 Y86.355 E2.59071
G1 X91.7 Y86.355 E.01678
G1 X149.991 Y144.645 E2.59071
G1 X149.456 Y144.645 E.01681
G1 X91.165 Y86.355 E2.59071
G1 X90.631 Y86.355 E.01678
G1 X148.922 Y144.645 E2.59071
G1 X148.387 Y144.645 E.01681
G1 X90.096 Y86.355 E2.59071
G1 X89.562 Y86.355 E.01678
G1 X147.853 Y144.645 E2.59071
G1 X147.318 Y144.645 E.01681
G1 X89.027 Y86.355 E2.59071
G1 X88.493 Y86.355 E.01678
G1 X146.784 Y144.645 E2.59071
G1 X146.249 Y144.645 E.01681
G1 X87.958 Y86.355 E2.59071
G1 X87.424 Y86.355 E.01678
G1 X145.715 Y144.645 E2.59071
G1 X145.18 Y144.645 E.01681
G1 X86.889 Y86.355 E2.59071
G1 X86.355 Y86.355 E.01678
G1 X144.646 Y144.645 E2.59071
G1 X144.111 Y144.645 E.01681
G1 X85.82 Y86.355 E2.59071
G1 X85.286 Y86.355 E.01678
G1 X143.577 Y144.645 E2.59071
G1 X143.042 Y144.645 E.01681
G1 X84.751 Y86.355 E2.59071
G1 X84.217 Y86.355 E.01678
G1 X142.507 Y144.645 E2.59069
G1 X141.973 Y144.645 E.01678
G1 X83.682 Y86.355 E2.59071
G1 X83.147 Y86.355 E.01681
G1 X141.438 Y144.645 E2.59071
G1 X140.904 Y144.645 E.01678
G1 X82.613 Y86.355 E2.59071
G1 X82.078 Y86.355 E.01681
G1 X140.369 Y144.645 E2.59071
G1 X139.835 Y144.645 E.01678
G1 X81.544 Y86.355 E2.59071
G1 X81.009 Y86.355 E.01681
G1 X139.3 Y144.645 E2.59071
G1 X138.766 Y144.645 E.01678
G1 X80.475 Y86.355 E2.59071
G1 X79.94 Y86.355 E.01681
G1 X138.231 Y144.645 E2.59071
G1 X137.697 Y144.645 E.01678
G1 X79.406 Y86.355 E2.59071
G1 X78.871 Y86.355 E.01681
G1 X137.162 Y144.645 E2.59071
G1 X136.628 Y144.645 E.01678
G1 X78.337 Y86.355 E2.59071
G1 X77.802 Y86.355 E.01681
G1 X136.093 Y144.645 E2.59071
G1 X135.559 Y144.645 E.01678
G1 X77.268 Y86.355 E2.59071
G1 X76.733 Y86.355 E.01681
G1 X135.024 Y144.645 E2.59071
G1 X134.49 Y144.645 E.01678
G1 X76.199 Y86.355 E2.59071
G1 X75.664 Y86.355 E.01681
G1 X133.955 Y144.645 E2.59071
G1 X133.421 Y144.645 E.01678
G1 X75.13 Y86.355 E2.59071
G1 X74.595 Y86.355 E.01681
G1 X132.886 Y144.645 E2.59071
G1 X132.352 Y144.645 E.01678
G1 X74.061 Y86.355 E2.59071
G1 X73.526 Y86.355 E.01681
G1 X131.817 Y144.645 E2.59071
G1 X131.283 Y144.645 E.01678
G1 X72.992 Y86.355 E2.59071
G1 X72.457 Y86.355 E.01681
G1 X130.748 Y144.645 E2.59071
G1 X130.214 Y144.645 E.01678
G1 X71.923 Y86.355 E2.59071
G1 X71.388 Y86.355 E.01681
G1 X129.679 Y144.645 E2.59071
G1 X129.145 Y144.645 E.01678
G1 X70.854 Y86.355 E2.59071
G1 X70.319 Y86.355 E.01681
G1 X128.61 Y144.645 E2.59071
G1 X128.076 Y144.645 E.01678
G1 X69.785 Y86.355 E2.59071
G1 X69.25 Y86.355 E.01681
G1 X127.541 Y144.645 E2.59071
G1 X127.007 Y144.645 E.01678
G1 X68.855 Y86.493 E2.58456
G1 X68.855 Y87.028 E.01681
G1 X126.472 Y144.645 E2.56078
G1 X125.938 Y144.645 E.01678
G1 X68.855 Y87.562 E2.53705
G1 X68.855 Y88.097 E.01681
G1 X125.403 Y144.645 E2.51327
G1 X124.869 Y144.645 E.01678
G1 X68.855 Y88.631 E2.48953
G1 X68.855 Y89.166 E.01681
G1 X124.334 Y144.645 E2.46576
G1 X123.8 Y144.645 E.01678
G1 X68.855 Y89.7 E2.44202
G1 X68.855 Y90.235 E.01681
G1 X123.265 Y144.645 E2.41824
G1 X122.731 Y144.645 E.01678
G1 X68.855 Y90.769 E2.39451
G1 X68.855 Y91.304 E.01681
G1 X122.196 Y144.645 E2.37073
G1 X121.662 Y144.645 E.01678
G1 X68.855 Y91.838 E2.347
G1 X68.855 Y92.373 E.01681
G1 X121.127 Y144.645 E2.32322
G1 X120.593 Y144.645 E.01678
G1 X68.855 Y92.907 E2.29949
G1 X68.855 Y93.442 E.01681
G1 X120.058 Y144.645 E2.27571
G1 X119.523 Y144.645 E.01681
G1 X68.855 Y93.977 E2.25193
G1 X68.855 Y94.511 E.01678
G1 X118.989 Y144.645 E2.2282
G1 X118.454 Y144.645 E.01681
G1 X68.855 Y95.046 E2.20442
G1 X68.855 Y95.58 E.01678
G1 X117.92 Y144.645 E2.18069
G1 X117.385 Y144.645 E.01681
G1 X68.855 Y96.115 E2.15691
G1 X68.855 Y96.649 E.01678
G1 X116.851 Y144.645 E2.13317
G1 X116.316 Y144.645 E.01681
G1 X68.855 Y97.184 E2.1094
G1 X68.855 Y97.718 E.01678
G1 X115.782 Y144.645 E2.08566
G1 X115.247 Y144.645 E.01681
G1 X68.855 Y98.253 E2.06189
G1 X68.855 Y98.787 E.01678
G1 X114.713 Y144.645 E2.03815
G1 X114.178 Y144.645 E.01681
G1 X68.855 Y99.322 E2.01437
G1 X68.855 Y99.856 E.01678
G1 X113.644 Y144.645 E1.99064
G1 X113.109 Y144.645 E.01681
G1 X68.855 Y100.391 E1.96686
G1 X68.855 Y100.925 E.01678
G1 X112.575 Y144.645 E1.94313
G1 X112.04 Y144.645 E.01681
G1 X68.855 Y101.46 E1.91935
G1 X68.855 Y101.994 E.01678
G1 X111.506 Y144.645 E1.89562
G1 X110.971 Y144.645 E.01681
G1 X68.855 Y102.529 E1.87184
G1 X68.855 Y103.063 E.01678
G1 X110.437 Y144.645 E1.84811
G1 X109.902 Y144.645 E.01681
G1 X68.855 Y103.598 E1.82433
G1 X68.855 Y104.132 E.01678
G1 X109.368 Y144.645 E1.80059
G1 X108.833 Y144.645 E.01681
G1 X68.855 Y104.667 E1.77682
G1 X68.855 Y105.201 E.01678
G1 X108.299 Y144.645 E1.75308
G1 X107.764 Y144.645 E.01681
G1 X68.855 Y105.736 E1.7293
G1 X68.855 Y106.27 E.01678
G1 X107.23 Y144.645 E1.70557
G1 X106.695 Y144.645 E.01681
G1 X68.855 Y106.805 E1.68179
G1 X68.855 Y107.339 E.01678
G1 X106.161 Y144.645 E1.65806
G1 X105.626 Y144.645 E.01681
G1 X68.855 Y107.874 E1.63428
G1 X68.855 Y108.408 E.01678
G1 X105.092 Y144.645 E1.61055
G1 X104.557 Y144.645 E.01681
G1 X68.855 Y108.943 E1.58677
G1 X68.855 Y109.477 E.01678
G1 X104.023 Y144.645 E1.56304
G1 X103.488 Y144.645 E.01681
G1 X68.855 Y110.012 E1.53926
G1 X68.855 Y110.546 E.01678
G1 X102.954 Y144.645 E1.51552
G1 X102.419 Y144.645 E.01681
G1 X68.855 Y111.081 E1.49175
G1 X68.855 Y111.615 E.01678
G1 X101.885 Y144.645 E1.46801
G1 X101.35 Y144.645 E.01681
G1 X68.855 Y112.15 E1.44424
G1 X68.855 Y112.684 E.01678
G1 X100.816 Y144.645 E1.4205
G1 X100.281 Y144.645 E.01681
G1 X68.855 Y113.219 E1.39672
G1 X68.855 Y113.753 E.01678
G1 X99.747 Y144.645 E1.37299
G1 X99.212 Y144.645 E.01681
G1 X68.855 Y114.288 E1.34921
G1 X68.855 Y114.822 E.01678
G1 X98.678 Y144.645 E1.32548
G1 X98.143 Y144.645 E.01681
G1 X68.855 Y115.357 E1.3017
G1 X68.855 Y115.892 E.01681
G1 X97.608 Y144.645 E1.27792
G1 X97.074 Y144.645 E.01678
G1 X68.855 Y116.426 E1.25419
G1 X68.855 Y116.961 E.01681
G1 X96.539 Y144.645 E1.23041
G1 X96.005 Y144.645 E.01678
G1 X68.855 Y117.495 E1.20668
G1 X68.855 Y118.03 E.01681
G1 X95.47 Y144.645 E1.1829
G1 X94.936 Y144.645 E.01678
G1 X68.855 Y118.564 E1.15917
G1 X68.855 Y119.099 E.01681
G1 X94.401 Y144.645 E1.13539
G1 X93.867 Y144.645 E.01678
G1 X68.855 Y119.633 E1.11165
G1 X68.855 Y120.168 E.01681
G1 X93.332 Y144.645 E1.08788
G1 X92.798 Y144.645 E.01678
G1 X68.855 Y120.702 E1.06414
G1 X68.855 Y121.237 E.01681
G1 X92.263 Y144.645 E1.04036
