; generated by PrusaSlicer 2.9.3 on 2025-10-04 at 04:19:46 UTC

; 

; external perimeters extrusion width = 0.42mm
; perimeters extrusion width = 0.44mm
; infill extrusion width = 0.44mm
; solid infill extrusion width = 0.44mm
; top infill extrusion width = 0.40mm
; support material extrusion width = 0.36mm
; first layer extrusion width = 0.42mm

M201 X500 Y500 Z100 E5000 ; sets maximum accelerations, mm/sec^2
M203 X500 Y500 Z10 E60 ; sets maximum feedrates, mm / sec
M204 S500 T1000 ; sets acceleration (S) and retract acceleration (R), mm/sec^2
M205 X8.00 Y8.00 Z0.40 E5.00 ; sets the jerk limits, mm/sec
M205 S0 T0 ; sets the minimum extruding and travel feed rate, mm/sec

; printing object RpiPICO2W_RelayBox-Lid id:0 copy 0
; stop printing object RpiPICO2W_RelayBox-Lid id:0 copy 0

;TYPE:Custom
G90 ; use absolute coordinates
M83 ; extruder relative mode
M104 S150 ; set temporary nozzle temp to prevent oozing during homing
M140 S80 ; set final bed temp
G4 S30 ; allow partial nozzle warmup
G28 ; home all axis
G1 Z50 F240
G1 X2.0 Y10 F3000
M104 S240 ; set final nozzle temp
M190 S80 ; wait for bed temp to stabilize
M109 S240 ; wait for nozzle temp to stabilize
G1 Z0.28 F240
G92 E0
G1 X2.0 Y140 E10 F1500 ; prime the nozzle
G1 X2.3 Y140 F5000
G92 E0
G1 X2.3 Y10 E10 F1200 ; prime the nozzle
G92 E0
G21 ; set units to millimeters
G90 ; use absolute coordinates
M83 ; use relative distances for extrusion
; Filament gcode
M107
;LAYER_CHANGE
;Z:0.2
;HEIGHT:0.2
G1 E-5 F3600
G1 Z.2 F9000
; printing object RpiPICO2W_RelayBox-Lid id:0 copy 0
G1 X71.564 Y89.064
G1 E5 F2400
M204 S500
;TYPE:Perimeter
;WIDTH:0.419999
G1 F1200
G1 X159.436 Y89.064 E2.75516
G1 X159.436 Y115.5 E.82888
G1 X159.436 Y141.936 E.82888
G1 X71.564 Y141.936 E2.75516
G1 X71.564 Y89.124 E1.65588
G1 X71.187 Y88.687 F9000
G1 F1200
G1 X159.813 Y88.687 E2.7788
G1 X159.813 Y115.5 E.8407
G1 X159.813 Y142.313 E.8407
G1 X71.187 Y142.313 E2.7788
G1 X71.187 Y88.747 E1.67952
G1 X70.81 Y88.31 F9000
;TYPE:External perimeter
G1 F1200
G1 X160.19 Y88.31 E2.80244
G1 X160.19 Y115.5 E.85252
G1 X160.19 Y142.69 E.85252
G1 X70.81 Y142.69 E2.80244
G1 X70.81 Y88.37 E1.70316
G1 E-3.5 F3600
;WIPE_START
G1 F7200
G1 X70.81 Y88.31 E-.0285
G1 X73.908 Y88.31 E-1.4715
;WIPE_END
G1 X159.315 Y89.948 F9000
G1 E5 F2400
;TYPE:Solid infill
;WIDTH:0.42023
G1 F1200
G1 X158.722 Y89.355 E.02631
G1 X158.189 Y89.355 E.01672
G1 X159.145 Y90.311 E.04242
G1 X159.145 Y90.845 E.01675
G1 X157.655 Y89.355 E.06611
G1 X157.121 Y89.355 E.01675
G1 X159.145 Y91.379 E.0898
G1 X159.145 Y91.912 E.01672
G1 X156.588 Y89.355 E.11345
G1 X156.054 Y89.355 E.01675
G1 X159.145 Y92.446 E.13714
G1 X159.145 Y92.979 E.01672
G1 X155.521 Y89.355 E.16079
G1 X154.987 Y89.355 E.01675
G1 X159.145 Y93.513 E.18449
G1 X159.145 Y94.047 E.01675
G1 X154.453 Y89.355 E.20818
G1 X153.92 Y89.355 E.01672
G1 X159.145 Y94.58 E.23183
G1 X159.145 Y95.114 E.01675
G1 X153.386 Y89.355 E.25552
G1 X152.853 Y89.355 E.01672
G1 X159.145 Y95.647 E.27917
G1 X159.145 Y96.181 E.01675
G1 X152.319 Y89.355 E.30286
G1 X151.785 Y89.355 E.01675
G1 X159.145 Y96.715 E.32655
G1 X159.145 Y97.248 E.01672
G1 X151.252 Y89.355 E.3502
G1 X150.718 Y89.355 E.01675
G1 X159.145 Y97.782 E.3739
G1 X159.145 Y98.315 E.01672
G1 X150.185 Y89.355 E.39754
G1 X149.651 Y89.355 E.01675
G1 X159.145 Y98.849 E.42124
G1 X159.145 Y99.383 E.01675
G1 X149.117 Y89.355 E.44493
G1 X148.584 Y89.355 E.01672
G1 X159.145 Y99.916 E.46858
G1 X159.145 Y100.45 E.01675
G1 X148.05 Y89.355 E.49227
G1 X147.517 Y89.355 E.01672
G1 X159.145 Y100.983 E.51592
G1 X159.145 Y101.517 E.01675
G1 X146.983 Y89.355 E.53961
G1 X146.449 Y89.355 E.01675
G1 X159.145 Y102.051 E.56331
G1 X159.145 Y102.584 E.01672
G1 X145.916 Y89.355 E.58695
G1 X145.382 Y89.355 E.01675
G1 X159.145 Y103.118 E.61065
G1 X159.145 Y103.651 E.01672
G1 X144.849 Y89.355 E.6343
G1 X144.315 Y89.355 E.01675
G1 X159.145 Y104.185 E.65799
G1 X159.145 Y104.719 E.01675
G1 X143.781 Y89.355 E.68168
G1 X143.248 Y89.355 E.01672
G1 X159.145 Y105.252 E.70533
G1 X159.145 Y105.786 E.01675
G1 X142.714 Y89.355 E.72902
G1 X142.181 Y89.355 E.01672
G1 X159.145 Y106.319 E.75267
G1 X159.145 Y106.853 E.01675
G1 X141.647 Y89.355 E.77636
G1 X141.113 Y89.355 E.01675
G1 X159.145 Y107.387 E.80006
G1 X159.145 Y107.92 E.01672
G1 X140.58 Y89.355 E.82371
G1 X140.046 Y89.355 E.01675
G1 X159.145 Y108.454 E.8474
G1 X159.145 Y108.987 E.01672
G1 X139.513 Y89.355 E.87105
G1 X138.979 Y89.355 E.01675
G1 X159.145 Y109.521 E.89474
G1 X159.145 Y110.055 E.01675
G1 X138.445 Y89.355 E.91843
G1 X137.912 Y89.355 E.01672
G1 X159.145 Y110.588 E.94208
G1 X159.145 Y111.122 E.01675
G1 X137.378 Y89.355 E.96577
G1 X136.845 Y89.355 E.01672
G1 X159.145 Y111.655 E.98942
G1 X159.145 Y112.189 E.01675
G1 X136.311 Y89.355 E1.01312
G1 X135.777 Y89.355 E.01675
G1 X159.145 Y112.723 E1.03681
G1 X159.145 Y113.256 E.01672
G1 X135.244 Y89.355 E1.06046
G1 X134.71 Y89.355 E.01675
G1 X159.145 Y113.79 E1.08415
G1 X159.145 Y114.323 E.01672
G1 X134.177 Y89.355 E1.1078
G1 X133.643 Y89.355 E.01675
G1 X159.145 Y114.857 E1.13149
G1 X159.145 Y115.391 E.01675
G1 X133.109 Y89.355 E1.15519
G1 X132.576 Y89.355 E.01672
G1 X159.145 Y115.924 E1.17883
G1 X159.145 Y116.458 E.01675
G1 X132.042 Y89.355 E1.20253
G1 X131.509 Y89.355 E.01672
G1 X159.145 Y116.991 E1.22618
G1 X159.145 Y117.525 E.01675
G1 X130.975 Y89.355 E1.24987
G1 X130.441 Y89.355 E.01675
G1 X159.145 Y118.059 E1.27356
G1 X159.145 Y118.592 E.01672
G1 X129.908 Y89.355 E1.29721
G1 X129.374 Y89.355 E.01675
G1 X159.145 Y119.126 E1.3209
G1 X159.145 Y119.659 E.01672
G1 X128.841 Y89.355 E1.34455
G1 X128.307 Y89.355 E.01675
G1 X159.145 Y120.193 E1.36824
G1 X159.145 Y120.727 E.01675
G1 X127.773 Y89.355 E1.39194
G1 X127.24 Y89.355 E.01672
G1 X159.145 Y121.26 E1.41559
G1 X159.145 Y121.794 E.01675
G1 X126.706 Y89.355 E1.43928
G1 X126.173 Y89.355 E.01672
G1 X159.145 Y122.327 E1.46293
G1 X159.145 Y122.861 E.01675
G1 X125.639 Y89.355 E1.48662
G1 X125.106 Y89.355 E.01672
G1 X159.145 Y123.395 E1.51029
G1 X159.145 Y123.928 E.01672
G1 X124.572 Y89.355 E1.53396
G1 X124.038 Y89.355 E.01675
G1 X159.145 Y124.462 E1.55765
G1 X159.145 Y124.995 E.01672
G1 X123.505 Y89.355 E1.5813
G1 X122.971 Y89.355 E.01675
G1 X159.145 Y125.529 E1.605
G1 X159.145 Y126.062 E.01672
G1 X122.438 Y89.355 E1.62864
G1 X121.904 Y89.355 E.01675
G1 X159.145 Y126.596 E1.65234
G1 X159.145 Y127.13 E.01675
G1 X121.37 Y89.355 E1.67603
G1 X120.837 Y89.355 E.01672
G1 X159.145 Y127.663 E1.69968
G1 X159.145 Y128.197 E.01675
G1 X120.303 Y89.355 E1.72337
G1 X119.77 Y89.355 E.01672
G1 X159.145 Y128.73 E1.74702
G1 X159.145 Y129.264 E.01675
G1 X119.236 Y89.355 E1.77071
G1 X118.702 Y89.355 E.01675
G1 X159.145 Y129.798 E1.79441
G1 X159.145 Y130.331 E.01672
G1 X118.169 Y89.355 E1.81805
G1 X117.635 Y89.355 E.01675
G1 X159.145 Y130.865 E1.84175
G1 X159.145 Y131.398 E.01672
G1 X117.102 Y89.355 E1.8654
G1 X116.568 Y89.355 E.01675
G1 X159.145 Y131.932 E1.88909
G1 X159.145 Y132.466 E.01675
G1 X116.034 Y89.355 E1.91278
G1 X115.501 Y89.355 E.01672
G1 X159.145 Y132.999 E1.93643
G1 X159.145 Y133.533 E.01675
G1 X114.967 Y89.355 E1.96012
G1 X114.434 Y89.355 E.01672
G1 X159.145 Y134.066 E1.98377
G1 X159.145 Y134.6 E.01675
G1 X113.9 Y89.355 E2.00746
G1 X113.366 Y89.355 E.01675
G1 X159.145 Y135.134 E2.03116
G1 X159.145 Y135.667 E.01672
G1 X112.833 Y89.355 E2.05481
G1 X112.299 Y89.355 E.01675
G1 X159.145 Y136.201 E2.0785
G1 X159.145 Y136.734 E.01672
G1 X111.766 Y89.355 E2.10215
G1 X111.232 Y89.355 E.01675
G1 X159.145 Y137.268 E2.12584
G1 X159.145 Y137.802 E.01675
G1 X110.698 Y89.355 E2.14953
G1 X110.165 Y89.355 E.01672
G1 X159.145 Y138.335 E2.17318
G1 X159.145 Y138.869 E.01675
G1 X109.631 Y89.355 E2.19688
G1 X109.098 Y89.355 E.01672
G1 X159.145 Y139.402 E2.22052
G1 X159.145 Y139.936 E.01675
G1 X108.564 Y89.355 E2.24422
G1 X108.03 Y89.355 E.01675
G1 X159.145 Y140.47 E2.26791
G1 X159.145 Y141.003 E.01672
G1 X107.497 Y89.355 E2.29156
G1 X106.963 Y89.355 E.01675
G1 X159.145 Y141.537 E2.31525
G1 X159.145 Y141.645 E.00339
G1 X158.721 Y141.645 E.0133
G1 X106.43 Y89.355 E2.32007
G1 X105.896 Y89.355 E.01675
G1 X158.187 Y141.645 E2.32007
G1 X157.653 Y141.645 E.01675
G1 X105.362 Y89.355 E2.32007
G1 X104.829 Y89.355 E.01672
G1 X157.12 Y141.645 E2.32007
G1 X156.586 Y141.645 E.01675
G1 X104.295 Y89.355 E2.32007
G1 X103.762 Y89.355 E.01672
G1 X156.053 Y141.645 E2.32007
G1 X155.519 Y141.645 E.01675
G1 X103.228 Y89.355 E2.32007
G1 X102.694 Y89.355 E.01675
G1 X154.985 Y141.645 E2.32007
G1 X154.452 Y141.645 E.01672
G1 X102.161 Y89.355 E2.32007
G1 X101.627 Y89.355 E.01675
G1 X153.918 Y141.645 E2.32007
G1 X153.385 Y141.645 E.01672
G1 X101.094 Y89.355 E2.32007
G1 X100.56 Y89.355 E.01675
G1 X152.851 Y141.645 E2.32007
G1 X152.317 Y141.645 E.01675
G1 X100.026 Y89.355 E2.32007
G1 X99.493 Y89.355 E.01672
G1 X151.784 Y141.645 E2.32007
G1 X151.25 Y141.645 E.01675
G1 X98.959 Y89.355 E2.32007
G1 X98.426 Y89.355 E.01672
G1 X150.717 Y141.645 E2.32007
G1 X150.183 Y141.645 E.01675
G1 X97.892 Y89.355 E2.32007
G1 X97.358 Y89.355 E.01675
G1 X149.649 Y141.645 E2.32007
G1 X149.116 Y141.645 E.01672
G1 X96.825 Y89.355 E2.32007
G1 X96.291 Y89.355 E.01675
G1 X148.582 Y141.645 E2.32007
G1 X148.049 Y141.645 E.01672
G1 X95.758 Y89.355 E2.32007
G1 X95.224 Y89.355 E.01675
G1 X147.515 Y141.645 E2.32007
G1 X146.981 Y141.645 E.01675
G1 X94.69 Y89.355 E2.32007
G1 X94.157 Y89.355 E.01672
G1 X146.448 Y141.645 E2.32007
G1 X145.914 Y141.645 E.01675
G1 X93.623 Y89.355 E2.32007
G1 X93.09 Y89.355 E.01672
G1 X145.381 Y141.645 E2.32007
G1 X144.847 Y141.645 E.01675
G1 X92.556 Y89.355 E2.32007
G1 X92.022 Y89.355 E.01675
G1 X144.313 Y141.645 E2.32007
G1 X143.78 Y141.645 E.01672
G1 X91.489 Y89.355 E2.32007
G1 X90.955 Y89.355 E.01675
G1 X143.246 Y141.645 E2.32007
G1 X142.713 Y141.645 E.01672
G1 X90.422 Y89.355 E2.32007
G1 X89.888 Y89.355 E.01675
G1 X142.179 Y141.645 E2.32007
G1 X141.645 Y141.645 E.01675
G1 X89.355 Y89.355 E2.32004
G1 X88.821 Y89.355 E.01675
G1 X141.112 Y141.645 E2.32007
G1 X140.578 Y141.645 E.01675
G1 X88.287 Y89.355 E2.32007
G1 X87.754 Y89.355 E.01672
G1 X140.045 Y141.645 E2.32007
G1 X139.511 Y141.645 E.01675
G1 X87.22 Y89.355 E2.32007
G1 X86.687 Y89.355 E.01672
G1 X138.978 Y141.645 E2.32007
G1 X138.444 Y141.645 E.01675
G1 X86.153 Y89.355 E2.32007
G1 X85.619 Y89.355 E.01675
G1 X137.91 Y141.645 E2.32007
G1 X137.377 Y141.645 E.01672
G1 X85.086 Y89.355 E2.32007
G1 X84.552 Y89.355 E.01675
G1 X136.843 Y141.645 E2.32007
G1 X136.31 Y141.645 E.01672
G1 X84.019 Y89.355 E2.32007
G1 X83.485 Y89.355 E.01675
G1 X135.776 Y141.645 E2.32007
G1 X135.242 Y141.645 E.01675
G1 X82.951 Y89.355 E2.32007
G1 X82.418 Y89.355 E.01672
G1 X134.709 Y141.645 E2.32007
G1 X134.175 Y141.645 E.01675
G1 X81.884 Y89.355 E2.32007
G1 X81.351 Y89.355 E.01672
G1 X133.642 Y141.645 E2.32007
G1 X133.108 Y141.645 E.01675
G1 X80.817 Y89.355 E2.32007
G1 X80.283 Y89.355 E.01675
G1 X132.574 Y141.645 E2.32007
G1 X132.041 Y141.645 E.01672
G1 X79.75 Y89.355 E2.32007
G1 X79.216 Y89.355 E.01675
G1 X131.507 Y141.645 E2.32007
G1 X130.974 Y141.645 E.01672
G1 X78.683 Y89.355 E2.32007
G1 X78.149 Y89.355 E.01675
G1 X130.44 Y141.645 E2.32007
G1 X129.906 Y141.645 E.01675
G1 X77.615 Y89.355 E2.32007
G1 X77.082 Y89.355 E.01672
G1 X129.373 Y141.645 E2.32007
G1 X128.839 Y141.645 E.01675
G1 X76.548 Y89.355 E2.32007
G1 X76.015 Y89.355 E.01672
G1 X128.306 Y141.645 E2.32007
G1 X127.772 Y141.645 E.01675
G1 X75.481 Y89.355 E2.32007
G1 X74.947 Y89.355 E.01675
G1 X127.238 Y141.645 E2.32007
G1 X126.705 Y141.645 E.01672
G1 X74.414 Y89.355 E2.32007
G1 X73.88 Y89.355 E.01675
G1 X126.171 Y141.645 E2.32007
G1 X125.638 Y141.645 E.01672
G1 X73.347 Y89.355 E2.32007
G1 X72.813 Y89.355 E.01675
G1 X125.104 Y141.645 E2.32007
G1 X124.57 Y141.645 E.01675
G1 X72.279 Y89.355 E2.32007
G1 X71.855 Y89.355 E.0133
G1 X71.855 Y89.463 E.00339
G1 X124.037 Y141.645 E2.31525
G1 X123.503 Y141.645 E.01675
G1 X71.855 Y89.997 E2.29156
G1 X71.855 Y90.53 E.01672
G1 X122.97 Y141.645 E2.26791
G1 X122.436 Y141.645 E.01675
G1 X71.855 Y91.064 E2.24422
G1 X71.855 Y91.598 E.01675
G1 X121.902 Y141.645 E2.22052
G1 X121.369 Y141.645 E.01672
G1 X71.855 Y92.131 E2.19688
G1 X71.855 Y92.665 E.01675
G1 X120.835 Y141.645 E2.17318
G1 X120.302 Y141.645 E.01672
G1 X71.855 Y93.198 E2.14953
G1 X71.855 Y93.732 E.01675
G1 X119.768 Y141.645 E2.12584
G1 X119.234 Y141.645 E.01675
G1 X71.855 Y94.266 E2.10215
G1 X71.855 Y94.799 E.01672
G1 X118.701 Y141.645 E2.0785
G1 X118.167 Y141.645 E.01675
G1 X71.855 Y95.333 E2.05481
G1 X71.855 Y95.866 E.01672
G1 X117.634 Y141.645 E2.03116
G1 X117.1 Y141.645 E.01675
G1 X71.855 Y96.4 E2.00746
G1 X71.855 Y96.934 E.01675
G1 X116.566 Y141.645 E1.98377
G1 X116.033 Y141.645 E.01672
G1 X71.855 Y97.467 E1.96012
G1 X71.855 Y98.001 E.01675
G1 X115.499 Y141.645 E1.93643
G1 X114.966 Y141.645 E.01672
G1 X71.855 Y98.534 E1.91278
G1 X71.855 Y99.068 E.01675
G1 X114.432 Y141.645 E1.88909
G1 X113.898 Y141.645 E.01675
G1 X71.855 Y99.602 E1.8654
G1 X71.855 Y100.135 E.01672
G1 X113.365 Y141.645 E1.84175
G1 X112.831 Y141.645 E.01675
G1 X71.855 Y100.669 E1.81805
G1 X71.855 Y101.202 E.01672
G1 X112.298 Y141.645 E1.79441
G1 X111.764 Y141.645 E.01675
G1 X71.855 Y101.736 E1.77071
G1 X71.855 Y102.27 E.01675
G1 X111.23 Y141.645 E1.74702
G1 X110.697 Y141.645 E.01672
G1 X71.855 Y102.803 E1.72337
G1 X71.855 Y103.337 E.01675
G1 X110.163 Y141.645 E1.69968
G1 X109.63 Y141.645 E.01672
G1 X71.855 Y103.87 E1.67603
G1 X71.855 Y104.404 E.01675
G1 X109.096 Y141.645 E1.65234
G1 X108.562 Y141.645 E.01675
G1 X71.855 Y104.938 E1.62864
G1 X71.855 Y105.471 E.01672
G1 X108.029 Y141.645 E1.605
G1 X107.495 Y141.645 E.01675
G1 X71.855 Y106.005 E1.5813
G1 X71.855 Y106.538 E.01672
G1 X106.962 Y141.645 E1.55765
G1 X106.428 Y141.645 E.01675
G1 X71.855 Y107.072 E1.53396
G1 X71.855 Y107.606 E.01675
G1 X105.895 Y141.645 E1.51029
G1 X105.361 Y141.645 E.01675
G1 X71.855 Y108.139 E1.48662
G1 X71.855 Y108.673 E.01675
G1 X104.827 Y141.645 E1.46293
G1 X104.294 Y141.645 E.01672
G1 X71.855 Y109.206 E1.43928
G1 X71.855 Y109.74 E.01675
G1 X103.76 Y141.645 E1.41559
G1 X103.227 Y141.645 E.01672
G1 X71.855 Y110.273 E1.39194
G1 X71.855 Y110.807 E.01675
G1 X102.693 Y141.645 E1.36824
G1 X102.159 Y141.645 E.01675
G1 X71.855 Y111.341 E1.34455
G1 X71.855 Y111.874 E.01672
G1 X101.626 Y141.645 E1.3209
G1 X101.092 Y141.645 E.01675
G1 X71.855 Y112.408 E1.29721
G1 X71.855 Y112.941 E.01672
G1 X100.559 Y141.645 E1.27356
G1 X100.025 Y141.645 E.01675
G1 X71.855 Y113.475 E1.24987
G1 X71.855 Y114.009 E.01675
G1 X99.491 Y141.645 E1.22618
G1 X98.958 Y141.645 E.01672
G1 X71.855 Y114.542 E1.20253
G1 X71.855 Y115.076 E.01675
G1 X98.424 Y141.645 E1.17883
G1 X97.891 Y141.645 E.01672
G1 X71.855 Y115.609 E1.15519
G1 X71.855 Y116.143 E.01675
G1 X97.357 Y141.645 E1.13149
G1 X96.823 Y141.645 E.01675
G1 X71.855 Y116.677 E1.1078
G1 X71.855 Y117.21 E.01672
G1 X96.29 Y141.645 E1.08415
G1 X95.756 Y141.645 E.01675
G1 X71.855 Y117.744 E1.06046
G1 X71.855 Y118.277 E.01672
G1 X95.223 Y141.645 E1.03681
G1 X94.689 Y141.645 E.01675
G1 X71.855 Y118.811 E1.01312
G1 X71.855 Y119.345 E.01675
G1 X94.155 Y141.645 E.98942
G1 X93.622 Y141.645 E.01672
G1 X71.855 Y119.878 E.96577
G1 X71.855 Y120.412 E.01675
G1 X93.088 Y141.645 E.94208
G1 X92.555 Y141.645 E.01672
G1 X71.855 Y120.945 E.91843
G1 X71.855 Y121.479 E.01675
G1 X92.021 Y141.645 E.89474
G1 X91.487 Y141.645 E.01675
G1 X71.855 Y122.013 E.87105
G1 X71.855 Y122.546 E.01672
G1 X90.954 Y141.645 E.8474
G1 X90.42 Y141.645 E.01675
G1 X71.855 Y123.08 E.82371
G1 X71.855 Y123.613 E.01672
G1 X89.887 Y141.645 E.80006
G1 X89.353 Y141.645 E.01675
G1 X71.855 Y124.147 E.77636
G1 X71.855 Y124.681 E.01675
G1 X88.819 Y141.645 E.75267
G1 X88.286 Y141.645 E.01672
G1 X71.855 Y125.214 E.72902
G1 X71.855 Y125.748 E.01675
G1 X87.752 Y141.645 E.70533
G1 X87.219 Y141.645 E.01672
G1 X71.855 Y126.281 E.68168
G1 X71.855 Y126.815 E.01675
G1 X86.685 Y141.645 E.65799
G1 X86.151 Y141.645 E.01675
G1 X71.855 Y127.349 E.6343
G1 X71.855 Y127.882 E.01672
G1 X85.618 Y141.645 E.61065
G1 X85.084 Y141.645 E.01675
G1 X71.855 Y128.416 E.58695
G1 X71.855 Y128.949 E.01672
G1 X84.551 Y141.645 E.56331
G1 X84.017 Y141.645 E.01675
G1 X71.855 Y129.483 E.53961
G1 X71.855 Y130.017 E.01675
