; generated by PrusaSlicer 2.9.2 on 2025-06-28 at 09:39:25 UTC

; 

; external perimeters extrusion width = 0.42mm
; perimeters extrusion width = 0.44mm
; infill extrusion width = 0.44mm
; solid infill extrusion width = 0.44mm
; top infill extrusion width = 0.40mm
; support material extrusion width = 0.36mm
; first layer extrusion width = 0.42mm

M201 X500 Y500 Z100 E5000 ; sets maximum accelerations, mm/sec^2
M203 X500 Y500 Z10 E60 ; sets maximum feedrates, mm / sec
M204 S500 T1000 ; sets acceleration (S) and retract acceleration (R), mm/sec^2
M205 X8.00 Y8.00 Z0.40 E5.00 ; sets the jerk limits, mm/sec
M205 S0 T0 ; sets the minimum extruding and travel feed rate, mm/sec

; printing object SportWatch_case id:0 copy 0
; stop printing object SportWatch_case id:0 copy 0

;TYPE:Custom
G90 ; use absolute coordinates
M83 ; extruder relative mode
M104 S150 ; set temporary nozzle temp to prevent oozing during homing
M140 S60 ; set final bed temp
G4 S30 ; allow partial nozzle warmup
G28 ; home all axis
G1 Z50 F240
G1 X2.0 Y10 F3000
M104 S220 ; set final nozzle temp
M190 S60 ; wait for bed temp to stabilize
M109 S220 ; wait for nozzle temp to stabilize
G1 Z0.28 F240
G92 E0
G1 X2.0 Y140 E10 F1500 ; prime the nozzle
G1 X2.3 Y140 F5000
G92 E0
G1 X2.3 Y10 E10 F1200 ; prime the nozzle
G92 E0
G21 ; set units to millimeters
G90 ; use absolute coordinates
M83 ; use relative distances for extrusion
; Filament gcode
M107
;LAYER_CHANGE
;Z:0.2
;HEIGHT:0.2
G1 E-5 F3600
G1 Z.2 F9000
; printing object SportWatch_case id:0 copy 0
G1 X124.93 Y104.436
G1 Z.2
G1 E5 F2400
M204 S500
;TYPE:Support material
;WIDTH:0.42
G1 F1200
G1 X125.967 Y105.411 E.04463
G1 X126.903 Y106.482 E.0446
G1 X127.73 Y107.64 E.04462
G1 X128.44 Y108.874 E.04464
G1 X129.026 Y110.17 E.0446
G1 X129.482 Y111.518 E.04462
G1 X129.804 Y112.904 E.04461
G1 X130.003 Y114.497 E.05034
G1 X124.405 Y114.497 E.17552
G1 X124.405 Y104.523 E.31273
G1 X124.887 Y104.399 E.0156
G1 X129.326 Y114.328 F9000
G1 F1200
G1 X129.326 Y112.27 E.06453
G1 X128.907 Y110.827 E.04711
G1 X128.907 Y114.158 E.10444
G1 X128.488 Y114.158 E.01314
G1 X128.488 Y109.765 E.13774
G1 X128.069 Y108.897 E.03022
G1 X128.069 Y114.158 E.16495
G1 X127.65 Y114.158 E.01314
G1 X127.65 Y108.154 E.18825
G1 X127.231 Y107.502 E.0243
G1 X127.231 Y114.158 E.20869
G1 X126.812 Y114.158 E.01314
G1 X126.812 Y106.92 E.22694
G1 X126.393 Y106.394 E.02109
G1 X126.393 Y114.158 E.24343
G1 X125.974 Y114.158 E.01314
G1 X125.974 Y105.915 E.25845
G1 X125.555 Y105.476 E.01903
G1 X125.555 Y114.158 E.27222
G1 X125.136 Y114.158 E.01314
G1 X125.136 Y104.843 E.29207
G1 E-3.5 F3600
;WIPE_START
G1 F7200
G1 X125.136 Y108.001 E-1.5
;WIPE_END
G1 X129.845 Y117.862 F9000
G1 E5 F2400
G1 F1200
G1 X129.545 Y119.253 E.04462
G1 X129.026 Y120.83 E.05205
G1 X128.33 Y122.337 E.05205
G1 X127.467 Y123.755 E.05205
G1 X126.291 Y125.242 E.05944
G1 X125.11 Y126.409 E.05206
G1 X123.455 Y127.668 E.0652
G1 X123.088 Y127.668 E.01151
G1 X123.088 Y119.137 E.26748
G1 X124.405 Y119.137 E.04129
G1 X124.405 Y117.82 E.04129
G1 X129.838 Y117.82 E.17035
G1 X129.326 Y119.409 F9000
G1 F1200
G1 X129.326 Y118.159 E.03919
G1 X128.907 Y118.159 E.01314
G1 X128.907 Y120.173 E.06315
G1 X128.488 Y121.235 E.0358
G1 X128.488 Y118.159 E.09645
G1 X128.069 Y118.159 E.01314
G1 X128.069 Y122.103 E.12366
G1 X127.65 Y122.846 E.02675
G1 X127.65 Y118.159 E.14696
G1 X127.231 Y118.159 E.01314
G1 X127.231 Y123.498 E.1674
G1 X126.812 Y124.08 E.02249
G1 X126.812 Y118.159 E.18565
G1 X126.393 Y118.159 E.01314
G1 X126.393 Y124.606 E.20214
G1 X125.974 Y125.085 E.01995
G1 X125.974 Y118.159 E.21716
G1 X125.555 Y118.159 E.01314
G1 X125.555 Y125.524 E.23092
G1 X125.136 Y125.927 E.01823
G1 X125.136 Y118.159 E.24356
G1 X124.745 Y118.159 E.01226
G1 X124.717 Y126.3 E.25526
G1 X124.299 Y126.643 E.01695
G1 X124.299 Y119.476 E.22472
G1 X123.88 Y119.476 E.01314
G1 X123.88 Y126.962 E.23472
G1 X123.461 Y127.257 E.01607
G1 X123.461 Y119.307 E.24927
G1 E-3.5 F3600
;WIPE_START
G1 F7200
G1 X123.461 Y122.465 E-1.5
;WIPE_END
G1 X106.595 Y119.137 F9000
G1 E5 F2400
G1 F1200
G1 X107.912 Y119.137 E.04129
G1 X107.912 Y127.668 E.26748
G1 X107.545 Y127.668 E.01151
G1 X105.802 Y126.33 E.0689
G1 X104.629 Y125.153 E.0521
G1 X103.466 Y123.657 E.05941
G1 X102.615 Y122.232 E.05204
G1 X102.018 Y120.94 E.04463
G1 X101.486 Y119.368 E.05203
G1 X101.149 Y117.82 E.04967
G1 X106.595 Y117.82 E.17076
G1 X106.595 Y119.08 E.03951
G1 X107.539 Y127.461 F9000
G1 F1200
G1 X107.539 Y119.476 E.25036
G1 X107.12 Y119.476 E.01314
G1 X107.12 Y126.962 E.23472
G1 X106.701 Y126.644 E.01649
G1 X106.701 Y119.476 E.22475
G1 X106.283 Y119.476 E.01311
G1 X106.283 Y126.299 E.21393
G1 X105.864 Y125.928 E.01755
G1 X105.864 Y118.159 E.24359
G1 X105.445 Y118.159 E.01314
G1 X105.445 Y125.524 E.23092
G1 X105.026 Y125.086 E.01901
G1 X105.026 Y118.159 E.21719
G1 X104.607 Y118.159 E.01314
G1 X104.607 Y124.606 E.20214
G1 X104.188 Y124.08 E.02109
G1 X104.188 Y118.159 E.18565
G1 X103.769 Y118.159 E.01314
G1 X103.769 Y123.498 E.1674
G1 X103.35 Y122.846 E.0243
G1 X103.35 Y118.159 E.14696
G1 X102.931 Y118.159 E.01314
G1 X102.931 Y122.104 E.12369
G1 X102.512 Y121.236 E.03022
G1 X102.512 Y118.159 E.09648
G1 X102.093 Y118.159 E.01314
G1 X102.093 Y120.174 E.06318
G1 X101.674 Y118.728 E.0472
G1 X101.674 Y117.99 E.02314
G1 E-3.5 F3600
;WIPE_START
G1 F7200
G1 X101.674 Y118.728 E-.35055
G1 X102.093 Y120.174 E-.7151
G1 X102.093 Y119.26 E-.43435
;WIPE_END
G1 X123.864 Y101.656 F9000
G1 E5 F2400
;TYPE:Perimeter
;WIDTH:0.640078
G1 F1200
G1 X123.454 Y101.422 E.02344
G1 E-3.5 F3600
;WIPE_START
G1 F7200
G1 X123.864 Y101.656 E-.22424
;WIPE_END
G1 E-1.27576 F3600
G1 X107.721 Y101.299 F9000
G1 E5 F2400
;WIDTH:0.675382
G1 F1200
G1 X107.189 Y101.63 E.03295
G1 E-3.5 F3600
;WIPE_START
G1 F7200
G1 X107.721 Y101.299 E-.29762
;WIPE_END
G1 E-1.20238 F3600
G1 X107.241 Y129.401 F9000
G1 E5 F2400
;WIDTH:0.633514
G1 F1200
G1 X107.54 Y129.571 E.01689
G1 E-3.5 F3600
;WIPE_START
G1 F7200
G1 X107.241 Y129.401 E-.16338
;WIPE_END
G1 E-1.33662 F3600
G1 X123.478 Y129.562 F9000
G1 E5 F2400
;WIDTH:0.642606
G1 F1200
G1 X123.831 Y129.365 E.02016
G1 X123.841 Y129.353 F9000
;WIDTH:0.642545
G1 F1200
G1 X123.831 Y129.365 E.00078
G1 X123.954 Y129.36 E.00614
;WIDTH:0.598036
G1 X124.077 Y129.355 E.00568
;WIDTH:0.553527
G1 X124.2 Y129.35 E.00523
;WIDTH:0.509018
G1 X124.323 Y129.345 E.00477
;WIDTH:0.464509
G1 X124.446 Y129.34 E.00432
;WIDTH:0.419999
G1 X124.922 Y129.399 E.01504
G1 X125.262 Y129.524 E.01136
G1 X125.658 Y129.835 E.01579
G1 X125.937 Y130.16 E.01343
G1 X126.121 Y130.635 E.01597
G1 X126.159 Y131.095 E.01447
G1 X126.016 Y131.666 E.01846
G1 X125.823 Y131.996 E.01199
G1 X125.535 Y132.303 E.0132
G1 X125.284 Y132.454 E.00918
G1 X124.763 Y132.644 E.01739
G1 X124.35 Y132.652 E.01295
G1 X124.014 Y132.583 E.01075
G1 X123.541 Y132.36 E.0164
G1 X123.116 Y131.924 E.01909
G1 X122.908 Y131.455 E.01609
G1 X122.846 Y131.078 E.01198
G1 X122.915 Y130.501 E.01822
G1 X123.077 Y130.153 E.01204
;WIDTH:0.46036
G1 X123.154 Y130.039 E.00478
;WIDTH:0.50072
G1 X123.232 Y129.925 E.00526
;WIDTH:0.54108
G1 X123.309 Y129.81 E.00573
;WIDTH:0.58144
G1 X123.386 Y129.696 E.00616
;WIDTH:0.6218
G1 X123.464 Y129.582 E.00665
G1 X123.371 Y129.601 E.00457
;WIDTH:0.572478
G1 X123.278 Y129.62 E.00418
;WIDTH:0.523155
G1 X123.186 Y129.639 E.00375
;WIDTH:0.473832
G1 X123.093 Y129.659 E.00341
;WIDTH:0.424509
G1 X122.487 Y129.963 E.02151
;WIDTH:0.419999
G1 X121.983 Y130.193 E.01737
G1 X120.982 Y130.6 E.03388
G1 X120.236 Y130.85 E.02467
G1 X119.512 Y131.054 E.02358
G1 X118.713 Y131.239 E.02571
G1 X117.939 Y131.378 E.02466
G1 X117.159 Y131.478 E.02466
G1 X116.375 Y131.54 E.02466
G1 X115.3 Y131.559 E.03371
G1 X114.767 Y131.547 E.01672
G1 X114.018 Y131.495 E.02354
G1 X113.237 Y131.404 E.02465
G1 X112.538 Y131.287 E.02222
G1 X111.693 Y131.106 E.0271
G1 X110.934 Y130.901 E.02465
G1 X110.345 Y130.711 E.0194
G1 X109.518 Y130.407 E.02763
G1 X108.729 Y130.067 E.02694
G1 X108.024 Y129.718 E.02466
;WIDTH:0.462702
G1 X107.927 Y129.689 E.00353
;WIDTH:0.505405
G1 X107.83 Y129.659 E.0039
;WIDTH:0.548108
G1 X107.734 Y129.63 E.00421
;WIDTH:0.590811
G1 X107.637 Y129.601 E.00461
;WIDTH:0.633514
G1 X107.54 Y129.571 E.00499
G1 X107.595 Y129.656 E.00497
;WIDTH:0.590811
G1 X107.65 Y129.741 E.00461
;WIDTH:0.548108
G1 X107.706 Y129.826 E.00428
;WIDTH:0.505405
G1 X107.761 Y129.911 E.00389
;WIDTH:0.462702
G1 X107.816 Y129.996 E.00353
;WIDTH:0.419999
G1 X108.015 Y130.333 E.01227
G1 X108.114 Y130.623 E.00961
G1 X108.145 Y131.117 E.01552
G1 X108.049 Y131.596 E.01532
G1 X107.743 Y132.106 E.01865
G1 X107.262 Y132.48 E.0191
G1 X106.772 Y132.642 E.01618
G1 X106.302 Y132.652 E.01474
G1 X105.816 Y132.512 E.01586
G1 X105.531 Y132.343 E.01039
G1 X105.293 Y132.137 E.00987
G1 X105.062 Y131.814 E.01245
G1 X104.923 Y131.493 E.01097
G1 X104.846 Y131.079 E.0132
G1 X104.885 Y130.596 E.01519
G1 X105.121 Y130.072 E.01802
G1 X105.45 Y129.727 E.01495
G1 X105.872 Y129.469 E.01551
G1 X106.446 Y129.34 E.01845
;WIDTH:0.461429
G1 X106.604 Y129.351 E.00551
;WIDTH:0.502859
G1 X106.761 Y129.363 E.00602
;WIDTH:0.544289
G1 X106.919 Y129.374 E.0066
;WIDTH:0.585719
G1 X107.076 Y129.386 E.00711
;WIDTH:0.627149
G1 X107.233 Y129.398 E.00765
G1 X107.182 Y129.342 E.00368
;WIDTH:0.588247
G1 X107.131 Y129.286 E.00343
;WIDTH:0.549344
G1 X107.08 Y129.23 E.00319
;WIDTH:0.510442
G1 X107.028 Y129.174 E.00297
;WIDTH:0.471539
G1 X106.813 Y129.022 E.00938
;WIDTH:0.445769
G1 X106.598 Y128.871 E.0088
;WIDTH:0.419999
G1 X106.02 Y128.468 E.02209
G1 X105.484 Y128.056 E.0212
G1 X104.801 Y127.482 E.02797
G1 X104.227 Y126.944 E.02467
G1 X103.83 Y126.534 E.01789
G1 X103.251 Y125.889 E.02718
G1 X102.708 Y125.214 E.02716
G1 X102.216 Y124.532 E.02637
G1 X101.79 Y123.871 E.02466
G1 X101.396 Y123.19 E.02467
G1 X101.037 Y122.491 E.02464
G1 X100.78 Y121.924 E.01952
G1 X100.449 Y121.11 E.02755
G1 X100.17 Y120.299 E.02689
G1 X99.953 Y119.543 E.02466
G1 X99.794 Y118.861 E.02196
G1 X99.651 Y118.107 E.02406
G1 X99.55 Y117.386 E.02283
G1 X99.491 Y116.777 E.01918
G1 X99.437 Y115.654 E.03525
G1 X99.449 Y114.868 E.02465
G1 X99.499 Y114.083 E.02466
G1 X99.585 Y113.323 E.02398
G1 X99.701 Y112.605 E.0228
G1 X99.858 Y111.852 E.02412
G1 X100.01 Y111.261 E.01913
G1 X100.38 Y110.083 E.03871
G1 X100.594 Y109.511 E.01915
G1 X100.905 Y108.788 E.02468
G1 X101.251 Y108.082 E.02465
G1 X101.561 Y107.521 E.0201
G1 X102.045 Y106.725 E.02921
G1 X102.491 Y106.077 E.02466
G1 X103.281 Y105.079 E.03991
G1 X104.042 Y104.241 E.03549
G1 X104.573 Y103.725 E.02322
G1 X105.162 Y103.204 E.02466
G1 X105.703 Y102.772 E.02171
G1 X106.298 Y102.336 E.02313
;WIDTH:0.426218
G1 X106.92 Y101.92 E.02385
;WIDTH:0.468269
G1 X106.974 Y101.862 E.0028
;WIDTH:0.510319
G1 X107.027 Y101.804 E.00305
;WIDTH:0.55237
G1 X107.081 Y101.746 E.00336
;WIDTH:0.59442
G1 X107.135 Y101.688 E.00363
;WIDTH:0.63647
G1 X107.189 Y101.63 E.00391
G1 X107.033 Y101.635 E.0077
;WIDTH:0.593176
G1 X106.877 Y101.639 E.00714
;WIDTH:0.549882
G1 X106.722 Y101.644 E.00654
;WIDTH:0.506588
G1 X106.566 Y101.649 E.00602
;WIDTH:0.463294
G1 X106.41 Y101.653 E.00545
;WIDTH:0.419999
G1 X106.12 Y101.612 E.00918
G1 X105.672 Y101.433 E.01513
G1 X105.321 Y101.167 E.01381
G1 X105.095 Y100.882 E.0114
G1 X104.95 Y100.602 E.00989
G1 X104.877 Y100.308 E.0095
G1 X104.845 Y99.888 E.01321
G1 X104.922 Y99.51 E.0121
G1 X105.125 Y99.066 E.01531
G1 X105.482 Y98.699 E.01605
G1 X105.674 Y98.555 E.00753
G1 X106.143 Y98.383 E.01566
G1 X106.485 Y98.341 E.0108
G1 X106.919 Y98.39 E.01369
G1 X107.498 Y98.668 E.02014
G1 X107.918 Y99.13 E.01958
G1 X108.109 Y99.611 E.01623
G1 X108.153 Y100.027 E.01312
G1 X108.132 Y100.281 E.00799
G1 X108.024 Y100.648 E.01199
;WIDTH:0.469223
G1 X107.965 Y100.775 E.00496
;WIDTH:0.518447
G1 X107.906 Y100.903 E.00557
;WIDTH:0.567671
G1 X107.847 Y101.031 E.00615
;WIDTH:0.616895
G1 X107.789 Y101.159 E.00671
;WIDTH:0.666119
G1 X107.73 Y101.286 E.00726
G1 X107.82 Y101.27 E.00474
;WIDTH:0.616895
G1 X107.911 Y101.254 E.00441
;WIDTH:0.567671
G1 X108.001 Y101.237 E.004
;WIDTH:0.518447
G1 X108.091 Y101.221 E.00361
;WIDTH:0.469223
G1 X108.182 Y101.205 E.00328
;WIDTH:0.419999
G1 X108.933 Y100.844 E.02613
G1 X109.895 Y100.446 E.03264
G1 X110.639 Y100.189 E.02468
G1 X111.303 Y99.996 E.02168
G1 X112.159 Y99.787 E.02763
G1 X112.932 Y99.643 E.02465
G1 X113.711 Y99.536 E.02465
G1 X114.494 Y99.468 E.02464
G1 X115.208 Y99.44 E.0224
G1 X116.321 Y99.457 E.0349
G1 X117.113 Y99.517 E.0249
G1 X117.893 Y99.615 E.02465
G1 X118.434 Y99.71 E.01722
G1 X119.434 Y99.925 E.03207
G1 X120.192 Y100.137 E.02468
G1 X120.938 Y100.385 E.02465
G1 X121.618 Y100.648 E.02286
G1 X122.763 Y101.177 E.03955
;WIDTH:0.46981
G1 X123.145 Y101.344 E.0148
;WIDTH:0.512262
G1 X123.222 Y101.363 E.0031
;WIDTH:0.554713
G1 X123.3 Y101.383 E.00343
;WIDTH:0.597165
G1 X123.377 Y101.403 E.00367
;WIDTH:0.639616
G1 X123.454 Y101.422 E.00393
G1 X123.377 Y101.303 E.00703
;WIDTH:0.595693
G1 X123.299 Y101.184 E.00654
;WIDTH:0.55177
G1 X123.221 Y101.066 E.00598
;WIDTH:0.507846
G1 X123.144 Y100.947 E.00548
;WIDTH:0.463923
G1 X123.066 Y100.828 E.00498
;WIDTH:0.419999
G1 X122.923 Y100.514 E.01082
G1 X122.839 Y100.021 E.01568
G1 X122.907 Y99.547 E.01501
G1 X123.116 Y99.08 E.01604
G1 X123.308 Y98.85 E.00939
G1 X123.718 Y98.531 E.01629
G1 X124.288 Y98.35 E.01875
G1 X124.875 Y98.378 E.01843
G1 X125.406 Y98.606 E.01812
G1 X125.638 Y98.799 E.00946
G1 X125.823 Y99.004 E.00866
G1 X126.016 Y99.334 E.01199
G1 X126.153 Y99.803 E.01532
G1 X126.125 Y100.341 E.01689
G1 X126.024 Y100.647 E.0101
G1 X125.865 Y100.943 E.01054
G1 X125.643 Y101.198 E.0106
G1 X125.198 Y101.51 E.01704
G1 X124.62 Y101.66 E.01872
;WIDTH:0.459115
G1 X124.368 Y101.655 E.00872
;WIDTH:0.498231
G1 X124.115 Y101.651 E.00958
;WIDTH:0.543199
G1 X124.035 Y101.654 E.00333
;WIDTH:0.588167
G1 X123.955 Y101.658 E.00363
;WIDTH:0.633135
G1 X123.875 Y101.662 E.00393
G1 X123.953 Y101.738 E.00534
;WIDTH:0.590508
G1 X124.031 Y101.814 E.00496
;WIDTH:0.547881
G1 X124.11 Y101.89 E.0046
;WIDTH:0.505254
G1 X124.188 Y101.967 E.00421
;WIDTH:0.462627
G1 X124.266 Y102.043 E.0038
;WIDTH:0.419999
G1 X124.908 Y102.484 E.02442
G1 X125.421 Y102.871 E.02015
G1 X126.297 Y103.605 E.03583
G1 X126.866 Y104.148 E.02466
G1 X127.408 Y104.718 E.02466
G1 X127.921 Y105.314 E.02466
G1 X128.405 Y105.934 E.02466
G1 X128.857 Y106.577 E.02464
G1 X129.254 Y107.202 E.02322
G1 X129.666 Y107.925 E.02609
G1 X129.953 Y108.496 E.02004
G1 X130.316 Y109.296 E.02754
G1 X130.622 Y110.08 E.02639
G1 X130.993 Y111.271 E.03911
G1 X131.203 Y112.13 E.02773
G1 X131.343 Y112.871 E.02364
G1 X131.445 Y113.586 E.02265
G1 X131.517 Y114.334 E.02356
G1 X131.554 Y115.067 E.02301
G1 X131.544 Y116.309 E.03894
G1 X131.489 Y117.047 E.0232
G1 X131.394 Y117.828 E.02467
G1 X131.261 Y118.603 E.02465
G1 X131.091 Y119.371 E.02466
G1 X130.882 Y120.129 E.02465
G1 X130.637 Y120.877 E.02468
G1 X130.367 Y121.584 E.02373
G1 X130.039 Y122.331 E.02558
G1 X129.735 Y122.94 E.02134
G1 X129.449 Y123.459 E.01858
G1 X128.883 Y124.385 E.03403
G1 X128.498 Y124.936 E.02108
G1 X128.124 Y125.427 E.01935
G1 X127.326 Y126.368 E.03869
G1 X126.894 Y126.824 E.01969
G1 X126.331 Y127.364 E.02446
G1 X125.885 Y127.751 E.01851
G1 X125.119 Y128.366 E.0308
G1 X124.478 Y128.821 E.02465
;WIDTH:0.449136
G1 X124.256 Y128.98 E.00922
;WIDTH:0.478273
G1 X124.034 Y129.139 E.00988
;WIDTH:0.519341
G1 X123.983 Y129.196 E.00303
;WIDTH:0.560409
G1 X123.932 Y129.252 E.00326
;WIDTH:0.601477
G1 X123.882 Y129.309 E.00352
G1 X123.63 Y128.9 F9000
;WIDTH:0.419999
G1 F1200
G1 X123.238 Y129.141 E.01443
G1 X122.577 Y129.495 E.02351
G1 X121.829 Y129.849 E.02595
G1 X120.845 Y130.248 E.03329
G1 X120.117 Y130.492 E.02407
G1 X119.41 Y130.691 E.02303
G1 X118.629 Y130.872 E.02514
G1 X117.873 Y131.006 E.02407
G1 X117.111 Y131.104 E.02409
G1 X116.345 Y131.164 E.02409
G1 X115.803 Y131.18 E.017
G1 X115.251 Y131.181 E.01731
G1 X114.044 Y131.119 E.03789
G1 X113.281 Y131.029 E.02409
G1 X112.601 Y130.915 E.02162
G1 X111.774 Y130.738 E.02652
G1 X111.032 Y130.537 E.0241
G1 X110.462 Y130.353 E.01878
G1 X109.652 Y130.054 E.02707
G1 X108.88 Y129.722 E.02635
G1 X108.192 Y129.381 E.02408
G1 X107.618 Y129.06 E.02062
G1 X106.936 Y128.641 E.0251
G1 X106.473 Y128.324 E.01759
G1 X105.714 Y127.758 E.02969
