; generated by PrusaSlicer 2.9.2 on 2025-06-29 at 07:01:35 UTC

; 

; external perimeters extrusion width = 0.42mm
; perimeters extrusion width = 0.44mm
; infill extrusion width = 0.44mm
; solid infill extrusion width = 0.44mm
; top infill extrusion width = 0.40mm
; first layer extrusion width = 0.42mm

M201 X500 Y500 Z100 E5000 ; sets maximum accelerations, mm/sec^2
M203 X500 Y500 Z10 E60 ; sets maximum feedrates, mm / sec
M204 S500 T1000 ; sets acceleration (S) and retract acceleration (R), mm/sec^2
M205 X8.00 Y8.00 Z0.40 E5.00 ; sets the jerk limits, mm/sec
M205 S0 T0 ; sets the minimum extruding and travel feed rate, mm/sec

; printing object SportWatch_case id:0 copy 0
; stop printing object SportWatch_case id:0 copy 0

;TYPE:Custom
G90 ; use absolute coordinates
M83 ; extruder relative mode
M104 S150 ; set temporary nozzle temp to prevent oozing during homing
M140 S60 ; set final bed temp
G4 S30 ; allow partial nozzle warmup
G28 ; home all axis
G1 Z50 F240
G1 X2.0 Y10 F3000
M104 S220 ; set final nozzle temp
M190 S60 ; wait for bed temp to stabilize
M109 S220 ; wait for nozzle temp to stabilize
G1 Z0.28 F240
G92 E0
G1 X2.0 Y140 E10 F1500 ; prime the nozzle
G1 X2.3 Y140 F5000
G92 E0
G1 X2.3 Y10 E10 F1200 ; prime the nozzle
G92 E0
G21 ; set units to millimeters
G90 ; use absolute coordinates
M83 ; use relative distances for extrusion
; Filament gcode
M107
;LAYER_CHANGE
;Z:0.2
;HEIGHT:0.2
G1 E-5 F3600
G1 Z.2 F9000
; printing object SportWatch_case id:0 copy 0
G1 X123.864 Y101.656
G1 Z.2
G1 E5 F2400
M204 S500
;TYPE:Perimeter
;WIDTH:0.640078
G1 F1200
G1 X123.454 Y101.422 E.02344
G1 E-3.5 F3600
;WIPE_START
G1 F7200
G1 X123.864 Y101.656 E-.22424
;WIPE_END
G1 E-1.27576 F3600
G1 X107.721 Y101.299 F9000
G1 E5 F2400
;WIDTH:0.675382
G1 F1200
G1 X107.189 Y101.63 E.03295
G1 E-3.5 F3600
;WIPE_START
G1 F7200
G1 X107.721 Y101.299 E-.29762
;WIPE_END
G1 E-1.20238 F3600
G1 X107.241 Y129.401 F9000
G1 E5 F2400
;WIDTH:0.633514
G1 F1200
G1 X107.54 Y129.571 E.01689
G1 E-3.5 F3600
;WIPE_START
G1 F7200
G1 X107.241 Y129.401 E-.16338
;WIPE_END
G1 E-1.33662 F3600
G1 X123.478 Y129.562 F9000
G1 E5 F2400
;WIDTH:0.642606
G1 F1200
G1 X123.831 Y129.365 E.02016
G1 X123.841 Y129.353 F9000
;WIDTH:0.642545
G1 F1200
G1 X123.831 Y129.365 E.00078
G1 X123.954 Y129.36 E.00614
;WIDTH:0.598036
G1 X124.077 Y129.355 E.00568
;WIDTH:0.553527
G1 X124.2 Y129.35 E.00523
;WIDTH:0.509018
G1 X124.323 Y129.345 E.00477
;WIDTH:0.464509
G1 X124.446 Y129.34 E.00432
;WIDTH:0.419999
G1 X124.922 Y129.399 E.01504
G1 X125.262 Y129.524 E.01136
G1 X125.658 Y129.835 E.01579
G1 X125.937 Y130.16 E.01343
G1 X126.121 Y130.635 E.01597
G1 X126.159 Y131.095 E.01447
G1 X126.016 Y131.666 E.01846
G1 X125.823 Y131.996 E.01199
G1 X125.535 Y132.303 E.0132
G1 X125.284 Y132.454 E.00918
G1 X124.763 Y132.644 E.01739
G1 X124.35 Y132.652 E.01295
G1 X124.014 Y132.583 E.01075
G1 X123.541 Y132.36 E.0164
G1 X123.116 Y131.924 E.01909
G1 X122.908 Y131.455 E.01609
G1 X122.846 Y131.078 E.01198
G1 X122.915 Y130.501 E.01822
G1 X123.077 Y130.153 E.01204
;WIDTH:0.46036
G1 X123.154 Y130.039 E.00478
;WIDTH:0.50072
G1 X123.232 Y129.925 E.00526
;WIDTH:0.54108
G1 X123.309 Y129.81 E.00573
;WIDTH:0.58144
G1 X123.386 Y129.696 E.00616
;WIDTH:0.6218
G1 X123.464 Y129.582 E.00665
G1 X123.371 Y129.601 E.00457
;WIDTH:0.572478
G1 X123.278 Y129.62 E.00418
;WIDTH:0.523155
G1 X123.186 Y129.639 E.00375
;WIDTH:0.473832
G1 X123.093 Y129.659 E.00341
;WIDTH:0.424509
G1 X122.487 Y129.963 E.02151
;WIDTH:0.419999
G1 X121.983 Y130.193 E.01737
G1 X120.982 Y130.6 E.03388
G1 X120.236 Y130.85 E.02467
G1 X119.512 Y131.054 E.02358
G1 X118.713 Y131.239 E.02571
G1 X117.939 Y131.378 E.02466
G1 X117.159 Y131.478 E.02466
G1 X116.375 Y131.54 E.02466
G1 X115.3 Y131.559 E.03371
G1 X114.767 Y131.547 E.01672
G1 X114.018 Y131.495 E.02354
G1 X113.237 Y131.404 E.02465
G1 X112.538 Y131.287 E.02222
G1 X111.693 Y131.106 E.0271
G1 X110.934 Y130.901 E.02465
G1 X110.345 Y130.711 E.0194
G1 X109.518 Y130.407 E.02763
G1 X108.729 Y130.067 E.02694
G1 X108.024 Y129.718 E.02466
;WIDTH:0.462702
G1 X107.927 Y129.689 E.00353
;WIDTH:0.505405
G1 X107.83 Y129.659 E.0039
;WIDTH:0.548108
G1 X107.734 Y129.63 E.00421
;WIDTH:0.590811
G1 X107.637 Y129.601 E.00461
;WIDTH:0.633514
G1 X107.54 Y129.571 E.00499
G1 X107.595 Y129.656 E.00497
;WIDTH:0.590811
G1 X107.65 Y129.741 E.00461
;WIDTH:0.548108
G1 X107.706 Y129.826 E.00428
;WIDTH:0.505405
G1 X107.761 Y129.911 E.00389
;WIDTH:0.462702
G1 X107.816 Y129.996 E.00353
;WIDTH:0.419999
G1 X108.015 Y130.333 E.01227
G1 X108.114 Y130.623 E.00961
G1 X108.145 Y131.117 E.01552
G1 X108.049 Y131.596 E.01532
G1 X107.743 Y132.106 E.01865
G1 X107.262 Y132.48 E.0191
G1 X106.772 Y132.642 E.01618
G1 X106.302 Y132.652 E.01474
G1 X105.816 Y132.512 E.01586
G1 X105.531 Y132.343 E.01039
G1 X105.293 Y132.137 E.00987
G1 X105.062 Y131.814 E.01245
G1 X104.923 Y131.493 E.01097
G1 X104.846 Y131.079 E.0132
G1 X104.885 Y130.596 E.01519
G1 X105.121 Y130.072 E.01802
G1 X105.45 Y129.727 E.01495
G1 X105.872 Y129.469 E.01551
G1 X106.446 Y129.34 E.01845
;WIDTH:0.461429
G1 X106.604 Y129.351 E.00551
;WIDTH:0.502859
G1 X106.761 Y129.363 E.00602
;WIDTH:0.544289
G1 X106.919 Y129.374 E.0066
;WIDTH:0.585719
G1 X107.076 Y129.386 E.00711
;WIDTH:0.627149
G1 X107.233 Y129.398 E.00765
G1 X107.182 Y129.342 E.00368
;WIDTH:0.588247
G1 X107.131 Y129.286 E.00343
;WIDTH:0.549344
G1 X107.08 Y129.23 E.00319
;WIDTH:0.510442
G1 X107.028 Y129.174 E.00297
;WIDTH:0.471539
G1 X106.813 Y129.022 E.00938
;WIDTH:0.445769
G1 X106.598 Y128.871 E.0088
;WIDTH:0.419999
G1 X106.02 Y128.468 E.02209
G1 X105.484 Y128.056 E.0212
G1 X104.801 Y127.482 E.02797
G1 X104.227 Y126.944 E.02467
G1 X103.83 Y126.534 E.01789
G1 X103.251 Y125.889 E.02718
G1 X102.708 Y125.214 E.02716
G1 X102.216 Y124.532 E.02637
G1 X101.79 Y123.871 E.02466
G1 X101.396 Y123.19 E.02467
G1 X101.037 Y122.491 E.02464
G1 X100.78 Y121.924 E.01952
G1 X100.449 Y121.11 E.02755
G1 X100.17 Y120.299 E.02689
G1 X99.953 Y119.543 E.02466
G1 X99.794 Y118.861 E.02196
G1 X99.651 Y118.107 E.02406
G1 X99.55 Y117.386 E.02283
G1 X99.491 Y116.777 E.01918
G1 X99.437 Y115.654 E.03525
G1 X99.449 Y114.868 E.02465
G1 X99.499 Y114.083 E.02466
G1 X99.585 Y113.323 E.02398
G1 X99.701 Y112.605 E.0228
G1 X99.858 Y111.852 E.02412
G1 X100.01 Y111.261 E.01913
G1 X100.38 Y110.083 E.03871
G1 X100.594 Y109.511 E.01915
G1 X100.905 Y108.788 E.02468
G1 X101.251 Y108.082 E.02465
G1 X101.561 Y107.521 E.0201
G1 X102.045 Y106.725 E.02921
G1 X102.491 Y106.077 E.02466
G1 X103.281 Y105.079 E.03991
G1 X104.042 Y104.241 E.03549
G1 X104.573 Y103.725 E.02322
G1 X105.162 Y103.204 E.02466
G1 X105.703 Y102.772 E.02171
G1 X106.298 Y102.336 E.02313
;WIDTH:0.426218
G1 X106.92 Y101.92 E.02385
;WIDTH:0.468269
G1 X106.974 Y101.862 E.0028
;WIDTH:0.510319
G1 X107.027 Y101.804 E.00305
;WIDTH:0.55237
G1 X107.081 Y101.746 E.00336
;WIDTH:0.59442
G1 X107.135 Y101.688 E.00363
;WIDTH:0.63647
G1 X107.189 Y101.63 E.00391
G1 X107.033 Y101.635 E.0077
;WIDTH:0.593176
G1 X106.877 Y101.639 E.00714
;WIDTH:0.549882
G1 X106.722 Y101.644 E.00654
;WIDTH:0.506588
G1 X106.566 Y101.649 E.00602
;WIDTH:0.463294
G1 X106.41 Y101.653 E.00545
;WIDTH:0.419999
G1 X106.12 Y101.612 E.00918
G1 X105.672 Y101.433 E.01513
G1 X105.321 Y101.167 E.01381
G1 X105.095 Y100.882 E.0114
G1 X104.95 Y100.602 E.00989
G1 X104.877 Y100.308 E.0095
G1 X104.845 Y99.888 E.01321
G1 X104.922 Y99.51 E.0121
G1 X105.125 Y99.066 E.01531
G1 X105.482 Y98.699 E.01605
G1 X105.674 Y98.555 E.00753
G1 X106.143 Y98.383 E.01566
G1 X106.485 Y98.341 E.0108
G1 X106.919 Y98.39 E.01369
G1 X107.498 Y98.668 E.02014
G1 X107.918 Y99.13 E.01958
G1 X108.109 Y99.611 E.01623
G1 X108.153 Y100.027 E.01312
G1 X108.132 Y100.281 E.00799
G1 X108.024 Y100.648 E.01199
;WIDTH:0.469223
G1 X107.965 Y100.775 E.00496
;WIDTH:0.518447
G1 X107.906 Y100.903 E.00557
;WIDTH:0.567671
G1 X107.847 Y101.031 E.00615
;WIDTH:0.616895
G1 X107.789 Y101.159 E.00671
;WIDTH:0.666119
G1 X107.73 Y101.286 E.00726
G1 X107.82 Y101.27 E.00474
;WIDTH:0.616895
G1 X107.911 Y101.254 E.00441
;WIDTH:0.567671
G1 X108.001 Y101.237 E.004
;WIDTH:0.518447
G1 X108.091 Y101.221 E.00361
;WIDTH:0.469223
G1 X108.182 Y101.205 E.00328
;WIDTH:0.419999
G1 X108.933 Y100.844 E.02613
G1 X109.895 Y100.446 E.03264
G1 X110.639 Y100.189 E.02468
G1 X111.303 Y99.996 E.02168
G1 X112.159 Y99.787 E.02763
G1 X112.932 Y99.643 E.02465
G1 X113.711 Y99.536 E.02465
G1 X114.494 Y99.468 E.02464
G1 X115.208 Y99.44 E.0224
G1 X116.321 Y99.457 E.0349
G1 X117.113 Y99.517 E.0249
G1 X117.893 Y99.615 E.02465
G1 X118.434 Y99.71 E.01722
G1 X119.434 Y99.925 E.03207
G1 X120.192 Y100.137 E.02468
G1 X120.938 Y100.385 E.02465
G1 X121.618 Y100.648 E.02286
G1 X122.763 Y101.177 E.03955
;WIDTH:0.46981
G1 X123.145 Y101.344 E.0148
;WIDTH:0.512262
G1 X123.222 Y101.363 E.0031
;WIDTH:0.554713
G1 X123.3 Y101.383 E.00343
;WIDTH:0.597165
G1 X123.377 Y101.403 E.00367
;WIDTH:0.639616
G1 X123.454 Y101.422 E.00393
G1 X123.377 Y101.303 E.00703
;WIDTH:0.595693
G1 X123.299 Y101.184 E.00654
;WIDTH:0.55177
G1 X123.221 Y101.066 E.00598
;WIDTH:0.507846
G1 X123.144 Y100.947 E.00548
;WIDTH:0.463923
G1 X123.066 Y100.828 E.00498
;WIDTH:0.419999
G1 X122.923 Y100.514 E.01082
G1 X122.839 Y100.021 E.01568
G1 X122.907 Y99.547 E.01501
G1 X123.116 Y99.08 E.01604
G1 X123.308 Y98.85 E.00939
G1 X123.718 Y98.531 E.01629
G1 X124.288 Y98.35 E.01875
G1 X124.875 Y98.378 E.01843
G1 X125.406 Y98.606 E.01812
G1 X125.638 Y98.799 E.00946
G1 X125.823 Y99.004 E.00866
G1 X126.016 Y99.334 E.01199
G1 X126.153 Y99.803 E.01532
G1 X126.125 Y100.341 E.01689
G1 X126.024 Y100.647 E.0101
G1 X125.865 Y100.943 E.01054
G1 X125.643 Y101.198 E.0106
G1 X125.198 Y101.51 E.01704
G1 X124.62 Y101.66 E.01872
;WIDTH:0.459115
G1 X124.368 Y101.655 E.00872
;WIDTH:0.498231
G1 X124.115 Y101.651 E.00958
;WIDTH:0.543199
G1 X124.035 Y101.654 E.00333
;WIDTH:0.588167
G1 X123.955 Y101.658 E.00363
;WIDTH:0.633135
G1 X123.875 Y101.662 E.00393
G1 X123.953 Y101.738 E.00534
;WIDTH:0.590508
G1 X124.031 Y101.814 E.00496
;WIDTH:0.547881
G1 X124.11 Y101.89 E.0046
;WIDTH:0.505254
G1 X124.188 Y101.967 E.00421
;WIDTH:0.462627
G1 X124.266 Y102.043 E.0038
;WIDTH:0.419999
G1 X124.908 Y102.484 E.02442
G1 X125.421 Y102.871 E.02015
G1 X126.297 Y103.605 E.03583
G1 X126.866 Y104.148 E.02466
G1 X127.408 Y104.718 E.02466
G1 X127.921 Y105.314 E.02466
G1 X128.405 Y105.934 E.02466
G1 X128.857 Y106.577 E.02464
G1 X129.254 Y107.202 E.02322
G1 X129.666 Y107.925 E.02609
G1 X129.953 Y108.496 E.02004
G1 X130.316 Y109.296 E.02754
G1 X130.622 Y110.08 E.02639
G1 X130.993 Y111.271 E.03911
G1 X131.203 Y112.13 E.02773
G1 X131.343 Y112.871 E.02364
G1 X131.445 Y113.586 E.02265
G1 X131.517 Y114.334 E.02356
G1 X131.554 Y115.067 E.02301
G1 X131.544 Y116.309 E.03894
G1 X131.489 Y117.047 E.0232
G1 X131.394 Y117.828 E.02467
G1 X131.261 Y118.603 E.02465
G1 X131.091 Y119.371 E.02466
G1 X130.882 Y120.129 E.02465
G1 X130.637 Y120.877 E.02468
G1 X130.367 Y121.584 E.02373
G1 X130.039 Y122.331 E.02558
G1 X129.735 Y122.94 E.02134
G1 X129.449 Y123.459 E.01858
G1 X128.883 Y124.385 E.03403
G1 X128.498 Y124.936 E.02108
G1 X128.124 Y125.427 E.01935
G1 X127.326 Y126.368 E.03869
G1 X126.894 Y126.824 E.01969
G1 X126.331 Y127.364 E.02446
G1 X125.885 Y127.751 E.01851
G1 X125.119 Y128.366 E.0308
G1 X124.478 Y128.821 E.02465
;WIDTH:0.449136
G1 X124.256 Y128.98 E.00922
;WIDTH:0.478273
G1 X124.034 Y129.139 E.00988
;WIDTH:0.519341
G1 X123.983 Y129.196 E.00303
;WIDTH:0.560409
G1 X123.932 Y129.252 E.00326
;WIDTH:0.601477
G1 X123.882 Y129.309 E.00352
G1 X123.63 Y128.9 F9000
;WIDTH:0.419999
G1 F1200
G1 X123.238 Y129.141 E.01443
G1 X122.577 Y129.495 E.02351
G1 X121.829 Y129.849 E.02595
G1 X120.845 Y130.248 E.03329
G1 X120.117 Y130.492 E.02407
G1 X119.41 Y130.691 E.02303
G1 X118.629 Y130.872 E.02514
G1 X117.873 Y131.006 E.02407
G1 X117.111 Y131.104 E.02409
G1 X116.345 Y131.164 E.02409
G1 X115.803 Y131.18 E.017
G1 X115.251 Y131.181 E.01731
G1 X114.044 Y131.119 E.03789
G1 X113.281 Y131.029 E.02409
G1 X112.601 Y130.915 E.02162
G1 X111.774 Y130.738 E.02652
G1 X111.032 Y130.537 E.0241
G1 X110.462 Y130.353 E.01878
G1 X109.652 Y130.054 E.02707
G1 X108.88 Y129.722 E.02635
G1 X108.192 Y129.381 E.02408
G1 X107.618 Y129.06 E.02062
G1 X106.936 Y128.641 E.0251
G1 X106.473 Y128.324 E.01759
G1 X105.714 Y127.758 E.02969
G1 X105.045 Y127.195 E.02742
G1 X104.486 Y126.67 E.02404
G1 X103.535 Y125.641 E.04393
G1 X103.003 Y124.98 E.0266
G1 X102.523 Y124.313 E.02577
G1 X102.107 Y123.667 E.02409
G1 X101.723 Y123.002 E.02408
G1 X101.373 Y122.319 E.02406
G1 X101.123 Y121.769 E.01894
G1 X100.8 Y120.971 E.02699
G1 X100.527 Y120.178 E.0263
G1 X100.316 Y119.439 E.0241
G1 X100.161 Y118.776 E.02135
G1 X100.022 Y118.04 E.02348
G1 X99.924 Y117.337 E.02226
G1 X99.867 Y116.746 E.01862
G1 X99.814 Y115.642 E.03465
G1 X99.826 Y114.874 E.02408
G1 X99.875 Y114.108 E.02407
G1 X99.959 Y113.366 E.02341
G1 X100.073 Y112.666 E.02224
G1 X100.226 Y111.932 E.02351
G1 X100.374 Y111.359 E.01856
G1 X100.733 Y110.216 E.03756
G1 X100.947 Y109.643 E.01918
G1 X101.252 Y108.938 E.02408
G1 X101.59 Y108.248 E.02409
G1 X101.891 Y107.704 E.01949
G1 X102.365 Y106.923 E.02864
G1 X102.801 Y106.291 E.02407
G1 X103.188 Y105.784 E.02
G1 X103.966 Y104.874 E.03754
G1 X104.378 Y104.44 E.01876
G1 X104.836 Y103.996 E.02
G1 X105.411 Y103.487 E.02408
G1 X105.938 Y103.066 E.02115
G1 X106.519 Y102.642 E.02255
G1 X107.127 Y102.239 E.02287
G1 X107.59 Y101.959 E.01697
G1 X108.355 Y101.54 E.02735
G1 X109.09 Y101.187 E.02557
G1 X110.035 Y100.796 E.03207
G1 X110.761 Y100.546 E.02407
G1 X111.408 Y100.358 E.02113
G1 X112.246 Y100.154 E.02704
G1 X113.001 Y100.013 E.02408
G1 X113.762 Y99.91 E.02408
G1 X114.527 Y99.843 E.02408
G1 X115.222 Y99.817 E.02181
G1 X116.313 Y99.834 E.03421
G1 X117.083 Y99.893 E.02421
G1 X117.845 Y99.989 E.02408
G1 X118.368 Y100.081 E.01665
G1 X119.351 Y100.293 E.03153
G1 X120.09 Y100.5 E.02406
G1 X120.819 Y100.742 E.02408
G1 X121.481 Y100.999 E.02227
G1 X122.593 Y101.513 E.03841
G1 X123.213 Y101.845 E.02205
G1 X124.26 Y102.487 E.03851
G1 X124.864 Y102.915 E.02321
G1 X125.418 Y103.348 E.02205
G1 X126.05 Y103.89 E.0261
G1 X126.605 Y104.42 E.02406
G1 X127.134 Y104.977 E.02409
G1 X127.635 Y105.559 E.02408
G1 X128.107 Y106.165 E.02408
G1 X128.549 Y106.793 E.02408
G1 X128.935 Y107.404 E.02266
G1 X129.338 Y108.111 E.02552
G1 X129.616 Y108.665 E.01943
G1 X129.971 Y109.449 E.02698
G1 X130.27 Y110.215 E.02578
G1 X130.466 Y110.808 E.01958
G1 X130.629 Y111.371 E.01838
G1 X130.835 Y112.212 E.02715
G1 X130.972 Y112.936 E.0231
G1 X131.071 Y113.632 E.02204
G1 X131.141 Y114.362 E.02299
G1 X131.177 Y115.076 E.02242
G1 X131.18 Y115.797 E.02261
G1 X131.112 Y117.029 E.03869
G1 X131.02 Y117.782 E.02379
G1 X130.89 Y118.539 E.02408
G1 X130.723 Y119.288 E.02406
G1 X130.519 Y120.029 E.0241
G1 X130.279 Y120.759 E.02409
G1 X130.015 Y121.449 E.02316
G1 X129.694 Y122.178 E.02498
G1 X129.398 Y122.771 E.02078
G1 X129.121 Y123.273 E.01798
G1 X128.564 Y124.184 E.03348
G1 X127.827 Y125.196 E.03925
G1 X127.053 Y126.109 E.03753
G1 X126.622 Y126.563 E.01963
G1 X126.07 Y127.091 E.02395
G1 X125.638 Y127.466 E.01794
G1 X124.886 Y128.069 E.03022
G1 X124.26 Y128.513 E.02406
G1 X123.682 Y128.868 E.02127
G1 X123.484 Y128.547 F9000
;TYPE:External perimeter
G1 F1200
G1 X123.051 Y128.813 E.01593
G1 X122.407 Y129.158 E.02291
G1 X121.676 Y129.505 E.02537
G1 X120.708 Y129.897 E.03275
G1 X119.997 Y130.135 E.02351
G1 X119.308 Y130.328 E.02243
G1 X118.545 Y130.504 E.02455
G1 X117.807 Y130.635 E.0235
G1 X117.063 Y130.73 E.02352
G1 X116.316 Y130.788 E.02349
G1 X115.792 Y130.803 E.01644
G1 X115.259 Y130.804 E.01671
G1 X114.07 Y130.743 E.03733
G1 X113.326 Y130.655 E.02349
G1 X112.664 Y130.543 E.02105
G1 X111.855 Y130.37 E.02594
G1 X111.131 Y130.173 E.02353
G1 X110.579 Y129.994 E.01819
G1 X109.786 Y129.702 E.0265
G1 X109.031 Y129.376 E.02578
G1 X108.359 Y129.043 E.02352
G1 X107.802 Y128.731 E.02002
G1 X107.136 Y128.321 E.02452
G1 X106.688 Y128.015 E.01701
G1 X105.944 Y127.459 E.02912
G1 X105.29 Y126.908 E.02681
G1 X104.744 Y126.395 E.02349
G1 X103.819 Y125.393 E.04276
G1 X103.299 Y124.746 E.02603
G1 X102.829 Y124.094 E.0252
G1 X102.424 Y123.463 E.02351
G1 X102.05 Y122.814 E.02349
G1 X101.708 Y122.147 E.0235
