; generated by PrusaSlicer 2.9.2 on 2025-06-25 at 13:27:26 UTC

; 

; external perimeters extrusion width = 0.42mm
; perimeters extrusion width = 0.44mm
; infill extrusion width = 0.44mm
; solid infill extrusion width = 0.44mm
; top infill extrusion width = 0.40mm
; first layer extrusion width = 0.42mm

M201 X500 Y500 Z100 E5000 ; sets maximum accelerations, mm/sec^2
M203 X500 Y500 Z10 E60 ; sets maximum feedrates, mm / sec
M204 S500 T1000 ; sets acceleration (S) and retract acceleration (R), mm/sec^2
M205 X8.00 Y8.00 Z0.40 E5.00 ; sets the jerk limits, mm/sec
M205 S0 T0 ; sets the minimum extruding and travel feed rate, mm/sec

; printing object SportWatch_case id:0 copy 0
; stop printing object SportWatch_case id:0 copy 0

;TYPE:Custom
G90 ; use absolute coordinates
M83 ; extruder relative mode
M104 S150 ; set temporary nozzle temp to prevent oozing during homing
M140 S60 ; set final bed temp
G4 S30 ; allow partial nozzle warmup
G28 ; home all axis
G1 Z50 F240
G1 X2.0 Y10 F3000
M104 S220 ; set final nozzle temp
M190 S60 ; wait for bed temp to stabilize
M109 S220 ; wait for nozzle temp to stabilize
G1 Z0.28 F240
G92 E0
G1 X2.0 Y140 E10 F1500 ; prime the nozzle
G1 X2.3 Y140 F5000
G92 E0
G1 X2.3 Y10 E10 F1200 ; prime the nozzle
G92 E0
G21 ; set units to millimeters
G90 ; use absolute coordinates
M83 ; use relative distances for extrusion
; Filament gcode
M107
;LAYER_CHANGE
;Z:0.2
;HEIGHT:0.2
G1 E-5 F3600
G1 Z.2 F9000
; printing object SportWatch_case id:0 copy 0
G1 X122.943 Y99.351
G1 Z.2
G1 E5 F2400
M204 S500
;TYPE:Perimeter
;WIDTH:0.419999
G1 F1200
G1 X123.069 Y99.381 E.00406
G1 X123.6 Y99.64 E.01852
G1 X124.314 Y100.026 E.02545
G1 X124.953 Y100.409 E.02336
;WIDTH:0.46161
G1 X125.206 Y100.551 E.0101
;WIDTH:0.503221
G1 X125.459 Y100.694 E.01112
;WIDTH:0.544831
G1 X125.713 Y100.836 E.01214
G1 X126.384 Y101.329 E.03475
;WIDTH:0.540575
G1 X127.021 Y101.842 E.03384
;WIDTH:0.550248
G1 X128.021 Y102.752 E.05704
;WIDTH:0.541596
G1 X128.597 Y103.345 E.03428
;WIDTH:0.540905
G1 X129.14 Y103.957 E.03388
;WIDTH:0.550392
G1 X129.973 Y105.023 E.05709
;WIDTH:0.545908
G1 X130.328 Y105.531 E.02592
G1 X130.877 Y106.395 E.04281
;WIDTH:0.544178
G1 X131.276 Y107.109 E.03409
;WIDTH:0.541736
G1 X131.643 Y107.84 E.03393
;WIDTH:0.54078
G1 X131.978 Y108.589 E.03397
;WIDTH:0.545727
G1 X132.217 Y109.19 E.02704
G1 X132.541 Y110.12 E.04117
;WIDTH:0.544431
G1 X132.836 Y111.164 E.04524
G1 X133.016 Y111.966 E.03428
;WIDTH:0.541872
G1 X133.158 Y112.772 E.03395
;WIDTH:0.545487
G1 X133.249 Y113.444 E.02834
;WIDTH:0.546645
G1 X133.337 Y114.473 E.04326
;WIDTH:0.547139
G1 X133.366 Y115.504 E.04324
G1 X133.339 Y116.537 E.04332
;WIDTH:0.544692
G1 X133.269 Y117.39 E.03571
;WIDTH:0.542147
G1 X133.163 Y118.2 E.03391
;WIDTH:0.540735
G1 X133.021 Y119.005 E.03384
;WIDTH:0.545991
G1 X132.892 Y119.595 E.02526
G1 X132.629 Y120.592 E.04313
;WIDTH:0.544237
G1 X132.376 Y121.373 E.03422
;WIDTH:0.542319
G1 X131.99 Y122.383 E.0449
G1 X131.654 Y123.134 E.03416
;WIDTH:0.545775
G1 X131.373 Y123.703 E.02653
G1 X130.891 Y124.58 E.04184
;WIDTH:0.544005
G1 X130.308 Y125.499 E.04535
;WIDTH:0.540703
G1 X129.835 Y126.167 E.03388
;WIDTH:0.540816
G1 X129.332 Y126.811 E.03383
;WIDTH:0.545669
G1 X128.905 Y127.314 E.02758
;WIDTH:0.546814
G1 X128.199 Y128.068 E.04328
G1 X127.455 Y128.783 E.04323
;WIDTH:0.544272
G1 X126.834 Y129.315 E.03409
;WIDTH:0.541788
G1 X126.189 Y129.818 E.03393
;WIDTH:0.546391
G1 X125.705 Y130.167 E.02498
G1 X125.449 Y130.311 E.0123
;WIDTH:0.504261
G1 X125.193 Y130.455 E.01127
;WIDTH:0.46213
G1 X124.936 Y130.599 E.01027
;WIDTH:0.419999
G1 X123.865 Y131.221 E.03883
G1 X123.072 Y131.618 E.02781
G1 X122.82 Y131.677 E.00811
G1 X108.179 Y131.677 E.45906
G1 X107.931 Y131.62 E.00798
G1 X107.4 Y131.359 E.01855
G1 X106.685 Y130.974 E.02546
G1 X106.047 Y130.591 E.02333
;WIDTH:0.463685
G1 X105.822 Y130.469 E.00895
;WIDTH:0.507371
G1 X105.597 Y130.347 E.00988
;WIDTH:0.551056
G1 X105.372 Y130.225 E.01081
G1 X104.615 Y129.671 E.03963
;WIDTH:0.541605
G1 X103.979 Y129.158 E.03388
;WIDTH:0.542747
G1 X102.978 Y128.248 E.05622
;WIDTH:0.545719
G1 X102.894 Y128.163 E.005
;WIDTH:0.547509
G1 X102.176 Y127.402 E.0439
G1 X101.513 Y126.623 E.04292
;WIDTH:0.544172
G1 X101.02 Y125.971 E.03407
;WIDTH:0.541735
G1 X100.556 Y125.297 E.03394
;WIDTH:0.540601
G1 X100.55 Y125.288 E.00045
;WIDTH:0.540534
G1 X100.125 Y124.603 E.03336
;WIDTH:0.542602
G1 X99.723 Y123.891 E.03397
G1 X99.356 Y123.161 E.03395
;WIDTH:0.541129
G1 X99.023 Y122.414 E.03388
;WIDTH:0.546288
G1 X98.83 Y121.932 E.02173
G1 X98.407 Y120.708 E.0542
;WIDTH:0.54549
G1 X98.163 Y119.831 E.03804
;WIDTH:0.542751
G1 X97.983 Y119.03 E.03412
;WIDTH:0.541344
G1 X97.802 Y117.967 E.04469
G1 X97.707 Y117.147 E.03421
;WIDTH:0.541039
G1 X97.65 Y116.332 E.03384
;WIDTH:0.545333
G1 X97.631 Y115.625 E.02955
G1 X97.648 Y114.694 E.0389
;WIDTH:0.543618
G1 X97.729 Y113.615 E.04505
G1 X97.836 Y112.8 E.03422
;WIDTH:0.541427
G1 X98.034 Y111.733 E.04498
;WIDTH:0.54089
G1 X98.225 Y110.933 E.03406
;WIDTH:0.545536
G1 X98.409 Y110.286 E.02811
G1 X98.715 Y109.374 E.0402
;WIDTH:0.541363
G1 X99.116 Y108.369 E.04485
G1 X99.463 Y107.62 E.03421
;WIDTH:0.541038
G1 X99.84 Y106.895 E.03385
;WIDTH:0.545366
G1 X100.189 Y106.287 E.02929
G1 X100.691 Y105.499 E.03903
;WIDTH:0.54293
G1 X101.164 Y104.833 E.03396
;WIDTH:0.541074
G1 X101.67 Y104.187 E.03399
;WIDTH:0.547392
G1 X102.184 Y103.589 E.03308
;WIDTH:0.547793
G1 X102.892 Y102.843 E.04318
G1 X103.642 Y102.133 E.04336
;WIDTH:0.545576
G1 X104.377 Y101.513 E.04019
;WIDTH:0.543301
G1 X105.029 Y101.02 E.03401
;WIDTH:0.546847
G1 X105.289 Y100.837 E.01332
G1 X105.439 Y100.76 E.00707
;WIDTH:0.504565
G1 X105.588 Y100.683 E.00644
;WIDTH:0.462282
G1 X105.737 Y100.606 E.00585
;WIDTH:0.419999
G1 X106.428 Y100.176 E.02552
G1 X107.139 Y99.777 E.02556
G1 X107.927 Y99.382 E.02764
G1 X108.179 Y99.323 E.00811
G1 X122.82 Y99.323 E.45906
G1 X122.885 Y99.338 E.00209
G1 X122.861 Y99.718 F9000
;TYPE:External perimeter
G1 F1200
G1 X123.434 Y99.979 E.01974
G1 X124.135 Y100.358 E.02499
G1 X124.758 Y100.732 E.02278
G1 X125.469 Y101.201 E.02671
G1 X126.125 Y101.682 E.02551
G1 X126.746 Y102.182 E.025
G1 X127.726 Y103.076 E.04159
G1 X128.283 Y103.65 E.02508
G1 X128.812 Y104.247 E.02501
G1 X129.629 Y105.291 E.04157
G1 X129.966 Y105.78 E.01862
G1 X130.504 Y106.628 E.03149
G1 X130.894 Y107.323 E.02499
G1 X131.252 Y108.036 E.02502
G1 X131.578 Y108.767 E.0251
G1 X131.807 Y109.35 E.01964
G1 X132.125 Y110.261 E.03025
G1 X132.413 Y111.283 E.03329
G1 X132.589 Y112.063 E.02507
G1 X132.728 Y112.848 E.025
G1 X132.813 Y113.5 E.02062
G1 X132.898 Y114.506 E.03165
G1 X132.925 Y115.511 E.03152
G1 X132.9 Y116.52 E.03165
G1 X132.832 Y117.353 E.0262
G1 X132.729 Y118.144 E.02501
G1 X132.59 Y118.929 E.025
G1 X132.463 Y119.499 E.01831
G1 X132.206 Y120.476 E.03168
G1 X131.959 Y121.238 E.02512
G1 X131.581 Y122.227 E.0332
G1 X131.256 Y122.956 E.02503
G1 X130.98 Y123.506 E.01929
G1 X130.508 Y124.365 E.03073
G1 X129.94 Y125.263 E.03332
G1 X129.478 Y125.914 E.02503
G1 X128.988 Y126.542 E.02498
G1 X128.571 Y127.028 E.02008
G1 X127.88 Y127.764 E.03165
G1 X127.154 Y128.463 E.0316
G1 X126.549 Y128.982 E.02499
G1 X125.92 Y129.474 E.02504
G1 X125.45 Y129.808 E.01808
G1 X124.588 Y130.374 E.03233
G1 X123.678 Y130.894 E.03286
G1 X122.904 Y131.28 E.02712
G1 X122.82 Y131.3 E.00271
G1 X108.179 Y131.3 E.45906
G1 X107.565 Y131.021 E.02115
G1 X106.865 Y130.642 E.02496
G1 X106.242 Y130.268 E.02278
G1 X105.618 Y129.857 E.02343
G1 X104.874 Y129.318 E.02881
G1 X104.253 Y128.818 E.025
G1 X103.273 Y127.924 E.04159
G1 X102.363 Y126.957 E.04163
G1 X101.85 Y126.342 E.02511
G1 X101.369 Y125.706 E.025
G1 X100.915 Y125.047 E.02509
G1 X100.495 Y124.372 E.02493
G1 X100.105 Y123.677 E.02499
G1 X99.747 Y122.964 E.02502
G1 X99.423 Y122.236 E.02498
G1 X99.13 Y121.491 E.0251
G1 X98.824 Y120.569 E.03046
G1 X98.586 Y119.715 E.0278
G1 X98.41 Y118.934 E.0251
G1 X98.234 Y117.894 E.03307
G1 X98.142 Y117.097 E.02516
G1 X98.087 Y116.302 E.02499
G1 X98.071 Y115.615 E.02155
G1 X98.087 Y114.704 E.02857
G1 X98.167 Y113.649 E.03317
G1 X98.27 Y112.856 E.02507
G1 X98.463 Y111.812 E.03329
G1 X98.65 Y111.036 E.02503
G1 X98.831 Y110.408 E.02049
G1 X99.128 Y109.514 E.02954
G1 X99.522 Y108.532 E.03318
G1 X99.859 Y107.804 E.02515
G1 X100.228 Y107.097 E.02501
G1 X100.57 Y106.508 E.02136
G1 X101.059 Y105.737 E.02863
G1 X101.521 Y105.086 E.02503
G1 X102.014 Y104.455 E.02511
G1 X102.517 Y103.878 E.024
G1 X103.206 Y103.152 E.03138
G1 X103.939 Y102.458 E.03165
G1 X104.658 Y101.851 E.0295
G1 X105.294 Y101.369 E.02502
G1 X105.95 Y100.917 E.02498
G1 X106.627 Y100.496 E.025
G1 X107.323 Y100.106 E.02502
G1 X108.095 Y99.72 E.02706
G1 X108.179 Y99.7 E.00271
G1 X122.805 Y99.7 E.45859
G1 E-3.5 F3600
;WIPE_START
G1 F7200
G1 X122.861 Y99.718 E-.02794
G1 X123.434 Y99.979 E-.29908
G1 X124.135 Y100.358 E-.37853
G1 X124.758 Y100.732 E-.34515
G1 X125.469 Y101.201 E-.40458
G1 X125.545 Y101.257 E-.04472
;WIPE_END
G1 X125.008 Y135.5 F9000
G1 E5 F2400
;TYPE:Perimeter
;WIDTH:0.46146
G1 F1200
G1 X125.057 Y135.577 E.00318
;WIDTH:0.502921
G1 X125.153 Y135.728 E.00684
;WIDTH:0.544381
G1 X125.249 Y135.879 E.00746
G1 X125.249 Y137.621 E.07264
;WIDTH:0.551037
G1 X125.243 Y137.731 E.00465
G1 X125.169 Y137.827 E.00512
;WIDTH:0.507358
G1 X125.095 Y137.924 E.00471
;WIDTH:0.463679
G1 X125.021 Y138.021 E.00427
G1 X124.924 Y138.095 E.00427
;WIDTH:0.507359
G1 X124.827 Y138.169 E.00471
;WIDTH:0.551038
G1 X124.73 Y138.243 E.00515
G1 X124.621 Y138.249 E.00461
;WIDTH:0.544381
G1 X106.378 Y138.249 E.76067
G1 X106.245 Y138.173 E.00639
;WIDTH:0.502921
G1 X106.112 Y138.097 E.00586
;WIDTH:0.46146
G1 X105.978 Y138.021 E.00536
;WIDTH:0.463679
G1 X105.904 Y137.924 E.00427
;WIDTH:0.507359
G1 X105.831 Y137.827 E.00469
;WIDTH:0.551038
G1 X105.757 Y137.731 E.00512
G1 X105.75 Y137.621 E.00466
;WIDTH:0.544381
G1 X105.75 Y135.879 E.07264
G1 X105.847 Y135.728 E.00748
;WIDTH:0.502921
G1 X105.943 Y135.577 E.00684
;WIDTH:0.46146
G1 X106.039 Y135.426 E.00623
;WIDTH:0.419999
G1 X106.378 Y135.313 E.0112
G1 X124.621 Y135.313 E.572
G1 X124.961 Y135.426 E.01123
;WIDTH:0.46146
G1 X124.975 Y135.449 E.00094
G1 X124.752 Y135.764 F9000
;TYPE:External perimeter
;WIDTH:0.419999
G1 F1200
G1 X124.81 Y135.879 E.00404
G1 X124.81 Y137.621 E.05462
G1 X124.755 Y137.755 E.00454
G1 X124.621 Y137.81 E.00454
G1 X106.378 Y137.81 E.572
G1 X106.245 Y137.755 E.00451
G1 X106.19 Y137.621 E.00454
G1 X106.19 Y135.879 E.05462
G1 X106.265 Y135.728 E.00529
G1 X106.378 Y135.69 E.00374
G1 X124.621 Y135.69 E.572
G1 X124.716 Y135.722 E.00314
G1 E-3.5 F3600
;WIPE_START
G1 F7200
G1 X124.752 Y135.764 E-.02628
G1 X124.81 Y135.879 E-.06118
G1 X124.81 Y137.621 E-.82745
G1 X124.755 Y137.755 E-.0688
G1 X124.621 Y137.81 E-.0688
G1 X123.679 Y137.81 E-.44749
;WIPE_END
G1 X125.014 Y95.509 F9000
G1 E5 F2400
;TYPE:Perimeter
;WIDTH:0.463679
G1 F1200
G1 X124.961 Y95.574 E.00293
;WIDTH:0.419999
G1 X124.621 Y95.687 E.01123
G1 X106.378 Y95.687 E.572
G1 X106.039 Y95.574 E.0112
;WIDTH:0.463679
G1 X105.945 Y95.459 E.0052
;WIDTH:0.507359
G1 X105.851 Y95.345 E.00571
;WIDTH:0.551038
G1 X105.757 Y95.231 E.00624
G1 X105.75 Y95.121 E.00466
;WIDTH:0.544381
G1 X105.75 Y93.379 E.07264
G1 X105.826 Y93.245 E.00642
;WIDTH:0.502921
G1 X105.902 Y93.112 E.00586
;WIDTH:0.46146
G1 X105.978 Y92.979 E.00533
;WIDTH:0.463679
G1 X106.075 Y92.905 E.00427
;WIDTH:0.507359
G1 X106.172 Y92.831 E.00471
;WIDTH:0.551038
G1 X106.269 Y92.757 E.00515
G1 X106.378 Y92.751 E.00461
;WIDTH:0.544381
G1 X124.621 Y92.751 E.76067
G1 X124.755 Y92.827 E.00642
;WIDTH:0.502921
G1 X124.888 Y92.903 E.00586
;WIDTH:0.46146
G1 X125.021 Y92.979 E.00533
G1 X125.097 Y93.112 E.00533
;WIDTH:0.502921
G1 X125.173 Y93.245 E.00586
;WIDTH:0.544381
G1 X125.249 Y93.379 E.00642
G1 X125.249 Y95.121 E.07264
;WIDTH:0.551037
G1 X125.243 Y95.231 E.00465
G1 X125.149 Y95.345 E.00624
;WIDTH:0.507358
G1 X125.055 Y95.459 E.00571
;WIDTH:0.463679
G1 X125.052 Y95.463 E.00017
G1 X124.752 Y95.236 F9000
;TYPE:External perimeter
;WIDTH:0.419999
G1 F1200
G1 X124.734 Y95.272 E.00126
G1 X124.621 Y95.31 E.00374
G1 X106.378 Y95.31 E.572
G1 X106.265 Y95.272 E.00374
G1 X106.19 Y95.121 E.00529
G1 X106.19 Y93.379 E.05462
G1 X106.245 Y93.245 E.00454
G1 X106.378 Y93.19 E.00451
G1 X124.621 Y93.19 E.572
G1 X124.755 Y93.245 E.00454
G1 X124.81 Y93.379 E.00454
G1 X124.81 Y95.121 E.05462
G1 X124.779 Y95.182 E.00215
G1 E-3.5 F3600
;WIPE_START
G1 F7200
G1 X124.752 Y95.236 E-.02868
G1 X124.734 Y95.272 E-.01912
G1 X124.621 Y95.31 E-.05663
G1 X121.683 Y95.31 E-1.39557
;WIPE_END
G1 X105.685 Y92.591 F9000
G1 E5 F2400
;TYPE:Perimeter
;WIDTH:0.59315
G1 F1200
G1 X105.616 Y92.591 E.00316
G1 X105.582 Y92.651 E.00316
G1 X105.616 Y92.71 E.00312
G1 X105.685 Y92.71 E.00316
G1 X105.719 Y92.651 E.00312
G1 E-3.5 F3600
;WIPE_START
G1 F7200
G1 X105.685 Y92.71 E-.03235
G1 X105.616 Y92.71 E-.03278
G1 X105.582 Y92.651 E-.03235
G1 X105.616 Y92.591 E-.03276
G1 X105.685 Y92.591 E-.03278
;WIPE_END
G1 E-1.33698 F3600
G1 X125.383 Y92.591 F9000
G1 E5 F2400
;WIDTH:0.593152
G1 F1200
G1 X125.315 Y92.591 E.00311
G1 X125.28 Y92.651 E.00318
G1 X125.315 Y92.71 E.00314
G1 X125.383 Y92.71 E.00311
G1 X125.418 Y92.651 E.00314
G1 E-3.5 F3600
;WIPE_START
G1 F7200
G1 X125.383 Y92.71 E-.03259
G1 X125.315 Y92.71 E-.0323
G1 X125.28 Y92.651 E-.03259
G1 X125.315 Y92.591 E-.03299
G1 X125.383 Y92.591 E-.0323
;WIPE_END
G1 E-1.33723 F3600
G1 X125.436 Y95.47 F9000
G1 E5 F2400
;WIDTH:0.419999
G1 F1200
G1 X125.437 Y99.982 E.14147
G1 X125.673 Y100.431 E.0159
G1 X125.147 Y100.086 E.01972
G1 X124.493 Y99.694 E.02391
G1 X123.766 Y99.302 E.0259
G1 X123.234 Y99.042 E.01857
G1 X122.82 Y98.946 E.01333
G1 X108.179 Y98.946 E.45906
G1 X108.017 Y98.96 E.0051
G1 X107.758 Y99.045 E.00855
G1 X106.954 Y99.448 E.0282
G1 X105.858 Y100.086 E.03976
G1 X105.429 Y100.36 E.01596
G1 X105.496 Y100.274 E.00342
G1 X105.564 Y99.922 E.01124
G1 X105.564 Y95.47 E.13959
G1 X105.813 Y95.876 E.01493
G1 X106.378 Y96.064 E.01867
G1 X124.621 Y96.064 E.572
G1 X125.187 Y95.876 E.0187
G1 X125.404 Y95.521 E.01305
G1 E-3.5 F3600
;WIPE_START
G1 F7200
G1 X125.436 Y95.47 E-.0286
G1 X125.437 Y98.568 E-1.4714
;WIPE_END
G1 X125.383 Y138.29 F9000
G1 E5 F2400
;WIDTH:0.593152
G1 F1200
G1 X125.315 Y138.29 E.00311
G1 X125.28 Y138.349 E.00314
G1 X125.315 Y138.409 E.00318
G1 X125.383 Y138.409 E.00311
G1 X125.418 Y138.349 E.00318
G1 E-3.5 F3600
;WIPE_START
G1 F7200
G1 X125.383 Y138.409 E-.03299
G1 X125.315 Y138.409 E-.0323
G1 X125.28 Y138.349 E-.03299
G1 X125.315 Y138.29 E-.03259
G1 X125.383 Y138.29 E-.0323
;WIPE_END
G1 E-1.33683 F3600
G1 X105.685 Y138.29 F9000
G1 E5 F2400
;WIDTH:0.59315
G1 F1200
G1 X105.616 Y138.29 E.00316
G1 X105.582 Y138.349 E.00312
G1 X105.616 Y138.409 E.00316
G1 X105.685 Y138.409 E.00316
G1 X105.719 Y138.349 E.00316
G1 E-3.5 F3600
;WIPE_START
G1 F7200
G1 X105.685 Y138.409 E-.03276
G1 X105.616 Y138.409 E-.03278
G1 X105.582 Y138.349 E-.03276
G1 X105.616 Y138.29 E-.03235
G1 X105.685 Y138.29 E-.03278
;WIPE_END
G1 E-1.33657 F3600
G1 X105.564 Y135.622 F9000
G1 E5 F2400
;WIDTH:0.419999
G1 F1200
G1 X105.562 Y131.018 E.14435
G1 X105.372 Y130.599 E.01443
G1 X105.853 Y130.914 E.01803
G1 X106.506 Y131.306 E.02388
G1 X107.234 Y131.698 E.02592
G1 X107.765 Y131.958 E.01854
G1 X108.179 Y132.054 E.01333
G1 X122.82 Y132.054 E.45906
G1 X122.983 Y132.04 E.00513
G1 X123.241 Y131.955 E.00852
G1 X124.052 Y131.549 E.02844
G1 X124.962 Y131.029 E.03286
G1 X125.582 Y130.632 E.02308
G1 X125.436 Y131.077 E.01468
G1 X125.436 Y135.622 E.14251
G1 X125.187 Y135.124 E.01746
G1 X124.621 Y134.936 E.0187
G1 X106.378 Y134.936 E.572
G1 X105.813 Y135.124 E.01867
G1 X105.591 Y135.568 E.01556
G1 E-3.5 F3600
;WIPE_START
G1 F7200
G1 X105.564 Y135.622 E-.02868
G1 X105.563 Y132.524 E-1.47132
;WIPE_END
G1 X105.187 Y138.813 F9000
G1 E5 F2400
G1 F1200
G1 X105.187 Y138.349 E.01455
;WIDTH:0.46146
G1 X105.208 Y138.107 E.00845
;WIDTH:0.502921
G1 X105.228 Y137.864 E.00933
;WIDTH:0.544381
G1 X105.249 Y137.621 E.01017
G1 X105.249 Y135.879 E.07264
G1 X105.228 Y135.586 E.01225
;WIDTH:0.502921
G1 X105.208 Y135.293 E.01123
;WIDTH:0.46146
G1 X105.187 Y135 E.01022
;WIDTH:0.419999
G1 X105.187 Y131.078 E.12297
;WIDTH:0.463685
G1 X105.143 Y130.925 E.00557
;WIDTH:0.507371
