; generated by PrusaSlicer 2.9.1 on 2025-03-27 at 06:13:55 UTC

; 

; external perimeters extrusion width = 0.42mm
; perimeters extrusion width = 0.44mm
; infill extrusion width = 0.44mm
; solid infill extrusion width = 0.44mm
; top infill extrusion width = 0.40mm
; support material extrusion width = 0.36mm
; first layer extrusion width = 0.42mm

M201 X500 Y500 Z100 E5000 ; sets maximum accelerations, mm/sec^2
M203 X500 Y500 Z10 E60 ; sets maximum feedrates, mm / sec
M204 S500 T1000 ; sets acceleration (S) and retract acceleration (R), mm/sec^2
M205 X8.00 Y8.00 Z0.40 E5.00 ; sets the jerk limits, mm/sec
M205 S0 T0 ; sets the minimum extruding and travel feed rate, mm/sec

; printing object bottle cap 1-Body id:0 copy 0
; stop printing object bottle cap 1-Body id:0 copy 0

;TYPE:Custom
G90 ; use absolute coordinates
M83 ; extruder relative mode
M104 S150 ; set temporary nozzle temp to prevent oozing during homing
M140 S60 ; set final bed temp
G4 S30 ; allow partial nozzle warmup
G28 ; home all axis
G1 Z50 F240
G1 X2.0 Y10 F3000
M104 S205 ; set final nozzle temp
M190 S60 ; wait for bed temp to stabilize
M109 S205 ; wait for nozzle temp to stabilize
G1 Z0.28 F240
G92 E0
G1 X2.0 Y140 E10 F1500 ; prime the nozzle
G1 X2.3 Y140 F5000
G92 E0
G1 X2.3 Y10 E10 F1200 ; prime the nozzle
G92 E0
G21 ; set units to millimeters
G90 ; use absolute coordinates
M83 ; use relative distances for extrusion
; Filament gcode
M107
;LAYER_CHANGE
;Z:0.4
;HEIGHT:0.4
G1 E-5 F3600
G1 Z.4 F9000
G1 X86.487 Y81.924
G1 Z.4
G1 E5 F2400
M204 S500
;TYPE:Skirt/Brim
;WIDTH:0.42
G1 F1200
G1 X88.547 Y79.749 E.16647
G1 X90.675 Y77.818 E.15968
G1 X92.229 Y76.552 E.11139
G1 X95.511 Y74.222 E.22367
G1 X97.196 Y73.185 E.10995
G1 X99.743 Y71.799 E.16114
G1 X103.414 Y70.149 E.22366
G1 X106.14 Y69.164 E.16107
G1 X108.035 Y68.592 E.11
G1 X111.932 Y67.688 E.22231
G1 X113.909 Y67.365 E.11132
G1 X116.791 Y67.052 E.1611
G1 X120.814 Y66.921 E.22368
G1 X122.791 Y66.987 E.10992
G1 X125.68 Y67.238 E.16115
G1 X129.652 Y67.889 E.22367
G1 X131.579 Y68.337 E.10994
G1 X134.364 Y69.142 E.1611
G1 X138.135 Y70.551 E.22371
G1 X140.766 Y71.768 E.16109
G1 X142.515 Y72.694 E.10998
G1 X145.941 Y74.806 E.22365
G1 X147.553 Y75.953 E.10994
G1 X149.823 Y77.757 E.16113
G1 X151.354 Y79.116 E.11376
G1 X153.408 Y81.147 E.16052
G1 X156.054 Y84.194 E.22426
G1 X157.783 Y86.521 E.1611
G1 X158.877 Y88.17 E.10997
G1 X160.877 Y91.663 E.22368
G1 X161.745 Y93.441 E.10995
G1 X162.877 Y96.11 E.16111
G1 X164.162 Y99.925 E.22371
G1 X164.877 Y102.734 E.16108
G1 X165.262 Y104.675 E.10996
G1 X165.783 Y108.666 E.22367
G1 X165.94 Y111.561 E.16111
G1 X165.942 Y113.54 E.10997
G1 X165.68 Y117.556 E.22365
G1 X165.273 Y120.427 E.16114
G1 X164.891 Y122.368 E.10993
G1 X163.857 Y126.258 E.22368
G1 X162.901 Y128.995 E.16111
G1 X162.15 Y130.826 E.10998
G1 X160.382 Y134.441 E.22363
G1 X159.397 Y136.158 E.11
G1 X157.823 Y138.592 E.16108
G1 X155.387 Y141.797 E.22371
G1 X153.462 Y143.965 E.16112
G1 X152.072 Y145.373 E.10995
G1 X149.061 Y148.044 E.22367
G1 X147.498 Y149.258 E.10998
G1 X145.117 Y150.91 E.16104
G1 X141.645 Y152.948 E.22373
G1 X139.041 Y154.222 E.1611
G1 X137.156 Y155.021 E.11377
G1 X135.302 Y155.712 E.10995
G1 X132.535 Y156.578 E.16112
G1 X128.614 Y157.486 E.22366
G1 X126.661 Y157.804 E.10996
G1 X123.779 Y158.118 E.1611
G1 X119.756 Y158.249 E.22368
G1 X117.778 Y158.183 E.10998
G1 X114.89 Y157.932 E.16109
G1 X110.918 Y157.281 E.22367
G1 X108.991 Y156.833 E.10994
G1 X106.206 Y156.027 E.16112
G1 X102.435 Y154.619 E.22369
G1 X99.804 Y153.401 E.16111
G1 X98.055 Y152.476 E.10995
G1 X94.629 Y150.364 E.22365
G1 X93.016 Y149.217 E.10999
G1 X90.747 Y147.413 E.16109
G1 X87.795 Y144.676 E.22371
G1 X86.435 Y143.239 E.10995
G1 X84.558 Y141.029 E.16113
G1 X82.193 Y137.773 E.22363
G1 X81.124 Y136.077 E.11141
G1 X79.724 Y133.568 E.15966
G1 X78.024 Y129.891 E.22512
G1 X77.019 Y127.199 E.15968
G1 X76.408 Y125.245 E.11377
G1 X75.693 Y122.435 E.16113
G1 X75.308 Y120.494 E.10996
G1 X74.786 Y116.503 E.22367
G1 X74.629 Y113.609 E.16106
G1 X74.628 Y111.63 E.10997
G1 X74.889 Y107.613 E.2237
G1 X75.296 Y104.743 E.16108
G1 X75.678 Y102.801 E.10999
G1 X76.721 Y98.887 E.22509
G1 X77.668 Y96.174 E.15968
G1 X78.447 Y94.281 E.11375
G1 X79.693 Y91.663 E.16112
G1 X80.637 Y89.924 E.10996
G1 X82.786 Y86.521 E.22366
G1 X84.516 Y84.194 E.16113
G1 X85.779 Y82.671 E.10995
G1 X86.445 Y81.968 E.05381
G1 E-3.5 F3600
;WIPE_START
G1 F7200
G1 X86.487 Y81.924 E-.02889
G1 X88.547 Y79.749 E-1.42296
G1 X88.622 Y79.681 E-.04815
;WIPE_END
; printing object bottle cap 1-Body id:0 copy 0
G1 X89.522 Y84.698 F9000
G1 E5 F2400
;TYPE:Perimeter
;WIDTH:0.42
G1 F1200
G1 X89.532 Y84.687 E.00083
G1 X90.137 Y84.034 E.04947
G1 X91.406 Y82.752 E.10024
G1 X92.725 Y81.529 E.09996
G1 X94.103 Y80.358 E.10049
G1 X95.52 Y79.257 E.09972
G1 X96.241 Y78.733 E.04953
G1 X97.734 Y77.721 E.10023
G1 X99.265 Y76.777 E.09995
G1 X100.84 Y75.898 E.10023
G1 X101.639 Y75.485 E.04998
G1 X103.26 Y74.714 E.09975
G1 X104.916 Y74.012 E.09995
G1 X106.606 Y73.381 E.10025
G1 X107.449 Y73.097 E.04943
G1 X109.177 Y72.577 E.10028
G1 X110.92 Y72.133 E.09995
G1 X112.681 Y71.765 E.09997
G1 X114.457 Y71.474 E.10001
G1 X116.248 Y71.26 E.10024
G1 X117.134 Y71.183 E.04942
G1 X118.94 Y71.085 E.10051
G1 X119.832 Y71.066 E.04958
G1 X121.179 Y71.075 E.07486
G1 X122.536 Y71.124 E.07546
G1 X123.426 Y71.182 E.04956
G1 X125.226 Y71.358 E.1005
G1 X126.108 Y71.474 E.04944
G1 X127.879 Y71.764 E.09973
G1 X129.65 Y72.133 E.10053
G1 X131.393 Y72.577 E.09995
G1 X133.124 Y73.098 E.10046
G1 X134.819 Y73.69 E.09977
G1 X135.649 Y74.01 E.04943
G1 X137.31 Y74.714 E.10025
G1 X138.939 Y75.489 E.10025
G1 X139.73 Y75.898 E.04948
G1 X141.305 Y76.777 E.10023
G1 X142.836 Y77.721 E.09995
G1 X144.325 Y78.731 E.09998
G1 X145.769 Y79.804 E.09997
G1 X147.165 Y80.939 E.09998
G1 X148.511 Y82.133 E.09999
G1 X149.807 Y83.387 E.10021
G1 X150.426 Y84.027 E.04948
G1 X151.638 Y85.363 E.10024
G1 X152.791 Y86.75 E.10023
G1 X153.337 Y87.453 E.04947
G1 X154.397 Y88.913 E.10026
G1 X155.391 Y90.412 E.09995
G1 X156.318 Y91.954 E.09998
G1 X157.178 Y93.534 E.09997
G1 X157.969 Y95.15 E.09998
G1 X158.691 Y96.804 E.10029
G1 X159.02 Y97.63 E.04941
G1 X159.633 Y99.327 E.10027
G1 X160.172 Y101.048 E.10022
G1 X160.41 Y101.906 E.04948
G1 X160.836 Y103.659 E.10025
G1 X161.184 Y105.424 E.09997
G1 X161.457 Y107.207 E.10024
G1 X161.563 Y108.091 E.04948
G1 X161.719 Y109.888 E.10024
G1 X161.797 Y111.685 E.09995
G1 X161.797 Y112.585 E.05001
G1 X161.797 Y113.484 E.04996
G1 X161.719 Y115.282 E.10001
G1 X161.563 Y117.079 E.10024
G1 X161.457 Y117.963 E.04948
G1 X161.184 Y119.746 E.10024
G1 X160.836 Y121.511 E.09997
G1 X160.411 Y123.259 E.09997
G1 X159.91 Y124.992 E.10025
G1 X159.634 Y125.838 E.04945
G1 X159.022 Y127.535 E.10025
G1 X158.338 Y129.199 E.09998
G1 X157.582 Y130.831 E.09995
G1 X156.757 Y132.43 E.09999
G1 X155.86 Y133.995 E.10024
G1 X155.393 Y134.753 E.04948
G1 X154.397 Y136.257 E.10024
G1 X153.34 Y137.713 E.09998
G1 X152.22 Y139.121 E.09998
G1 X151.041 Y140.479 E.09994
G1 X149.8 Y141.789 E.10028
G1 X149.168 Y142.415 E.04943
G1 X147.845 Y143.641 E.10023
G1 X146.473 Y144.806 E.10002
G1 X145.053 Y145.91 E.09995
G1 X143.582 Y146.954 E.10024
G1 X142.84 Y147.446 E.04947
G1 X141.305 Y148.393 E.10023
G1 X139.73 Y149.272 E.10023
G1 X138.939 Y149.68 E.04946
G1 X137.31 Y150.455 E.10025
G1 X135.649 Y151.159 E.10025
G1 X134.819 Y151.48 E.04945
G1 X133.116 Y152.074 E.10023
G1 X131.393 Y152.593 E.1
G1 X129.65 Y153.036 E.09994
G1 X127.888 Y153.404 E.10003
G1 X126.108 Y153.696 E.10024
G1 X125.224 Y153.812 E.04955
G1 X123.879 Y153.948 E.07512
G1 X122.53 Y154.046 E.07516
G1 X121.639 Y154.084 E.04956
G1 X119.835 Y154.104 E.10026
G1 X118.037 Y154.045 E.09997
G1 X116.243 Y153.909 E.09998
G1 X114.457 Y153.695 E.09996
G1 X112.677 Y153.403 E.10024
G1 X110.925 Y153.038 E.09945
G1 X109.177 Y152.593 E.10024
G1 X107.454 Y152.074 E.1
G1 X105.755 Y151.481 E.1
G1 X104.084 Y150.815 E.09996
G1 X102.443 Y150.078 E.09997
G1 X100.836 Y149.27 E.09996
G1 X99.261 Y148.39 E.10026
G1 X98.498 Y147.931 E.04948
G1 X96.984 Y146.952 E.10019
G1 X95.513 Y145.907 E.10027
G1 X94.804 Y145.369 E.04946
G1 X93.404 Y144.231 E.10026
G1 X92.059 Y143.037 E.09995
G1 X90.766 Y141.785 E.10002
G1 X89.529 Y140.479 E.09996
G1 X88.346 Y139.117 E.10025
G1 X87.785 Y138.427 E.04942
G1 X86.693 Y136.991 E.10025
G1 X85.668 Y135.512 E.1
G1 X84.707 Y133.991 E.09998
G1 X83.811 Y132.426 E.10021
G1 X83.39 Y131.631 E.04999
G1 X82.601 Y130.019 E.09973
G1 X81.881 Y128.37 E.09999
G1 X81.233 Y126.692 E.09996
G1 X80.659 Y124.987 E.09997
G1 X80.159 Y123.259 E.09997
G1 X79.733 Y121.506 E.10025
G1 X79.551 Y120.635 E.04945
G1 X79.239 Y118.849 E.10075
G1 X79.006 Y117.069 E.09976
G1 X78.851 Y115.286 E.09946
G1 X78.773 Y113.484 E.10023
G1 X78.773 Y111.685 E.09997
G1 X78.851 Y109.888 E.09995
G1 X79.008 Y108.087 E.10046
G1 X79.241 Y106.307 E.09976
G1 X79.385 Y105.429 E.04944
G1 X79.734 Y103.659 E.10025
G1 X80.159 Y101.911 E.09997
G1 X80.66 Y100.178 E.10025
G1 X80.935 Y99.331 E.04949
G1 X81.548 Y97.635 E.10022
G1 X82.232 Y95.971 E.09998
G1 X82.988 Y94.338 E.1
G1 X83.813 Y92.74 E.09994
G1 X84.709 Y91.174 E.10026
G1 X85.176 Y90.416 E.04948
G1 X86.172 Y88.913 E.1002
G1 X87.23 Y87.457 E.10002
G1 X88.355 Y86.042 E.10046
G1 X89.483 Y84.744 E.09556
G1 X89.233 Y84.522 F9000
G1 F1200
G1 X89.283 Y84.463 E.0043
G1 X89.896 Y83.803 E.05006
G1 X91.173 Y82.511 E.10095
G1 X92.503 Y81.279 E.10075
G1 X93.893 Y80.099 E.10132
G1 X95.32 Y78.99 E.10043
G1 X96.049 Y78.46 E.05009
G1 X97.552 Y77.441 E.10091
G1 X99.096 Y76.489 E.1008
G1 X100.682 Y75.603 E.10096
G1 X101.491 Y75.186 E.05058
G1 X103.123 Y74.409 E.10045
G1 X104.792 Y73.702 E.10073
G1 X106.494 Y73.066 E.10097
G1 X107.348 Y72.779 E.05007
G1 X109.087 Y72.255 E.10093
G1 X110.845 Y71.808 E.1008
G1 X112.62 Y71.437 E.10077
G1 X114.41 Y71.143 E.1008
G1 X116.213 Y70.928 E.1009
G1 X117.111 Y70.85 E.05009
G1 X118.928 Y70.751 E.10112
G1 X119.83 Y70.731 E.05014
G1 X121.187 Y70.741 E.07541
G1 X122.553 Y70.79 E.07596
G1 X123.453 Y70.849 E.05012
G1 X125.264 Y71.026 E.10112
G1 X126.157 Y71.143 E.05005
G1 X127.941 Y71.435 E.10046
G1 X129.725 Y71.808 E.10128
G1 X131.482 Y72.255 E.10075
G1 X133.228 Y72.781 E.10133
G1 X134.934 Y73.376 E.1004
G1 X135.775 Y73.701 E.0501
G1 X137.447 Y74.409 E.1009
G1 X139.087 Y75.19 E.10094
G1 X139.888 Y75.603 E.05008
G1 X141.474 Y76.489 E.10096
G1 X143.018 Y77.441 E.1008
G1 X144.519 Y78.458 E.10075
G1 X145.974 Y79.54 E.10076
G1 X147.382 Y80.684 E.10081
G1 X148.738 Y81.888 E.10077
G1 X150.043 Y83.151 E.10092
G1 X150.67 Y83.798 E.05007
G1 X151.89 Y85.144 E.10095
G1 X153.051 Y86.541 E.10094
G1 X153.604 Y87.252 E.05005
G1 X154.672 Y88.722 E.10097
G1 X155.673 Y90.234 E.10077
G1 X156.608 Y91.788 E.10078
G1 X157.475 Y93.381 E.10079
G1 X158.272 Y95.01 E.10078
G1 X158.999 Y96.675 E.10096
G1 X159.332 Y97.512 E.05006
G1 X159.95 Y99.22 E.10094
G1 X160.492 Y100.954 E.10096
G1 X160.733 Y101.822 E.05006
G1 X161.162 Y103.587 E.10094
G1 X161.513 Y105.366 E.10077
G1 X161.788 Y107.162 E.10097
G1 X161.895 Y108.056 E.05003
G1 X162.052 Y109.866 E.10096
G1 X162.131 Y111.678 E.10079
G1 X162.131 Y112.585 E.0504
G1 X162.131 Y113.492 E.0504
G1 X162.052 Y115.303 E.10073
G1 X161.895 Y117.113 E.10096
G1 X161.788 Y118.008 E.05009
G1 X161.513 Y119.803 E.10091
G1 X161.162 Y121.583 E.10082
G1 X160.734 Y123.345 E.10076
G1 X160.229 Y125.09 E.10095
G1 X159.951 Y125.947 E.05007
G1 X159.333 Y127.655 E.10094
G1 X158.644 Y129.332 E.10075
G1 X157.882 Y130.978 E.1008
G1 X157.05 Y132.59 E.10081
G1 X156.148 Y134.166 E.10091
G1 X155.675 Y134.933 E.05008
G1 X154.672 Y136.448 E.10097
G1 X153.606 Y137.915 E.10077
G1 X152.477 Y139.334 E.10077
G1 X151.288 Y140.704 E.10081
G1 X150.039 Y142.023 E.10095
G1 X149.399 Y142.656 E.05002
G1 X148.066 Y143.891 E.10098
G1 X146.684 Y145.065 E.10077
G1 X145.252 Y146.178 E.10079
G1 X143.771 Y147.23 E.10095
G1 X143.02 Y147.728 E.05008
G1 X141.474 Y148.681 E.10092
G1 X139.888 Y149.566 E.10093
G1 X139.087 Y149.98 E.05011
G1 X137.447 Y150.76 E.10092
G1 X135.775 Y151.469 E.10092
G1 X134.934 Y151.793 E.05008
G1 X133.219 Y152.392 E.10095
G1 X131.482 Y152.915 E.10081
G1 X129.725 Y153.362 E.10075
G1 X127.95 Y153.733 E.10077
G1 X126.157 Y154.027 E.10097
G1 X125.263 Y154.144 E.0501
G1 X123.907 Y154.281 E.07574
G1 X122.549 Y154.379 E.07566
G1 X121.648 Y154.418 E.05012
G1 X119.831 Y154.438 E.10098
G1 X118.019 Y154.379 E.10075
G1 X116.211 Y154.242 E.10076
G1 X114.41 Y154.026 E.1008
G1 X112.617 Y153.732 E.10097
G1 X110.848 Y153.363 E.10042
G1 X109.087 Y152.915 E.10098
G1 X107.351 Y152.392 E.10075
G1 X105.638 Y151.794 E.10083
G1 X103.954 Y151.123 E.10074
G1 X102.3 Y150.379 E.10078
G1 X100.679 Y149.565 E.1008
G1 X99.093 Y148.679 E.10096
G1 X98.321 Y148.215 E.05005
G1 X96.796 Y147.228 E.10095
G1 X95.315 Y146.177 E.10092
G1 X94.598 Y145.631 E.05008
G1 X93.188 Y144.486 E.10094
G1 X91.832 Y143.282 E.10077
G1 X90.529 Y142.02 E.1008
G1 X89.281 Y140.704 E.10079
G1 X88.09 Y139.332 E.10096
G1 X87.522 Y138.633 E.05005
G1 X86.423 Y137.187 E.10093
G1 X85.389 Y135.697 E.10079
G1 X84.421 Y134.164 E.10075
G1 X83.518 Y132.587 E.10099
G1 X83.092 Y131.783 E.05056
G1 X82.298 Y130.16 E.10041
G1 X81.572 Y128.498 E.10079
G1 X80.919 Y126.806 E.10079
G1 X80.34 Y125.087 E.1008
G1 X79.836 Y123.345 E.10077
G1 X79.407 Y121.58 E.10094
G1 X79.223 Y120.698 E.05007
G1 X78.908 Y118.899 E.10149
G1 X78.674 Y117.107 E.10043
G1 X78.518 Y115.306 E.10046
G1 X78.439 Y113.492 E.1009
G1 X78.439 Y111.678 E.10081
G1 X78.518 Y109.866 E.10079
G1 X78.676 Y108.05 E.1013
G1 X78.91 Y106.258 E.10043
G1 X79.056 Y105.369 E.05006
G1 X79.408 Y103.587 E.10094
G1 X79.836 Y101.825 E.10076
G1 X80.341 Y100.08 E.10095
G1 X80.619 Y99.223 E.05007
G1 X81.236 Y97.515 E.10092
G1 X81.926 Y95.837 E.10082
G1 X82.687 Y94.191 E.10077
G1 X83.519 Y92.58 E.10076
G1 X84.422 Y91.003 E.10099
G1 X84.895 Y90.236 E.05008
G1 X85.898 Y88.722 E.10092
G1 X86.964 Y87.255 E.10077
G1 X88.098 Y85.828 E.10129
G1 X89.193 Y84.567 E.09281
G1 X88.943 Y84.345 F9000
;TYPE:External perimeter
G1 F1200
G1 X89.035 Y84.24 E.00776
G1 X89.654 Y83.572 E.05061
G1 X90.941 Y82.271 E.1017
G1 X92.281 Y81.029 E.10153
G1 X93.682 Y79.839 E.10215
G1 X95.119 Y78.722 E.10114
G1 X95.857 Y78.186 E.05069
G1 X97.371 Y77.16 E.10163
G1 X98.927 Y76.201 E.10157
G1 X100.524 Y75.309 E.10165
G1 X101.342 Y74.887 E.05115
G1 X102.986 Y74.105 E.10117
G1 X104.669 Y73.391 E.10159
G1 X106.382 Y72.751 E.10162
G1 X107.246 Y72.46 E.05066
G1 X108.998 Y71.933 E.10167
G1 X110.769 Y71.482 E.10156
G1 X112.559 Y71.108 E.10162
G1 X114.363 Y70.813 E.10158
G1 X116.179 Y70.595 E.10164
G1 X117.087 Y70.516 E.05065
G1 X118.915 Y70.417 E.10173
G1 X119.827 Y70.397 E.05069
G1 X121.194 Y70.407 E.07597
G1 X122.57 Y70.457 E.07652
G1 X123.48 Y70.516 E.05068
G1 X125.302 Y70.694 E.10173
G1 X126.206 Y70.812 E.05066
G1 X128.002 Y71.107 E.10114
G1 X129.8 Y71.482 E.10207
G1 X131.572 Y71.933 E.10161
G1 X133.331 Y72.463 E.10209
G1 X135.049 Y73.063 E.10113
G1 X135.9 Y73.391 E.05068
G1 X137.584 Y74.105 E.10165
G1 X139.236 Y74.891 E.10166
G1 X140.046 Y75.309 E.05065
G1 X141.643 Y76.201 E.10165
G1 X143.199 Y77.16 E.10157
G1 X144.712 Y78.186 E.10159
G1 X146.18 Y79.276 E.10161
G1 X147.598 Y80.429 E.10156
G1 X148.965 Y81.643 E.1016
G1 X150.28 Y82.915 E.10167
G1 X150.914 Y83.57 E.05066
G1 X152.143 Y84.925 E.10166
G1 X153.312 Y86.332 E.10165
G1 X153.871 Y87.052 E.05065
G1 X154.946 Y88.531 E.10161
G1 X155.956 Y90.056 E.10165
G1 X156.898 Y91.622 E.10156
G1 X157.772 Y93.228 E.10161
G1 X158.575 Y94.87 E.10157
G1 X159.307 Y96.546 E.10163
G1 X159.645 Y97.393 E.05068
G1 X160.266 Y99.113 E.10162
G1 X160.813 Y100.859 E.10168
G1 X161.057 Y101.738 E.05069
G1 X161.488 Y103.515 E.10161
G1 X161.843 Y105.309 E.10163
G1 X162.119 Y107.117 E.10164
G1 X162.227 Y108.022 E.05065
G1 X162.386 Y109.844 E.10163
G1 X162.465 Y111.671 E.10162
G1 X162.465 Y112.585 E.05079
G1 X162.465 Y113.499 E.05079
G1 X162.386 Y115.325 E.10157
G1 X162.227 Y117.147 E.10163
G1 X162.119 Y118.053 E.0507
G1 X161.843 Y119.861 E.10164
G1 X161.488 Y121.654 E.10157
G1 X161.057 Y123.431 E.10161
G1 X160.548 Y125.188 E.10165
G1 X160.267 Y126.055 E.05065
G1 X159.645 Y127.775 E.10164
G1 X158.95 Y129.466 E.1016
G1 X158.183 Y131.125 E.10157
