; generated by PrusaSlicer 2.9.1 on 2025-03-12 at 10:44:50 UTC

; 

; external perimeters extrusion width = 0.42mm
; perimeters extrusion width = 0.44mm
; infill extrusion width = 0.44mm
; solid infill extrusion width = 0.44mm
; top infill extrusion width = 0.40mm
; support material extrusion width = 0.36mm
; first layer extrusion width = 0.42mm

M201 X500 Y500 Z100 E5000 ; sets maximum accelerations, mm/sec^2
M203 X500 Y500 Z10 E60 ; sets maximum feedrates, mm / sec
M204 S500 T1000 ; sets acceleration (S) and retract acceleration (R), mm/sec^2
M205 X8.00 Y8.00 Z0.40 E5.00 ; sets the jerk limits, mm/sec
M205 S0 T0 ; sets the minimum extruding and travel feed rate, mm/sec

; printing object phone stand-Body id:0 copy 0
; stop printing object phone stand-Body id:0 copy 0

;TYPE:Custom
G90 ; use absolute coordinates
M83 ; extruder relative mode
M104 S150 ; set temporary nozzle temp to prevent oozing during homing
M140 S60 ; set final bed temp
G4 S30 ; allow partial nozzle warmup
G28 ; home all axis
G1 Z50 F240
G1 X2.0 Y10 F3000
M104 S205 ; set final nozzle temp
M190 S60 ; wait for bed temp to stabilize
M109 S205 ; wait for nozzle temp to stabilize
G1 Z0.28 F240
G92 E0
G1 X2.0 Y140 E10 F1500 ; prime the nozzle
G1 X2.3 Y140 F5000
G92 E0
G1 X2.3 Y10 E10 F1200 ; prime the nozzle
G92 E0
G21 ; set units to millimeters
G90 ; use absolute coordinates
M83 ; use relative distances for extrusion
; Filament gcode
M107
;LAYER_CHANGE
;Z:0.4
;HEIGHT:0.4
G1 E-5 F3600
G1 Z.4 F9000
G1 X80.834 Y97.107
G1 Z.4
G1 E5 F2400
M204 S500
;TYPE:Skirt/Brim
;WIDTH:0.42
G1 F1200
G1 X94.69 Y89.107 E.88911
G1 X96.274 Y88.682 E.09114
G1 X148.583 Y88.682 E2.90686
G1 X150.112 Y89.076 E.08774
G1 X151.261 Y90.159 E.08774
G1 X151.744 Y91.663 E.08778
G1 X151.326 Y93.433 E.10107
G1 X124.016 Y140.734 E3.03522
G1 X122.911 Y141.862 E.08775
G1 X121.398 Y142.315 E.08777
G1 X119.855 Y141.982 E.08772
G1 X119.148 Y141.499 E.04758
G1 X85.292 Y110.858 E2.53753
G1 X84.674 Y110.093 E.05465
G1 X79.674 Y101.433 E.5557
G1 X79.251 Y99.912 E.08773
G1 X79.614 Y98.375 E.08776
G1 X80.792 Y97.15 E.09444
G1 E-3.5 F3600
;WIPE_START
G1 F7200
G1 X80.834 Y97.107 E-.02855
G1 X83.517 Y95.558 E-1.47145
;WIPE_END
; printing object phone stand-Body id:0 copy 0
G1 X83.755 Y100.208 F9000
G1 E5 F2400
;TYPE:Perimeter
;WIDTH:0.421655
G1 F1200
G1 X83.9 Y100.124 E.00936
;WIDTH:0.449004
G1 X84.15 Y99.995 E.01699
;WIDTH:0.476353
G1 X84.399 Y99.867 E.01818
G1 X84.273 Y100.09 E.01663
;WIDTH:0.449004
G1 X84.146 Y100.313 E.0155
;WIDTH:0.463365
G1 X84.212 Y100.958 E.04071
G1 X83.786 Y100.259 E.05139
G1 E-3.5 F3600
;WIPE_START
G1 F7200
G1 X83.755 Y100.208 E-.02835
G1 X83.9 Y100.124 E-.0796
G1 X84.15 Y99.995 E-.13363
G1 X84.399 Y99.867 E-.13299
G1 X84.273 Y100.09 E-.12166
G1 X84.146 Y100.313 E-.1219
G1 X84.212 Y100.958 E-.30797
G1 X83.786 Y100.259 E-.38883
;WIPE_END
G1 E-.18507 F3600
G1 X95.165 Y93.644 F9000
G1 E5 F2400
;WIDTH:0.463367
G1 F1200
G1 X95.915 Y93.187 E.05514
;WIDTH:0.421656
G1 X95.999 Y93.332 E.00936
;WIDTH:0.463363
G1 X96.336 Y93.958 E.04463
;WIDTH:0.463367
G1 X95.81 Y93.578 E.04074
G1 X95.225 Y93.638 E.03692
G1 X96.336 Y93.958 F9000
;WIDTH:0.463363
G1 F1200
G1 X120.449 Y135.722 E3.02768
;WIDTH:0.476353
G1 X120.529 Y135.848 E.00969
G1 E-3.5 F3600
;WIPE_START
G1 F7200
G1 X120.449 Y135.722 E-.07089
G1 X118.945 Y133.116 E-1.42911
;WIPE_END
G1 X84.399 Y99.867 F9000
G1 E5 F2400
G1 F1200
G1 X84.525 Y99.787 E.00969
;WIDTH:0.463367
G1 X95.165 Y93.644 E.77135
G1 E-3.5 F3600
;WIPE_START
G1 F7200
G1 X92.43 Y95.223 E-1.5
;WIPE_END
G1 X87.783 Y107.144 F9000
G1 E5 F2400
;WIDTH:0.463365
G1 F1200
G1 X84.212 Y100.958 E.44844
G1 E-3.5 F3600
;WIPE_START
G1 F7200
G1 X85.791 Y103.693 E-1.5
;WIPE_END
G1 X120.529 Y135.848 F9000
G1 E5 F2400
;WIDTH:0.476353
G1 F1200
G1 X120.86 Y135.989 E.02337
;WIDTH:0.448176
G1 X121.191 Y136.129 E.02166
;WIDTH:0.42
G1 X121.356 Y136.129 E.00917
;WIDTH:0.463365
G1 X122.098 Y135.722 E.05313
G1 X121.622 Y136.59 E.06215
;WIDTH:0.42
G1 X121.274 Y137.194 E.03874
G1 X120.925 Y136.59 E.03877
;WIDTH:0.448176
G1 X120.727 Y136.219 E.02534
;WIDTH:0.476353
G1 X120.557 Y135.901 E.02342
G1 X122.098 Y135.722 F9000
;WIDTH:0.463365
G1 F1200
G1 X146.851 Y92.849 E3.10809
G1 X146.645 Y92.494 F9000
;WIDTH:0.42
G1 F1200
G1 X146.851 Y92.494 E.01145
G1 X147.467 Y92.494 E.03423
G1 X121.274 Y137.862 E2.91115
G1 X96.028 Y94.136 E2.80582
G1 X95.723 Y93.902 E.02136
G1 X95.343 Y93.952 E.0213
G1 X84.703 Y100.095 E.68274
G1 X84.632 Y100.145 E.00483
G1 X84.47 Y100.399 E.01674
G1 X84.52 Y100.78 E.02135
G1 X88.269 Y107.274 E.4167
G1 X87.653 Y107.63 E.03954
G1 X83.297 Y100.085 E.48414
G1 X96.038 Y92.729 E.81756
G1 X120.757 Y135.544 E2.74733
G1 X120.807 Y135.615 E.00483
G1 X121.191 Y135.795 E.02357
G1 X121.356 Y135.795 E.00917
G1 X121.79 Y135.544 E.02786
G1 X146.615 Y92.545 E2.75913
G1 X146.452 Y92.159 F9000
;TYPE:External perimeter
G1 F1200
G1 X146.851 Y92.159 E.02217
G1 X148.046 Y92.159 E.06641
G1 X121.274 Y138.531 E2.97556
G1 X95.738 Y94.303 E2.83804
G1 X95.637 Y94.225 E.00709
G1 X95.51 Y94.241 E.00711
G1 X84.87 Y100.384 E.68274
G1 X84.793 Y100.486 E.0071
G1 X84.809 Y100.613 E.00711
G1 X88.726 Y107.396 E.43527
G1 X87.531 Y108.086 E.07668
G1 X82.841 Y99.963 E.52124
G1 X96.16 Y92.273 E.85466
G1 X121.046 Y135.377 E2.76588
G1 X121.191 Y135.461 E.00931
G1 X121.356 Y135.461 E.00917
G1 X121.501 Y135.377 E.00931
G1 X146.422 Y92.211 E2.76984
G1 E-3.5 F3600
;WIPE_START
G1 F7200
G1 X146.452 Y92.159 E-.02852
G1 X146.851 Y92.159 E-.18953
G1 X148.046 Y92.159 E-.56762
G1 X147.294 Y93.461 E-.71433
;WIPE_END
G1 X121.557 Y136.489 F9000
G1 E5 F2400
;TYPE:Solid infill
;WIDTH:0.466858
G1 F1200
G1 X121.304 Y136.236 E.02267
M106 S255
;LAYER_CHANGE
;Z:0.6
;HEIGHT:0.2
;BEFORE_LAYER_CHANGE
G92 E0
;0.6


G1 E-3.5 F3600
;WIPE_START
G1 F7200
G1 X121.557 Y136.489 E-.16995
;WIPE_END
G1 E-1.33005 F3600
G1 Z.6 F9000
;AFTER_LAYER_CHANGE
;0.6
M104 S200 ; set temperature
; stop printing object phone stand-Body id:0 copy 0
G1 Z.6
G1 X125.286 Y138.535
G1 E5 F2400
;TYPE:Skirt/Brim
;WIDTH:0.42
G1 X124.016 Y140.734 E.07962
G1 X122.911 Y141.862 E.04951
G1 X121.398 Y142.315 E.04952
G1 X119.855 Y141.982 E.04949
G1 X119.148 Y141.499 E.02685
G1 X85.292 Y110.858 E1.43173
G1 X84.674 Y110.093 E.03083
G1 X79.674 Y101.433 E.31354
G1 X79.251 Y99.912 E.0495
G1 X79.614 Y98.375 E.04952
G1 X80.834 Y97.107 E.05517
G1 X94.69 Y89.107 E.50166
G1 X96.274 Y88.682 E.05142
G1 X148.583 Y88.682 E1.64011
G1 X150.112 Y89.076 E.04951
G1 X151.261 Y90.159 E.04951
G1 X151.744 Y91.663 E.04953
G1 X151.326 Y93.433 E.05702
G1 X125.316 Y138.483 E1.63103
G1 E-3.5 F3600
;WIPE_START
G1 F7200
G1 X125.286 Y138.535 E-.02852
G1 X124.016 Y140.734 E-1.20621
G1 X123.625 Y141.133 E-.26527
;WIPE_END
; printing object phone stand-Body id:0 copy 0
G1 X84.487 Y99.818 F9000
G1 E5 F2400
;TYPE:Perimeter
;WIDTH:0.466514
G1 F1500
G1 X84.34 Y100.071 E.01031
;WIDTH:0.440854
G1 X84.192 Y100.325 E.00973
;WIDTH:0.451684
G1 X84.272 Y101.063 E.02523
G1 X83.758 Y100.209 E.03388
;WIDTH:0.415193
G1 X83.919 Y100.116 E.00576
;WIDTH:0.440854
G1 X84.203 Y99.967 E.01061
;WIDTH:0.466514
G1 X84.434 Y99.846 E.00918
G1 E-3.5 F3600
;WIPE_START
G1 F7200
G1 X84.487 Y99.818 E-.02847
G1 X84.34 Y100.071 E-.13899
G1 X84.192 Y100.325 E-.13964
G1 X84.272 Y101.063 E-.3526
G1 X83.758 Y100.209 E-.47346
G1 X83.919 Y100.116 E-.08832
G1 X84.203 Y99.967 E-.15234
G1 X84.434 Y99.846 E-.12387
;WIPE_END
G1 E-.00231 F3600
G1 X95.06 Y93.705 F9000
G1 E5 F2400
;WIDTH:0.451686
G1 F1500
G1 X95.914 Y93.19 E.0339
;WIDTH:0.415193
G1 X96.007 Y93.352 E.00578
;WIDTH:0.451682
G1 X96.397 Y94.063 E.02756
;WIDTH:0.451686
G1 X95.798 Y93.625 E.02522
G1 X95.12 Y93.698 E.02318
G1 E-3.5 F3600
;WIPE_START
G1 F7200
G1 X95.06 Y93.705 E-.02869
G1 X95.914 Y93.19 E-.4737
G1 X96.007 Y93.352 E-.08873
G1 X96.397 Y94.063 E-.3852
G1 X95.798 Y93.625 E-.35248
G1 X95.439 Y93.664 E-.1712
;WIPE_END
G1 X120.518 Y135.827 F9000
G1 E5 F2400
;WIDTH:0.466514
G1 X120.426 Y135.683 E.00602
;WIDTH:0.451684
G1 X96.397 Y94.063 E1.63345
G1 E-3.5 F3600
;WIPE_START
G1 F7200
G1 X97.976 Y96.798 E-1.5
;WIPE_END
G1 X84.487 Y99.818 F9000
G1 E5 F2400
;WIDTH:0.466514
G1 F1500
G1 X84.631 Y99.726 E.00602
;WIDTH:0.451686
G1 X95.06 Y93.705 E.40931
G1 E-3.5 F3600
;WIPE_START
G1 F7200
G1 X92.325 Y95.284 E-1.5
;WIPE_END
G1 X87.783 Y107.144 F9000
G1 E5 F2400
;WIDTH:0.451684
G1 F1500
G1 X84.272 Y101.063 E.23866
G1 E-3.5 F3600
;WIPE_START
G1 F7200
G1 X85.851 Y103.798 E-1.5
;WIPE_END
G1 X120.518 Y135.827 F9000
G1 E5 F2400
;WIDTH:0.502171
G1 F1500
G1 X120.77 Y135.962 E.01092
;WIDTH:0.537827
G1 X121.022 Y136.098 E.01178
;WIDTH:0.573483
G1 X121.274 Y136.233 E.01261
G1 X121.556 Y136.05 E.01483
;WIDTH:0.532884
G1 X121.838 Y135.866 E.01372
;WIDTH:0.492284
G1 X122.121 Y135.683 E.01259
G1 X121.915 Y135.999 E.01409
;WIDTH:0.532884
G1 X121.709 Y136.315 E.01537
;WIDTH:0.573483
G1 X121.274 Y137.029 E.03688
G1 X120.868 Y136.363 E.03441
;WIDTH:0.537827
G1 X120.693 Y136.095 E.01317
;WIDTH:0.502171
G1 X120.551 Y135.877 E.00994
G1 X122.121 Y135.683 F9000
;WIDTH:0.451686
G1 F2400
G1 X146.851 Y92.849 E1.68111
G1 X146.618 Y92.446 F9000
;WIDTH:0.439999
G1 F2400
G1 X146.851 Y92.446 E.00769
G1 X147.549 Y92.446 E.02305
G1 X121.274 Y137.956 E1.73507
G1 X96.048 Y94.264 E1.66577
G1 X95.698 Y93.996 E.01455
G1 X95.262 Y94.054 E.01452
G1 X84.832 Y100.075 E.39763
G1 X84.75 Y100.132 E.0033
G1 X84.564 Y100.425 E.01146
G1 X84.621 Y100.861 E.01452
G1 X88.334 Y107.291 E.24515
G1 X87.636 Y107.694 E.02661
G1 X83.233 Y100.068 E.29074
G1 X96.055 Y92.665 E.48884
G1 X120.775 Y135.481 E1.63236
G1 X120.832 Y135.563 E.0033
G1 X121.274 Y135.769 E.0161
G1 X121.772 Y135.481 E.01899
G1 X146.588 Y92.498 E1.63872
G1 X146.395 Y92.059 F9000
;TYPE:External perimeter
;WIDTH:0.419999
G1 F1500
G1 X146.851 Y92.059 E.0143
G1 X148.219 Y92.059 E.04289
G1 X121.274 Y138.731 E1.68973
G1 X95.713 Y94.458 E1.60289
G1 X95.598 Y94.37 E.00454
G1 X95.455 Y94.389 E.00452
G1 X85.026 Y100.41 E.37758
G1 X84.938 Y100.525 E.00454
G1 X84.957 Y100.668 E.00452
G1 X88.862 Y107.433 E.24491
G1 X87.494 Y108.223 E.04953
G1 X82.704 Y99.926 E.30039
G1 X96.197 Y92.136 E.48851
G1 X121.11 Y135.288 E1.5623
G1 X121.274 Y135.382 E.00593
G1 X121.437 Y135.288 E.0059
G1 X146.365 Y92.111 E1.56321
;LAYER_CHANGE
;Z:0.8
;HEIGHT:0.2
;BEFORE_LAYER_CHANGE
G92 E0
;0.8


G1 E-3.5 F3600
;WIPE_START
G1 F7200
G1 X146.395 Y92.059 E-.02852
G1 X146.851 Y92.059 E-.2166
G1 X148.219 Y92.059 E-.6498
G1 X147.582 Y93.162 E-.60508
;WIPE_END
G1 Z.8 F9000
;AFTER_LAYER_CHANGE
;0.8
G1 Z.8
G1 X84.272 Y101.063
G1 E5 F2400
;TYPE:Perimeter
;WIDTH:0.451688
G1 F1500
G1 X83.758 Y100.209 E.03388
;WIDTH:0.415194
G1 X83.919 Y100.116 E.00576
;WIDTH:0.440854
G1 X84.203 Y99.967 E.01061
;WIDTH:0.466514
G1 X84.487 Y99.818 E.0113
G1 X84.34 Y100.071 E.01031
;WIDTH:0.440854
G1 X84.192 Y100.325 E.00973
;WIDTH:0.451688
G1 X84.266 Y101.003 E.02318
G1 E-3.5 F3600
;WIPE_START
G1 F7200
G1 X84.272 Y101.063 E-.02864
G1 X83.758 Y100.209 E-.47346
G1 X83.919 Y100.116 E-.08832
G1 X84.203 Y99.967 E-.15234
G1 X84.487 Y99.818 E-.15234
G1 X84.34 Y100.071 E-.13899
G1 X84.192 Y100.325 E-.13964
G1 X84.266 Y101.003 E-.32396
;WIPE_END
G1 E-.00231 F3600
G1 X95.06 Y93.705 F9000
G1 E5 F2400
G1 F1500
G1 X95.914 Y93.19 E.0339
;WIDTH:0.415193
G1 X96.007 Y93.352 E.00578
;WIDTH:0.451682
G1 X96.397 Y94.063 E.02756
;WIDTH:0.451688
G1 X95.798 Y93.625 E.02522
G1 X95.12 Y93.698 E.02318
G1 E-3.5 F3600
;WIPE_START
G1 F7200
G1 X95.06 Y93.705 E-.02869
G1 X95.914 Y93.19 E-.4737
G1 X96.007 Y93.352 E-.08873
G1 X96.397 Y94.063 E-.3852
G1 X95.798 Y93.625 E-.35248
G1 X95.439 Y93.664 E-.1712
;WIPE_END
G1 X120.518 Y135.827 F9000
G1 E5 F2400
;WIDTH:0.466516
G1 X120.426 Y135.683 E.00602
;WIDTH:0.451684
G1 X96.397 Y94.063 E1.63345
G1 E-3.5 F3600
;WIPE_START
G1 F7200
G1 X97.976 Y96.798 E-1.5
;WIPE_END
G1 X84.487 Y99.818 F9000
G1 E5 F2400
;WIDTH:0.466514
G1 F1500
G1 X84.631 Y99.726 E.00602
;WIDTH:0.451688
G1 X95.06 Y93.705 E.40931
G1 E-3.5 F3600
;WIPE_START
G1 F7200
G1 X92.325 Y95.284 E-1.5
;WIPE_END
G1 X87.783 Y107.144 F9000
G1 E5 F2400
G1 F1500
G1 X84.272 Y101.063 E.23867
G1 E-3.5 F3600
;WIPE_START
G1 F7200
G1 X85.851 Y103.798 E-1.5
;WIPE_END
G1 X120.518 Y135.827 F9000
G1 E5 F2400
;WIDTH:0.502172
G1 F1500
G1 X120.77 Y135.962 E.01092
;WIDTH:0.537827
G1 X121.022 Y136.098 E.01178
;WIDTH:0.573482
G1 X121.274 Y136.233 E.01261
G1 X121.525 Y136.098 E.01257
;WIDTH:0.537825
G1 X121.777 Y135.962 E.01178
;WIDTH:0.502168
G1 X122.029 Y135.827 E.01092
G1 X121.777 Y136.227 E.01805
;WIDTH:0.537825
G1 X121.525 Y136.628 E.01949
;WIDTH:0.573482
G1 X121.274 Y137.029 E.02087
G1 X120.868 Y136.363 E.03441
;WIDTH:0.537827
G1 X120.693 Y136.095 E.01317
;WIDTH:0.502172
G1 X120.551 Y135.877 E.00994
G1 E-3.5 F3600
;WIPE_START
G1 F7200
G1 X120.518 Y135.827 E-.02846
G1 X120.77 Y135.962 E-.13579
G1 X121.022 Y136.098 E-.13602
G1 X121.274 Y136.233 E-.13579
G1 X121.525 Y136.098 E-.13538
G1 X121.777 Y135.962 E-.13602
G1 X122.029 Y135.827 E-.13579
G1 X121.777 Y136.227 E-.22456
G1 X121.525 Y136.628 E-.22496
G1 X121.293 Y136.998 E-.20723
;WIPE_END
G1 X146.851 Y92.849 F9000
G1 E5 F2400
;WIDTH:0.451686
G1 X122.121 Y135.683 E1.68111
;WIDTH:0.46651
G1 X122.029 Y135.827 E.00602
G1 X121.251 Y135.759 F9000
;WIDTH:0.439999
G1 F2400
G1 X121.274 Y135.769 E.00083
G1 X121.715 Y135.563 E.01607
G1 X121.772 Y135.481 E.0033
G1 X146.618 Y92.446 E1.64071
G1 X146.851 Y92.446 E.00769
G1 X147.549 Y92.446 E.02305
G1 X121.274 Y137.956 E1.73507
G1 X96.048 Y94.264 E1.66577
G1 X95.698 Y93.996 E.01455
G1 X95.262 Y94.054 E.01452
G1 X84.832 Y100.075 E.39763
G1 X84.75 Y100.132 E.0033
G1 X84.564 Y100.425 E.01146
G1 X84.621 Y100.861 E.01452
G1 X88.334 Y107.291 E.24515
G1 X87.636 Y107.694 E.02661
G1 X83.233 Y100.068 E.29074
G1 X96.055 Y92.665 E.48884
G1 X120.775 Y135.481 E1.63236
G1 X120.832 Y135.563 E.0033
G1 X121.197 Y135.733 E.01329
G1 X121.26 Y135.374 F9000
;TYPE:External perimeter
;WIDTH:0.419999
G1 F1500
G1 X121.274 Y135.382 E.00051
G1 X121.437 Y135.288 E.0059
G1 X146.395 Y92.059 E1.56509
G1 X146.851 Y92.059 E.0143
G1 X148.219 Y92.059 E.04289
G1 X121.274 Y138.731 E1.68973
G1 X95.713 Y94.458 E1.60289
G1 X95.598 Y94.37 E.00454
G1 X95.455 Y94.389 E.00452
G1 X85.026 Y100.41 E.37758
G1 X84.938 Y100.525 E.00454
G1 X84.957 Y100.668 E.00452
G1 X88.862 Y107.433 E.24491
G1 X87.494 Y108.223 E.04953
G1 X82.704 Y99.926 E.30039
G1 X96.197 Y92.136 E.48851
G1 X121.11 Y135.288 E1.5623
G1 X121.208 Y135.344 E.00354
;LAYER_CHANGE
;Z:1
;HEIGHT:0.2
;BEFORE_LAYER_CHANGE
G92 E0
;1


G1 E-3.5 F3600
;WIPE_START
G1 F7200
G1 X121.26 Y135.374 E-.02852
G1 X121.274 Y135.382 E-.00766
G1 X121.437 Y135.288 E-.08938
G1 X122.884 Y132.782 E-1.37444
;WIPE_END
G1 Z1 F9000
;AFTER_LAYER_CHANGE
;1
G1 Z1
G1 X84.272 Y101.063
G1 E5 F2400
;TYPE:Perimeter
;WIDTH:0.451684
G1 F1500
G1 X83.758 Y100.209 E.03388
;WIDTH:0.415193
G1 X83.919 Y100.116 E.00576
;WIDTH:0.440854
G1 X84.203 Y99.967 E.01061
;WIDTH:0.466514
G1 X84.487 Y99.818 E.0113
G1 X84.34 Y100.071 E.01031
;WIDTH:0.440854
G1 X84.192 Y100.325 E.00973
;WIDTH:0.451684
G1 X84.266 Y101.003 E.02318
G1 E-3.5 F3600
;WIPE_START
G1 F7200
G1 X84.272 Y101.063 E-.02864
G1 X83.758 Y100.209 E-.47346
G1 X83.919 Y100.116 E-.08832
G1 X84.203 Y99.967 E-.15234
G1 X84.487 Y99.818 E-.15234
G1 X84.34 Y100.071 E-.13899
G1 X84.192 Y100.325 E-.13964
G1 X84.266 Y101.003 E-.32396
;WIPE_END
G1 E-.00231 F3600
G1 X95.06 Y93.705 F9000
G1 E5 F2400
;WIDTH:0.451686
G1 F1500
G1 X95.914 Y93.19 E.0339
;WIDTH:0.415193
G1 X96.007 Y93.352 E.00578
;WIDTH:0.451682
G1 X96.397 Y94.063 E.02756
;WIDTH:0.451686
G1 X95.798 Y93.625 E.02522
G1 X95.12 Y93.698 E.02318
G1 E-3.5 F3600
;WIPE_START
G1 F7200
G1 X95.06 Y93.705 E-.02869
G1 X95.914 Y93.19 E-.4737
G1 X96.007 Y93.352 E-.08873
G1 X96.397 Y94.063 E-.3852
G1 X95.798 Y93.625 E-.35248
G1 X95.439 Y93.664 E-.1712
;WIPE_END
G1 X120.518 Y135.827 F9000
G1 E5 F2400
;WIDTH:0.466514
G1 X120.426 Y135.683 E.00602
;WIDTH:0.451684
G1 X96.397 Y94.063 E1.63345
G1 E-3.5 F3600
;WIPE_START
G1 F7200
G1 X97.976 Y96.798 E-1.5
;WIPE_END
G1 X84.487 Y99.818 F9000
G1 E5 F2400
;WIDTH:0.466514
G1 F1500
G1 X84.631 Y99.726 E.00602
;WIDTH:0.451686
G1 X95.06 Y93.705 E.40931
G1 E-3.5 F3600
;WIPE_START
G1 F7200
G1 X92.325 Y95.284 E-1.5
;WIPE_END
