; generated by PrusaSlicer 2.9.2 on 2025-04-12 at 14:11:33 UTC

; 

; external perimeters extrusion width = 0.42mm
; perimeters extrusion width = 0.44mm
; infill extrusion width = 0.44mm
; solid infill extrusion width = 0.44mm
; top infill extrusion width = 0.40mm
; first layer extrusion width = 0.42mm

M201 X500 Y500 Z100 E5000 ; sets maximum accelerations, mm/sec^2
M203 X500 Y500 Z10 E60 ; sets maximum feedrates, mm / sec
M204 S500 T1000 ; sets acceleration (S) and retract acceleration (R), mm/sec^2
M205 X8.00 Y8.00 Z0.40 E5.00 ; sets the jerk limits, mm/sec
M205 S0 T0 ; sets the minimum extruding and travel feed rate, mm/sec

; printing object bottle cap-Body id:0 copy 0
; stop printing object bottle cap-Body id:0 copy 0

;TYPE:Custom
G90 ; use absolute coordinates
M83 ; extruder relative mode
M104 S150 ; set temporary nozzle temp to prevent oozing during homing
M140 S60 ; set final bed temp
G4 S30 ; allow partial nozzle warmup
G28 ; home all axis
G1 Z50 F240
G1 X2.0 Y10 F3000
M104 S220 ; set final nozzle temp
M190 S60 ; wait for bed temp to stabilize
M109 S220 ; wait for nozzle temp to stabilize
G1 Z0.28 F240
G92 E0
G1 X2.0 Y140 E10 F1500 ; prime the nozzle
G1 X2.3 Y140 F5000
G92 E0
G1 X2.3 Y10 E10 F1200 ; prime the nozzle
G92 E0
G21 ; set units to millimeters
G90 ; use absolute coordinates
M83 ; use relative distances for extrusion
; Filament gcode
M107
;LAYER_CHANGE
;Z:0.2
;HEIGHT:0.2
G1 E-5 F3600
G1 Z.2 F9000
; printing object bottle cap-Body id:0 copy 0
G1 X157.163 Y125.831
G1 Z.2
G1 E5 F2400
M204 S500
;TYPE:Perimeter
;WIDTH:0.419999
G1 F1200
G1 X157.02 Y126.431 E.01934
G1 X156.452 Y128.398 E.06419
G1 X155.79 Y130.339 E.0643
G1 X155.351 Y131.481 E.03836
G1 X154.879 Y132.61 E.03837
G1 X154.017 Y134.471 E.06431
G1 X153.067 Y136.289 E.06432
G1 X152.46 Y137.351 E.03835
G1 X151.822 Y138.395 E.03836
G1 X150.687 Y140.104 E.06433
G1 X149.476 Y141.751 E.0641
G1 X148.185 Y143.342 E.06424
G1 X146.821 Y144.868 E.06417
G1 X145.386 Y146.327 E.06416
G1 X143.883 Y147.716 E.06417
G1 X142.315 Y149.032 E.06418
G1 X140.687 Y150.272 E.06417
G1 X139.001 Y151.432 E.06417
G1 X137.262 Y152.512 E.06418
G1 X135.47 Y153.509 E.0643
G1 X134.379 Y154.062 E.03835
G1 X133.272 Y154.585 E.03839
G1 X131.385 Y155.389 E.06431
G1 X129.466 Y156.1 E.06417
G1 X127.511 Y156.721 E.06432
G1 X126.332 Y157.047 E.03835
G1 X125.144 Y157.339 E.03836
G1 X123.135 Y157.751 E.0643
G1 X121.112 Y158.067 E.0642
G1 X119.078 Y158.286 E.06414
G1 X117.034 Y158.408 E.0642
G1 X114.988 Y158.433 E.06416
G1 X112.943 Y158.359 E.06416
G1 X110.899 Y158.188 E.06431
G1 X109.684 Y158.04 E.03838
G1 X108.475 Y157.857 E.03834
G1 X106.46 Y157.473 E.06432
G1 X104.47 Y156.995 E.06417
G1 X102.505 Y156.422 E.06418
G1 X100.569 Y155.756 E.06419
G1 X98.662 Y154.996 E.06437
G1 X97.545 Y154.501 E.03831
G1 X96.441 Y153.974 E.03836
G1 X94.626 Y153.02 E.06429
G1 X92.861 Y151.982 E.0642
G1 X91.148 Y150.862 E.06417
G1 X89.491 Y149.662 E.06415
G1 X87.893 Y148.383 E.06418
G1 X86.353 Y147.027 E.06434
G1 X85.467 Y146.184 E.03835
G1 X84.605 Y145.316 E.03836
G1 X83.216 Y143.806 E.06433
G1 X81.904 Y142.236 E.06415
G1 X80.668 Y140.604 E.06419
G1 X79.511 Y138.916 E.06417
G1 X78.436 Y137.174 E.06418
G1 X77.444 Y135.38 E.06428
G1 X76.892 Y134.287 E.03839
G1 X76.373 Y133.179 E.03836
G1 X75.573 Y131.29 E.06432
G1 X74.866 Y129.37 E.06415
G1 X74.251 Y127.415 E.06426
G1 X73.73 Y125.438 E.0641
G1 X73.304 Y123.437 E.06415
G1 X72.973 Y121.412 E.06433
G1 X72.822 Y120.198 E.03836
G1 X72.705 Y118.98 E.03837
G1 X72.588 Y116.935 E.06422
G1 X72.569 Y114.886 E.06425
G1 X72.647 Y112.841 E.06417
G1 X72.822 Y110.802 E.06417
G1 X73.094 Y108.773 E.06419
G1 X73.463 Y106.76 E.06417
G1 X73.927 Y104.767 E.06416
G1 X74.486 Y102.798 E.06418
G1 X75.139 Y100.854 E.0643
G1 X75.573 Y99.71 E.03836
G1 X76.039 Y98.578 E.03838
G1 X76.893 Y96.713 E.06431
G1 X77.833 Y94.893 E.06423
G1 X78.856 Y93.123 E.0641
G1 X79.964 Y91.402 E.06418
G1 X81.153 Y89.736 E.06418
G1 X82.42 Y88.129 E.06416
G1 X83.765 Y86.58 E.06432
G1 X84.602 Y85.688 E.03835
G1 X85.464 Y84.819 E.03838
G1 X86.963 Y83.42 E.06429
G1 X88.526 Y82.095 E.06425
G1 X90.147 Y80.849 E.06411
G1 X91.827 Y79.68 E.06417
G1 X93.565 Y78.59 E.06432
G1 X94.623 Y77.981 E.03828
G1 X95.703 Y77.401 E.03844
G1 X97.545 Y76.499 E.06431
G1 X99.424 Y75.687 E.06418
G1 X101.34 Y74.967 E.06418
G1 X103.287 Y74.338 E.06415
G1 X105.263 Y73.803 E.06419
G1 X107.266 Y73.361 E.06431
G1 X108.47 Y73.144 E.03836
G1 X109.68 Y72.961 E.03837
G1 X111.718 Y72.731 E.06431
G1 X113.763 Y72.6 E.06425
G1 X115.807 Y72.566 E.0641
G1 X117.853 Y72.629 E.06418
G1 X119.893 Y72.79 E.06416
G1 X121.923 Y73.048 E.06416
G1 X123.939 Y73.402 E.06418
G1 X125.935 Y73.852 E.06415
G1 X127.908 Y74.397 E.06418
G1 X129.857 Y75.036 E.06431
G1 X131.004 Y75.461 E.03835
G1 X132.143 Y75.921 E.03851
G1 X133.268 Y76.413 E.0385
G1 X134.375 Y76.936 E.03839
G1 X136.195 Y77.881 E.0643
G1 X137.964 Y78.91 E.06417
G1 X139.682 Y80.022 E.06417
G1 X141.345 Y81.215 E.06417
G1 X142.95 Y82.486 E.06419
G1 X144.492 Y83.831 E.06416
G1 X145.971 Y85.252 E.06431
G1 X146.821 Y86.132 E.03836
G1 X147.645 Y87.037 E.03838
G1 X148.968 Y88.605 E.06433
G1 X150.211 Y90.23 E.06415
G1 X151.376 Y91.913 E.06418
G1 X152.459 Y93.649 E.06415
G1 X153.459 Y95.436 E.06421
G1 X154.374 Y97.271 E.06429
G1 X154.877 Y98.386 E.03835
G1 X155.349 Y99.515 E.03837
G1 X156.067 Y101.437 E.06433
G1 X156.691 Y103.386 E.06417
G1 X157.223 Y105.367 E.06431
G1 X157.494 Y106.56 E.03836
G1 X157.732 Y107.76 E.03836
G1 X158.053 Y109.786 E.06432
G1 X158.277 Y111.82 E.06416
G1 X158.404 Y113.863 E.06418
G1 X158.433 Y115.914 E.06431
G1 X158.417 Y116.613 E.02192
G1 X158.34 Y118.359 E.0548
G1 X158.155 Y120.402 E.06432
G1 X157.873 Y122.426 E.06407
G1 X157.494 Y124.44 E.06426
G1 X157.177 Y125.773 E.04296
G1 X157.543 Y125.864 F9000
G1 F1200
G1 X157.385 Y126.527 E.02137
G1 X156.812 Y128.511 E.06475
G1 X156.144 Y130.467 E.06481
G1 X155.701 Y131.621 E.03876
G1 X155.224 Y132.762 E.03878
G1 X154.355 Y134.637 E.0648
G1 X153.398 Y136.47 E.06483
G1 X152.784 Y137.543 E.03876
G1 X152.14 Y138.598 E.03875
G1 X150.996 Y140.32 E.06482
G1 X149.774 Y141.981 E.06466
G1 X148.472 Y143.586 E.0648
G1 X147.096 Y145.126 E.06475
G1 X145.648 Y146.598 E.06474
G1 X144.132 Y147.999 E.06472
G1 X142.551 Y149.326 E.06472
G1 X140.908 Y150.577 E.06475
G1 X139.208 Y151.748 E.06472
G1 X137.454 Y152.837 E.06473
G1 X135.647 Y153.842 E.06483
G1 X134.545 Y154.401 E.03874
G1 X133.427 Y154.929 E.03877
G1 X131.525 Y155.739 E.06482
G1 X129.589 Y156.457 E.06474
G1 X127.619 Y157.083 E.06481
G1 X126.427 Y157.412 E.03877
G1 X125.227 Y157.707 E.03875
G1 X123.202 Y158.123 E.06482
G1 X121.162 Y158.441 E.06474
G1 X119.109 Y158.662 E.06474
G1 X117.048 Y158.785 E.06474
G1 X114.984 Y158.81 E.06472
G1 X112.92 Y158.736 E.06476
G1 X110.86 Y158.564 E.06481
G1 X109.633 Y158.414 E.03876
G1 X108.411 Y158.229 E.03875
G1 X106.38 Y157.842 E.06483
G1 X104.373 Y157.359 E.06472
G1 X102.391 Y156.781 E.06473
G1 X100.438 Y156.11 E.06475
G1 X98.515 Y155.344 E.0649
G1 X97.387 Y154.844 E.03869
G1 X96.272 Y154.311 E.03875
G1 X94.442 Y153.349 E.06482
G1 X92.662 Y152.303 E.06473
G1 X90.935 Y151.173 E.06471
G1 X89.263 Y149.962 E.06473
G1 X87.65 Y148.672 E.06476
G1 X86.099 Y147.305 E.06482
G1 X85.203 Y146.454 E.03875
G1 X84.332 Y145.576 E.03878
G1 X82.933 Y144.055 E.0648
G1 X81.609 Y142.47 E.06475
G1 X80.362 Y140.825 E.06472
G1 X79.195 Y139.122 E.06473
G1 X78.111 Y137.365 E.06473
G1 X77.11 Y135.556 E.06482
G1 X76.553 Y134.452 E.03877
G1 X76.028 Y133.333 E.03875
G1 X75.223 Y131.429 E.06481
G1 X74.509 Y129.492 E.06473
G1 X73.888 Y127.52 E.06482
G1 X73.363 Y125.526 E.06465
G1 X72.933 Y123.507 E.06472
G1 X72.6 Y121.466 E.06484
G1 X72.447 Y120.24 E.03874
G1 X72.329 Y119.009 E.03877
G1 X72.211 Y116.947 E.06476
G1 X72.191 Y114.881 E.06478
G1 X72.27 Y112.817 E.06476
G1 X72.447 Y110.761 E.0647
G1 X72.722 Y108.714 E.06476
G1 X73.094 Y106.683 E.06474
G1 X73.562 Y104.673 E.06471
G1 X74.126 Y102.686 E.06476
G1 X74.784 Y100.727 E.0648
G1 X75.222 Y99.571 E.03876
G1 X75.693 Y98.428 E.03876
G1 X76.553 Y96.548 E.06482
G1 X77.502 Y94.712 E.0648
G1 X78.535 Y92.926 E.06469
G1 X79.652 Y91.191 E.0647
G1 X80.851 Y89.51 E.06474
G1 X82.129 Y87.888 E.06475
G1 X83.485 Y86.327 E.06483
G1 X84.33 Y85.426 E.03873
G1 X85.201 Y84.548 E.03878
G1 X86.713 Y83.138 E.06482
G1 X88.289 Y81.802 E.06478
G1 X89.924 Y80.544 E.06468
G1 X91.619 Y79.365 E.06474
G1 X93.371 Y78.267 E.06483
G1 X94.44 Y77.652 E.03867
G1 X95.531 Y77.065 E.03884
G1 X97.387 Y76.156 E.0648
G1 X99.283 Y75.338 E.06474
G1 X101.215 Y74.611 E.06472
G1 X103.18 Y73.976 E.06475
G1 X105.173 Y73.436 E.06474
G1 X107.192 Y72.991 E.06482
G1 X108.408 Y72.772 E.03874
G1 X109.63 Y72.587 E.03875
G1 X111.685 Y72.356 E.06484
G1 X113.748 Y72.223 E.06482
G1 X115.809 Y72.188 E.06463
G1 X117.873 Y72.252 E.06475
G1 X119.931 Y72.415 E.06473
G1 X121.98 Y72.675 E.06476
G1 X124.013 Y73.032 E.06472
G1 X126.027 Y73.486 E.06473
G1 X128.017 Y74.035 E.06473
G1 X129.982 Y74.68 E.06485
G1 X131.14 Y75.11 E.03873
G1 X132.289 Y75.574 E.03885
G1 X133.424 Y76.07 E.03884
G1 X134.542 Y76.598 E.03877
G1 X136.377 Y77.551 E.06483
G1 X138.161 Y78.589 E.06472
G1 X139.895 Y79.711 E.06476
G1 X141.572 Y80.914 E.06471
G1 X143.191 Y82.196 E.06475
G1 X144.747 Y83.553 E.06473
G1 X146.238 Y84.985 E.06482
G1 X147.096 Y85.874 E.03874
G1 X147.928 Y86.788 E.03875
G1 X149.262 Y88.368 E.06484
G1 X150.516 Y90.008 E.06473
G1 X151.691 Y91.706 E.06474
G1 X152.784 Y93.457 E.06472
G1 X153.792 Y95.259 E.06474
G1 X154.714 Y97.109 E.06481
G1 X155.223 Y98.236 E.03877
G1 X155.7 Y99.376 E.03875
G1 X156.423 Y101.313 E.06483
G1 X157.053 Y103.279 E.06473
G1 X157.589 Y105.276 E.06483
G1 X157.863 Y106.481 E.03875
G1 X158.103 Y107.694 E.03877
G1 X158.427 Y109.736 E.06483
G1 X158.653 Y111.788 E.06473
G1 X158.781 Y113.849 E.06475
G1 X158.811 Y115.916 E.06482
G1 X158.794 Y116.622 E.02214
G1 X158.716 Y118.386 E.05536
G1 X158.529 Y120.445 E.06482
G1 X158.245 Y122.487 E.06464
G1 X157.863 Y124.519 E.06483
G1 X157.557 Y125.805 E.04145
G1 X157.923 Y125.896 F9000
;TYPE:External perimeter
G1 F1200
G1 X157.75 Y126.623 E.02343
G1 X157.172 Y128.624 E.0653
G1 X156.499 Y130.596 E.06533
G1 X156.051 Y131.761 E.03914
G1 X155.569 Y132.914 E.03918
G1 X154.694 Y134.804 E.0653
G1 X153.729 Y136.651 E.06534
G1 X153.109 Y137.735 E.03915
G1 X152.458 Y138.8 E.03914
G1 X151.305 Y140.536 E.06534
G1 X150.073 Y142.212 E.06522
G1 X148.759 Y143.831 E.06538
G1 X147.371 Y145.383 E.06528
G1 X145.911 Y146.868 E.0653
G1 X144.381 Y148.282 E.06532
G1 X142.786 Y149.621 E.0653
G1 X141.129 Y150.883 E.06531
G1 X139.414 Y152.064 E.06529
G1 X137.645 Y153.162 E.06528
G1 X135.824 Y154.175 E.06534
G1 X134.71 Y154.74 E.03916
G1 X133.581 Y155.273 E.03915
G1 X131.664 Y156.09 E.06534
G1 X129.712 Y156.814 E.06528
G1 X127.726 Y157.444 E.06533
G1 X126.522 Y157.777 E.03917
G1 X125.31 Y158.074 E.03913
G1 X123.269 Y158.494 E.06533
G1 X121.211 Y158.815 E.06531
G1 X119.14 Y159.038 E.06531
G1 X117.061 Y159.162 E.0653
G1 X114.979 Y159.187 E.06528
G1 X112.898 Y159.112 E.06529
G1 X110.821 Y158.939 E.06535
G1 X109.582 Y158.787 E.03914
G1 X108.347 Y158.601 E.03916
G1 X106.301 Y158.211 E.06531
G1 X104.276 Y157.724 E.0653
G1 X102.276 Y157.141 E.06532
G1 X100.307 Y156.463 E.06529
G1 X98.369 Y155.692 E.0654
G1 X97.23 Y155.187 E.03907
G1 X96.103 Y154.648 E.03917
G1 X94.259 Y153.679 E.06531
G1 X92.464 Y152.623 E.0653
G1 X90.721 Y151.483 E.0653
G1 X89.034 Y150.262 E.0653
G1 X87.408 Y148.961 E.06529
G1 X85.844 Y147.584 E.06534
G1 X84.939 Y146.723 E.03917
G1 X84.06 Y145.837 E.03913
G1 X82.649 Y144.304 E.06533
G1 X81.314 Y142.705 E.06531
G1 X80.056 Y141.045 E.06531
G1 X78.879 Y139.327 E.0653
G1 X77.785 Y137.555 E.0653
G1 X76.777 Y135.732 E.06531
G1 X76.214 Y134.617 E.03916
G1 X75.684 Y133.486 E.03916
G1 X74.872 Y131.568 E.0653
G1 X74.152 Y129.613 E.06532
G1 X73.526 Y127.625 E.06535
G1 X72.996 Y125.613 E.06524
G1 X72.563 Y123.576 E.0653
G1 X72.227 Y121.52 E.06532
G1 X72.072 Y120.281 E.03915
G1 X71.953 Y119.038 E.03915
G1 X71.834 Y116.96 E.06526
G1 X71.814 Y114.875 E.06538
G1 X71.894 Y112.794 E.0653
G1 X72.072 Y110.719 E.0653
G1 X72.349 Y108.655 E.0653
G1 X72.725 Y106.607 E.06529
G1 X73.197 Y104.578 E.06532
G1 X73.765 Y102.575 E.06528
G1 X74.429 Y100.6 E.06533
G1 X74.872 Y99.432 E.03917
G1 X75.347 Y98.278 E.03913
G1 X76.214 Y96.383 E.06534
G1 X77.171 Y94.531 E.06536
G1 X78.213 Y92.73 E.06524
G1 X79.34 Y90.979 E.06529
G1 X80.55 Y89.283 E.06532
G1 X81.839 Y87.648 E.06528
G1 X83.205 Y86.075 E.06532
G1 X84.059 Y85.164 E.03915
G1 X84.939 Y84.278 E.03915
G1 X86.462 Y82.856 E.06533
G1 X88.052 Y81.508 E.06536
G1 X89.702 Y80.24 E.06525
G1 X91.411 Y79.051 E.06528
G1 X93.176 Y77.944 E.06532
G1 X94.257 Y77.322 E.0391
G1 X95.358 Y76.73 E.03919
G1 X97.23 Y75.814 E.06535
G1 X99.142 Y74.988 E.0653
G1 X101.091 Y74.254 E.0653
G1 X103.073 Y73.615 E.06529
G1 X105.083 Y73.07 E.0653
G1 X107.118 Y72.622 E.06533
G1 X108.346 Y72.4 E.03913
G1 X109.581 Y72.213 E.03916
G1 X111.651 Y71.98 E.06531
G1 X113.732 Y71.846 E.06538
G1 X115.812 Y71.811 E.06523
G1 X117.894 Y71.876 E.06531
G1 X119.97 Y72.039 E.06529
G1 X122.036 Y72.302 E.0653
G1 X124.087 Y72.662 E.06529
G1 X126.119 Y73.12 E.06531
G1 X128.126 Y73.674 E.06528
G1 X130.106 Y74.324 E.06534
G1 X131.277 Y74.758 E.03916
G1 X132.436 Y75.226 E.03919
G1 X133.58 Y75.727 E.03916
G1 X134.709 Y76.26 E.03915
G1 X136.558 Y77.22 E.06532
G1 X138.359 Y78.267 E.06532
G1 X140.107 Y79.399 E.0653
G1 X141.799 Y80.613 E.06529
G1 X143.432 Y81.906 E.06531
G1 X145.001 Y83.275 E.06529
G1 X146.504 Y84.718 E.06533
G1 X147.371 Y85.616 E.03914
G1 X148.212 Y86.539 E.03915
G1 X149.556 Y88.132 E.06535
G1 X150.821 Y89.786 E.06529
G1 X152.006 Y91.498 E.06528
G1 X153.109 Y93.265 E.06531
G1 X154.126 Y95.083 E.06531
G1 X155.055 Y96.948 E.06533
G1 X155.569 Y98.086 E.03915
G1 X156.05 Y99.238 E.03914
G1 X156.78 Y101.19 E.06534
G1 X157.415 Y103.173 E.06529
G1 X157.955 Y105.185 E.06532
G1 X158.232 Y106.403 E.03916
G1 X158.475 Y107.628 E.03916
G1 X158.801 Y109.685 E.0653
G1 X159.029 Y111.756 E.06533
G1 X159.158 Y113.834 E.06528
G1 X159.188 Y115.918 E.06535
G1 X159.171 Y116.631 E.02236
G1 X159.093 Y118.413 E.05593
G1 X158.904 Y120.488 E.06533
G1 X158.617 Y122.548 E.06521
G1 X158.232 Y124.597 E.06537
G1 X157.937 Y125.838 E.03999
G1 E-3.5 F3600
;WIPE_START
G1 F7200
G1 X157.923 Y125.896 E-.02834
G1 X157.75 Y126.623 E-.35497
G1 X157.172 Y128.624 E-.98933
G1 X157.085 Y128.878 E-.12736
;WIPE_END
G1 X148.252 Y87.943 F9000
G1 E5 F2400
;TYPE:Solid infill
;WIDTH:0.420298
G1 F1200
G1 X145.76 Y85.452 E.11056
G1 X144.296 Y84.045 E.06372
G1 X142.764 Y82.709 E.06378
G1 X141.417 Y81.642 E.05392
G1 X149.327 Y89.552 E.35102
G1 X149.977 Y90.401 E.03355
G1 X150.728 Y91.487 E.04143
G1 X139.476 Y80.234 E.49935
G1 X137.963 Y79.255 E.05655
G1 X151.719 Y93.012 E.61047
G1 X152.209 Y93.797 E.02904
G1 X152.512 Y94.338 E.01946
G1 X136.663 Y78.49 E.70331
G1 X136.055 Y78.136 E.02208
G1 X135.474 Y77.834 E.02055
G1 X153.19 Y95.55 E.78618
G1 X153.723 Y96.616 E.0374
G1 X134.364 Y77.257 E.85909
G1 X133.342 Y76.769 E.03554
G1 X154.229 Y97.656 E.9269
G1 X154.661 Y98.622 E.03321
G1 X132.382 Y76.343 E.98867
G1 X131.467 Y75.961 E.03111
G1 X155.044 Y99.539 E1.04629
G1 X155.368 Y100.397 E.02878
G1 X130.589 Y75.617 E1.09963
G1 X129.742 Y75.304 E.02833
G1 X155.687 Y101.249 E1.15136
G1 X155.96 Y102.056 E.02673
G1 X128.947 Y75.043 E1.19875
G1 X128.153 Y74.782 E.02623
G1 X156.212 Y102.841 E1.24517
G1 X156.452 Y103.615 E.02543
G1 X127.392 Y74.555 E1.28959
G1 X126.655 Y74.352 E.02399
G1 X156.647 Y104.344 E1.33095
G1 X156.843 Y105.074 E.02372
G1 X125.918 Y74.148 E1.37237
G1 X125.225 Y73.99 E.0223
G1 X157.02 Y105.784 E1.41094
G1 X157.177 Y106.475 E.02224
G1 X124.536 Y73.834 E1.4485
G1 X123.85 Y73.681 E.02205
G1 X157.314 Y107.146 E1.48505
G1 X157.446 Y107.811 E.02127
G1 X123.202 Y73.567 E1.51964
G1 X122.554 Y73.453 E.02065
G1 X157.547 Y108.446 E1.55288
G1 X157.647 Y109.08 E.02014
G1 X121.907 Y73.34 E1.58603
G1 X121.294 Y73.26 E.0194
G1 X157.748 Y109.714 E1.61771
G1 X157.82 Y110.32 E.01915
G1 X120.683 Y73.183 E1.64802
G1 X120.071 Y73.105 E.01936
G1 X157.886 Y110.92 E1.67811
G1 X157.952 Y111.52 E.01894
G1 X119.481 Y73.049 E1.70722
G1 X118.902 Y73.003 E.01823
