; generated by PrusaSlicer 2.9.2 on 2025-08-31 at 09:02:58 UTC

; 

; external perimeters extrusion width = 0.42mm
; perimeters extrusion width = 0.44mm
; infill extrusion width = 0.44mm
; solid infill extrusion width = 0.44mm
; top infill extrusion width = 0.40mm
; first layer extrusion width = 0.42mm

; external perimeters extrusion width = 0.42mm
; perimeters extrusion width = 0.44mm
; infill extrusion width = 0.44mm
; solid infill extrusion width = 0.44mm
; top infill extrusion width = 0.40mm
; first layer extrusion width = 0.42mm

; external perimeters extrusion width = 0.42mm
; perimeters extrusion width = 0.44mm
; infill extrusion width = 0.44mm
; solid infill extrusion width = 0.44mm
; top infill extrusion width = 0.40mm
; first layer extrusion width = 0.42mm

; external perimeters extrusion width = 0.42mm
; perimeters extrusion width = 0.44mm
; infill extrusion width = 0.44mm
; solid infill extrusion width = 0.44mm
; top infill extrusion width = 0.40mm
; first layer extrusion width = 0.42mm

; external perimeters extrusion width = 0.42mm
; perimeters extrusion width = 0.44mm
; infill extrusion width = 0.44mm
; solid infill extrusion width = 0.44mm
; top infill extrusion width = 0.40mm
; first layer extrusion width = 0.42mm

; external perimeters extrusion width = 0.42mm
; perimeters extrusion width = 0.44mm
; infill extrusion width = 0.44mm
; solid infill extrusion width = 0.44mm
; top infill extrusion width = 0.40mm
; first layer extrusion width = 0.42mm

; external perimeters extrusion width = 0.42mm
; perimeters extrusion width = 0.44mm
; infill extrusion width = 0.44mm
; solid infill extrusion width = 0.44mm
; top infill extrusion width = 0.40mm
; first layer extrusion width = 0.42mm

; external perimeters extrusion width = 0.42mm
; perimeters extrusion width = 0.44mm
; infill extrusion width = 0.44mm
; solid infill extrusion width = 0.44mm
; top infill extrusion width = 0.40mm
; first layer extrusion width = 0.42mm

; external perimeters extrusion width = 0.42mm
; perimeters extrusion width = 0.44mm
; infill extrusion width = 0.44mm
; solid infill extrusion width = 0.44mm
; top infill extrusion width = 0.40mm
; first layer extrusion width = 0.42mm

; external perimeters extrusion width = 0.42mm
; perimeters extrusion width = 0.44mm
; infill extrusion width = 0.44mm
; solid infill extrusion width = 0.44mm
; top infill extrusion width = 0.40mm
; first layer extrusion width = 0.42mm

; external perimeters extrusion width = 0.42mm
; perimeters extrusion width = 0.44mm
; infill extrusion width = 0.44mm
; solid infill extrusion width = 0.44mm
; top infill extrusion width = 0.40mm
; first layer extrusion width = 0.42mm

; external perimeters extrusion width = 0.42mm
; perimeters extrusion width = 0.44mm
; infill extrusion width = 0.44mm
; solid infill extrusion width = 0.44mm
; top infill extrusion width = 0.40mm
; first layer extrusion width = 0.42mm

M201 X500 Y500 Z100 E5000 ; sets maximum accelerations, mm/sec^2
M203 X500 Y500 Z10 E60 ; sets maximum feedrates, mm / sec
M204 S500 T1000 ; sets acceleration (S) and retract acceleration (R), mm/sec^2
M205 X8.00 Y8.00 Z0.40 E5.00 ; sets the jerk limits, mm/sec
M205 S0 T0 ; sets the minimum extruding and travel feed rate, mm/sec

; printing object Golf1-clips+No+frame_14 id:6 copy 0
; stop printing object Golf1-clips+No+frame_14 id:6 copy 0
; printing object Golf1-clips+No+frame_4 id:2 copy 0
; stop printing object Golf1-clips+No+frame_4 id:2 copy 0
; printing object Golf1-clips+No+frame_3 id:1 copy 0
; stop printing object Golf1-clips+No+frame_3 id:1 copy 0
; printing object Golf1-clips+No+frame_21 id:8 copy 0
; stop printing object Golf1-clips+No+frame_21 id:8 copy 0
; printing object Golf1-clips+No+frame_11 id:5 copy 0
; stop printing object Golf1-clips+No+frame_11 id:5 copy 0
; printing object Golf1-clips+No+frame_16 id:7 copy 0
; stop printing object Golf1-clips+No+frame_16 id:7 copy 0
; printing object Golf1-clips+No+frame_9 id:3 copy 0
; stop printing object Golf1-clips+No+frame_9 id:3 copy 0
; printing object Golf1-clips+No+frame_23 id:10 copy 0
; stop printing object Golf1-clips+No+frame_23 id:10 copy 0
; printing object Golf1-clips+No+frame_26 id:11 copy 0
; stop printing object Golf1-clips+No+frame_26 id:11 copy 0
; printing object Golf1-clips+No+frame_22 id:9 copy 0
; stop printing object Golf1-clips+No+frame_22 id:9 copy 0
; printing object Golf1-clips+No+frame_2 id:0 copy 0
; stop printing object Golf1-clips+No+frame_2 id:0 copy 0
; printing object Golf1-clips+No+frame_10 id:4 copy 0
; stop printing object Golf1-clips+No+frame_10 id:4 copy 0

;TYPE:Custom
G90 ; use absolute coordinates
M83 ; extruder relative mode
M104 S150 ; set temporary nozzle temp to prevent oozing during homing
M140 S60 ; set final bed temp
G4 S30 ; allow partial nozzle warmup
G28 ; home all axis
G1 Z50 F240
G1 X2.0 Y10 F3000
M104 S220 ; set final nozzle temp
M190 S60 ; wait for bed temp to stabilize
M109 S220 ; wait for nozzle temp to stabilize
G1 Z0.28 F240
G92 E0
G1 X2.0 Y140 E10 F1500 ; prime the nozzle
G1 X2.3 Y140 F5000
G92 E0
G1 X2.3 Y10 E10 F1200 ; prime the nozzle
G92 E0
G21 ; set units to millimeters
G90 ; use absolute coordinates
M83 ; use relative distances for extrusion
; Filament gcode
M107
;LAYER_CHANGE
;Z:0.2
;HEIGHT:0.2
G1 E-5 F3600
G1 Z.2 F9000
; printing object Golf1-clips+No+frame_16 id:7 copy 0
G1 X90.036 Y92.811
G1 Z.2
G1 E5 F2400
M204 S500
;TYPE:Perimeter
;WIDTH:0.419999
G1 F1200
G1 X90.006 Y93.298 E.0153
G1 X89.854 Y93.952 E.02105
G1 X89.605 Y94.521 E.01947
G1 X89.278 Y95.013 E.01852
G1 X88.832 Y95.486 E.02038
G1 X88.332 Y95.854 E.01947
G1 X87.782 Y96.126 E.01924
G1 X87.179 Y96.304 E.01971
G1 X86.562 Y96.372 E.01946
G1 X85.942 Y96.332 E.01948
G1 X85.339 Y96.186 E.01945
G1 X84.93 Y96.01 E.01396
G1 X84.544 Y95.795 E.01385
G1 X84.134 Y95.492 E.01598
G1 X83.728 Y95.076 E.01823
G1 X83.437 Y94.663 E.01584
G1 X83.162 Y94.106 E.01948
G1 X82.987 Y93.51 E.01948
G1 X82.919 Y92.893 E.01946
G1 X82.959 Y92.274 E.01945
G1 X83.106 Y91.67 E.01949
G1 X83.355 Y91.102 E.01945
G1 X83.699 Y90.585 E.01947
G1 X84.128 Y90.136 E.01947
G1 X84.545 Y89.827 E.01627
G1 X85.185 Y89.493 E.02263
G1 X85.781 Y89.318 E.01948
G1 X86.296 Y89.259 E.01625
G1 X86.923 Y89.282 E.01967
G1 X87.621 Y89.437 E.02242
G1 X88.189 Y89.686 E.01945
G1 X88.706 Y90.03 E.01947
G1 X89.155 Y90.459 E.01947
G1 X89.523 Y90.959 E.01947
G1 X89.767 Y91.45 E.01719
G1 X89.973 Y92.112 E.02174
G1 X90.041 Y92.729 E.01946
G1 X90.04 Y92.751 E.00069
G1 X89.662 Y92.811 F9000
G1 F1200
G1 X89.63 Y93.265 E.01427
G1 X89.49 Y93.854 E.01898
G1 X89.263 Y94.361 E.01742
G1 X88.969 Y94.797 E.01649
G1 X88.565 Y95.22 E.01834
G1 X88.115 Y95.545 E.0174
G1 X87.623 Y95.784 E.01715
G1 X87.082 Y95.94 E.01765
G1 X86.529 Y95.997 E.01743
G1 X85.975 Y95.957 E.01742
G1 X85.437 Y95.821 E.0174
G1 X85.089 Y95.669 E.01191
G1 X84.761 Y95.486 E.01178
G1 X84.395 Y95.22 E.01419
G1 X84.025 Y94.844 E.01654
G1 X83.721 Y94.408 E.01667
G1 X83.503 Y93.947 E.01599
G1 X83.351 Y93.413 E.01741
G1 X83.294 Y92.86 E.01743
G1 X83.334 Y92.307 E.01738
G1 X83.47 Y91.768 E.01743
G1 X83.697 Y91.261 E.01742
G1 X84.008 Y90.801 E.01741
G1 X84.395 Y90.403 E.01741
G1 X84.845 Y90.077 E.01742
G1 X85.344 Y89.835 E.01739
G1 X85.878 Y89.683 E.01741
G1 X86.431 Y89.626 E.01743
G1 X86.984 Y89.666 E.01738
G1 X87.523 Y89.801 E.01742
G1 X88.03 Y90.028 E.01742
G1 X88.49 Y90.339 E.01741
G1 X88.888 Y90.726 E.01741
G1 X89.214 Y91.176 E.01742
G1 X89.456 Y91.675 E.01739
G1 X89.608 Y92.209 E.01741
G1 X89.664 Y92.751 E.01708
G1 X89.288 Y92.811 F9000
;TYPE:External perimeter
G1 F1200
G1 X89.29 Y92.828 E.00054
G1 X89.244 Y93.315 E.01534
G1 X89.084 Y93.853 E.0176
G1 X88.905 Y94.23 E.01309
G1 X88.622 Y94.63 E.01536
G1 X88.196 Y95.028 E.01828
G1 X87.871 Y95.253 E.01239
G1 X87.425 Y95.457 E.01538
G1 X86.848 Y95.59 E.01857
G1 X86.372 Y95.613 E.01494
G1 X85.976 Y95.575 E.01247
G1 X85.503 Y95.446 E.01537
G1 X85.249 Y95.327 E.00879
G1 X84.686 Y94.974 E.02084
G1 X84.323 Y94.612 E.01607
G1 X83.986 Y94.09 E.01948
G1 X83.834 Y93.757 E.01148
G1 X83.71 Y93.283 E.01536
G1 X83.683 Y92.65 E.01987
G1 X83.716 Y92.307 E.0108
G1 X83.845 Y91.835 E.01534
G1 X84.15 Y91.255 E.02055
G1 X84.338 Y90.992 E.01014
G1 X84.686 Y90.648 E.01534
G1 X85.259 Y90.29 E.02118
G1 X85.543 Y90.163 E.00975
G1 X86.016 Y90.041 E.01532
G1 X86.496 Y90.001 E.0151
G1 X87.005 Y90.053 E.01604
G1 X87.475 Y90.185 E.01531
G1 X87.899 Y90.386 E.01471
G1 X88.299 Y90.669 E.01536
G1 X88.66 Y91.042 E.01628
G1 X88.921 Y91.421 E.01443
G1 X89.126 Y91.866 E.01536
G1 X89.254 Y92.39 E.01691
G1 X89.283 Y92.751 E.01136
G1 X90.801 Y92.651 F9000
;TYPE:Perimeter
G1 F1200
G1 X90.812 Y92.837 E.00584
G1 X90.776 Y93.383 E.01716
G1 X90.663 Y93.944 E.01794
G1 X90.477 Y94.486 E.01797
G1 X90.221 Y94.998 E.01795
G1 X89.9 Y95.472 E.01795
G1 X89.519 Y95.9 E.01797
G1 X89.084 Y96.274 E.01799
G1 X88.605 Y96.587 E.01794
G1 X88.089 Y96.834 E.01794
G1 X87.544 Y97.011 E.01797
G1 X86.989 Y97.112 E.01769
G1 X86.377 Y97.133 E.0192
G1 X85.828 Y97.087 E.01727
G1 X85.294 Y96.977 E.01709
G1 X84.601 Y96.715 E.02323
G1 X84.11 Y96.438 E.01768
G1 X83.652 Y96.094 E.01796
G1 X83.244 Y95.693 E.01794
G1 X82.892 Y95.241 E.01796
G1 X82.603 Y94.746 E.01797
G1 X82.381 Y94.218 E.01796
G1 X82.231 Y93.665 E.01797
G1 X82.156 Y93.098 E.01793
G1 X82.156 Y92.525 E.01797
G1 X82.231 Y91.957 E.01796
G1 X82.381 Y91.404 E.01797
G1 X82.603 Y90.876 E.01796
G1 X82.892 Y90.381 E.01797
G1 X83.244 Y89.93 E.01794
G1 X83.652 Y89.528 E.01796
G1 X84.11 Y89.184 E.01796
G1 X84.609 Y88.904 E.01794
G1 X85.133 Y88.694 E.0177
G1 X85.637 Y88.576 E.01623
G1 X86.25 Y88.486 E.01943
G1 X86.969 Y88.509 E.02256
G1 X87.388 Y88.576 E.0133
G1 X88.068 Y88.784 E.0223
G1 X88.528 Y88.999 E.01592
G1 X88.971 Y89.272 E.01632
G1 X89.545 Y89.752 E.02346
G1 X89.914 Y90.171 E.01751
G1 X90.293 Y90.769 E.0222
G1 X90.509 Y91.229 E.01593
G1 X90.668 Y91.703 E.01568
G1 X90.777 Y92.265 E.01795
G1 X90.797 Y92.591 E.01024
G1 X91.172 Y92.566 F9000
G1 F1200
G1 X91.188 Y92.861 E.00926
G1 X91.15 Y93.433 E.01797
G1 X91.027 Y94.043 E.01951
G1 X90.825 Y94.632 E.01952
G1 X90.547 Y95.189 E.01952
G1 X90.198 Y95.705 E.01953
G1 X89.784 Y96.17 E.01952
G1 X89.311 Y96.576 E.01954
G1 X88.791 Y96.916 E.01948
G1 X88.229 Y97.185 E.01954
G1 X87.637 Y97.377 E.01951
G1 X87.029 Y97.488 E.01938
G1 X86.298 Y97.512 E.02293
G1 X85.785 Y97.461 E.01616
G1 X85.183 Y97.338 E.01927
G1 X84.441 Y97.057 E.02488
G1 X83.903 Y96.754 E.01936
G1 X83.406 Y96.381 E.01948
G1 X82.961 Y95.944 E.01956
G1 X82.579 Y95.453 E.01951
G1 X82.265 Y94.915 E.01953
G1 X82.024 Y94.341 E.01952
G1 X81.861 Y93.74 E.01952
G1 X81.779 Y93.123 E.01952
G1 X81.779 Y92.5 E.01953
G1 X81.861 Y91.882 E.01955
G1 X82.024 Y91.281 E.01952
G1 X82.265 Y90.707 E.01952
G1 X82.579 Y90.169 E.01953
G1 X82.961 Y89.678 E.01951
G1 X83.405 Y89.242 E.01951
G1 X83.903 Y88.868 E.01953
G1 X84.446 Y88.563 E.01953
G1 X85.019 Y88.334 E.01935
G1 X85.735 Y88.166 E.02306
G1 X86.237 Y88.108 E.01584
G1 X86.982 Y88.132 E.02337
G1 X87.522 Y88.223 E.01717
G1 X88.285 Y88.464 E.02509
G1 X88.96 Y88.814 E.02384
G1 X89.403 Y89.139 E.01723
G1 X89.826 Y89.501 E.01746
G1 X90.226 Y89.96 E.01909
G1 X90.631 Y90.601 E.02377
G1 X90.865 Y91.107 E.01748
G1 X91.037 Y91.629 E.01723
G1 X91.153 Y92.24 E.0195
G1 X91.168 Y92.506 E.00835
G1 X91.543 Y92.481 F9000
;TYPE:External perimeter
G1 F1200
G1 X91.564 Y92.886 E.01272
G1 X91.525 Y93.483 E.01876
G1 X91.392 Y94.142 E.02108
G1 X91.174 Y94.778 E.02108
G1 X90.873 Y95.38 E.0211
G1 X90.496 Y95.937 E.02109
G1 X90.049 Y96.439 E.02108
G1 X89.539 Y96.878 E.0211
G1 X88.976 Y97.245 E.02107
G1 X88.369 Y97.536 E.02111
G1 X87.729 Y97.743 E.02109
G1 X87.07 Y97.864 E.02101
G1 X86.226 Y97.892 E.02648
G1 X85.625 Y97.823 E.01897
G1 X85.072 Y97.699 E.01777
G1 X84.281 Y97.4 E.02651
G1 X83.696 Y97.071 E.02104
G1 X83.159 Y96.667 E.02107
G1 X82.679 Y96.195 E.02111
G1 X82.266 Y95.665 E.02107
G1 X81.926 Y95.084 E.02111
G1 X81.666 Y94.464 E.02108
G1 X81.49 Y93.814 E.02111
G1 X81.402 Y93.148 E.02106
G1 X81.402 Y92.475 E.0211
G1 X81.49 Y91.808 E.02109
G1 X81.666 Y91.159 E.02108
G1 X81.926 Y90.538 E.02111
G1 X82.266 Y89.958 E.02108
G1 X82.679 Y89.427 E.02109
G1 X83.159 Y88.955 E.02111
G1 X83.697 Y88.551 E.0211
G1 X84.283 Y88.222 E.02107
G1 X84.906 Y87.973 E.02104
G1 X85.657 Y87.797 E.02419
G1 X86.224 Y87.73 E.0179
G1 X87.071 Y87.758 E.02657
G1 X87.632 Y87.862 E.01789
G1 X88.448 Y88.124 E.02687
G1 X89.163 Y88.496 E.02527
G1 X89.724 Y88.916 E.02197
G1 X90.108 Y89.25 E.01596
G1 X90.538 Y89.748 E.02063
G1 X90.968 Y90.433 E.02536
G1 X91.222 Y90.984 E.01902
G1 X91.407 Y91.555 E.01882
G1 X91.53 Y92.215 E.02105
G1 X91.54 Y92.421 E.00647
G1 E-3.5 F3600
;WIPE_START
G1 F7200
G1 X91.543 Y92.481 E-.02854
G1 X91.564 Y92.886 E-.19263
G1 X91.525 Y93.483 E-.28418
G1 X91.392 Y94.142 E-.31934
G1 X91.174 Y94.778 E-.31935
G1 X90.873 Y95.38 E-.3197
G1 X90.83 Y95.443 E-.03626
;WIPE_END
G1 X90.168 Y90.789 F9000
G1 E5 F2400
;TYPE:Solid infill
;WIDTH:0.427204
G1 F1200
G1 X89.297 Y89.918 E.03936
G1 X88.782 Y89.492 E.02136
G1 X88.468 Y89.292 E.0119
G1 X87.991 Y89.064 E.01689
G1 X87.859 Y89.024 E.00441
G1 X88.221 Y89.385 E.01634
G1 X88.38 Y89.457 E.00558
G1 X88.876 Y89.795 E.01918
G1 X89.034 Y89.928 E.0066
G1 X89.411 Y90.307 E.01708
G1 X89.765 Y90.799 E.01937
G1 X89.894 Y91.058 E.00925
G1 X90.546 Y91.71 E.02946
G1 X89.985 Y91.692 F9000
G1 F1200
G1 X90.466 Y92.174 E.02176
G1 X90.52 Y92.771 E.01915
G1 X90.313 Y92.564 E.00935
G1 X90.335 Y92.811 E.00792
G1 X90.309 Y93.103 E.00937
G1 X90.491 Y93.285 E.00822
G1 X90.487 Y93.344 E.00189
G1 X90.407 Y93.744 E.01303
G1 X90.25 Y93.588 E.00707
G1 X90.135 Y94.016 E.01416
G1 X90.281 Y94.162 E.0066
G1 X90.208 Y94.373 E.00713
G1 X90.122 Y94.547 E.0062
G1 X89.975 Y94.4 E.00664
G1 X89.8 Y94.768 E.01302
G1 X89.935 Y94.903 E.0061
G1 X89.715 Y95.227 E.01251
G1 X89.578 Y95.089 E.00621
G1 X89.336 Y95.391 E.01237
G1 X89.467 Y95.522 E.00592
G1 X89.315 Y95.693 E.00731
G1 X89.196 Y95.795 E.00501
G1 X89.057 Y95.656 E.00628
G1 X88.878 Y95.826 E.00789
G1 X88.762 Y95.905 E.00448
G1 X88.903 Y96.045 E.00635
G1 X88.574 Y96.26 E.01256
G1 X88.439 Y96.125 E.0061
G1 X88.078 Y96.307 E.01292
G1 X88.22 Y96.449 E.00642
G1 X87.981 Y96.564 E.00847
G1 X87.838 Y96.61 E.0048
G1 X87.694 Y96.466 E.00651
G1 X87.263 Y96.579 E.01424
G1 X87.422 Y96.738 E.00719
G1 X86.963 Y96.822 E.01491
G1 X86.782 Y96.641 E.00818
G1 X86.517 Y96.666 E.00851
G1 X86.239 Y96.642 E.00892
G1 X86.437 Y96.84 E.00895
G1 X86.269 Y96.846 E.00537
G1 X85.851 Y96.797 E.01345
G1 X85.367 Y96.313 E.02187
G1 E-3.5 F3600
;WIPE_START
G1 F7200
G1 X85.851 Y96.797 E-.32513
G1 X86.269 Y96.846 E-.19991
G1 X86.437 Y96.84 E-.07985
G1 X86.239 Y96.642 E-.13301
G1 X86.517 Y96.666 E-.13254
G1 X86.782 Y96.641 E-.12643
G1 X86.963 Y96.822 E-.12159
G1 X87.422 Y96.738 E-.22165
G1 X87.263 Y96.579 E-.10681
G1 X87.371 Y96.551 E-.05308
;WIPE_END
G1 X87.6 Y89.308 F9000
G1 E5 F2400
G1 F1200
G1 X87.118 Y88.825 E.0218
G1 X86.966 Y88.8 E.00492
G1 X86.534 Y88.785 E.01381
G1 X86.723 Y88.974 E.00854
G1 X86.376 Y88.96 E.0111
G1 X86.188 Y88.982 E.00605
G1 X86.008 Y88.802 E.00813
G1 X85.901 Y88.812 E.00343
G1 X85.556 Y88.893 E.01132
G1 X85.701 Y89.039 E.00658
G1 X85.278 Y89.159 E.01405
G1 X85.128 Y89.009 E.00678
G1 X84.739 Y89.164 E.01338
G1 X84.887 Y89.312 E.00669
G1 X84.641 Y89.426 E.00866
G1 X84.531 Y89.499 E.00422
G1 X84.391 Y89.359 E.00633
G1 X84.067 Y89.579 E.01251
G1 X84.205 Y89.716 E.00621
G1 X84.051 Y89.819 E.00592
G1 X83.905 Y89.96 E.00649
G1 X83.767 Y89.822 E.00624
G1 X83.493 Y90.092 E.01229
G1 X83.628 Y90.227 E.0061
G1 X83.386 Y90.528 E.01234
G1 X83.251 Y90.393 E.0061
G1 X83.133 Y90.545 E.00615
G1 X83.032 Y90.717 E.00637
G1 X83.164 Y90.85 E.00599
G1 X82.985 Y91.214 E.01296
G1 X82.838 Y91.067 E.00664
G1 X82.677 Y91.449 E.01325
G1 X82.833 Y91.605 E.00705
G1 X82.718 Y92.034 E.01419
G1 X82.555 Y91.871 E.00737
G1 X82.517 Y92.014 E.00473
G1 X82.474 Y92.334 E.01032
G1 X82.649 Y92.509 E.00791
G1 X82.624 Y92.812 E.00971
G1 X82.649 Y93.052 E.00771
G1 X82.447 Y92.85 E.00913
G1 X82.446 Y93.079 E.00732
G1 X82.494 Y93.441 E.01167
G1 X82.972 Y93.918 E.02158
G1 X82.424 Y93.913 F9000
G1 F1200
G1 X83.044 Y94.534 E.02804
